;FLAVOR:Marlin
M117 Time Left 2h16m11s
;Filament used: 5.51084m
;Layer height: 0.2
;MINX:108.126
;MINY:108.126
;MINZ:0.2
;MAXX:191.874
;MAXY:191.874
;MAXZ:110.104
;POSTPROCESSED
;Generated with Cura_SteamEngine 4.4.1
M140 S55
M105
M190 S55
M104 S210
M105
M109 S210
M82 ;absolute extrusion mode
M201 X500.00 Y500.00 Z100.00 E5000.00 ;Setup machine max acceleration
M203 X500.00 Y500.00 Z10.00 E50.00 ;Setup machine max feedrate
M204 P500.00 R1000.00 T500.00 ;Setup Print/Retract/Travel acceleration
M205 X8.00 Y8.00 Z0.40 E5.00 ;Setup Jerk
M220 S100 ;Reset Feedrate
M221 S100 ;Reset Flowrate

G28 ;Home

G92 E0 ;Reset Extruder
G1 Z2.0 F3000 ;Move Z Axis up
G1 X10.1 Y20 Z0.28 F5000.0 ;Move to start position
G1 X10.1 Y200.0 Z0.28 F1500.0 E15 ;Draw the first line
G1 X10.4 Y200.0 Z0.28 F5000.0 ;Move to side a little
G1 X10.4 Y20 Z0.28 F1500.0 E30 ;Draw the second line
G92 E0 ;Reset Extruder
G1 Z2.0 F3000 ;Move Z Axis up

G92 E0
G92 E0
G1 F1800 E-6.5
;LAYER_COUNT:550
;LAYER:0
M117 Layer 1 pencil holder of 550
M107
G1 F300 Z0.7
G0 F6000 X114.401 Y114.154 Z0.7
;TYPE:SKIRT
G1 F300 Z0.2
G1 F1800 E0
G1 F600 X114.912 Y113.667 E0.02342
G1 X115.225 Y113.384 E0.03742
G1 X115.741 Y112.943 E0.05994
G1 X116.063 Y112.682 E0.07369
G1 X116.616 Y112.258 E0.09681
G1 X116.937 Y112.024 E0.10999
G1 X117.509 Y111.63 E0.13303
G1 X117.85 Y111.409 E0.14651
G1 X118.426 Y111.055 E0.16894
G1 X118.792 Y110.843 E0.18298
G1 X119.408 Y110.509 E0.20622
G1 X119.748 Y110.335 E0.2189
G1 X120.362 Y110.04 E0.2415
G1 X120.754 Y109.865 E0.25574
G1 X121.396 Y109.599 E0.27879
G1 X121.798 Y109.445 E0.29308
G1 X122.456 Y109.214 E0.31621
G1 X122.82 Y109.097 E0.3289
G1 X123.487 Y108.899 E0.35198
G1 X123.872 Y108.795 E0.36521
G1 X124.533 Y108.635 E0.38778
G1 X124.955 Y108.545 E0.40209
G1 X125.639 Y108.419 E0.42517
G1 X126.025 Y108.358 E0.43813
G1 X126.71 Y108.267 E0.46106
G1 X127.121 Y108.223 E0.47477
G1 X127.803 Y108.169 E0.49747
G1 X128.217 Y108.148 E0.51122
G1 X128.911 Y108.13 E0.53425
G1 X129.089 Y108.127 E0.54016
G1 X129.409 Y108.126 E0.55078
G1 X129.433 Y108.126 E0.55157
G1 X170.879 Y108.127 E1.92663
G1 X171.08 Y108.13 E1.9333
G1 X171.777 Y108.148 E1.95643
G1 X172.175 Y108.168 E1.96965
G1 X172.85 Y108.22 E1.99211
G1 X173.273 Y108.264 E2.00622
G1 X173.954 Y108.354 E2.02901
G1 X174.355 Y108.418 E2.04248
G1 X175.05 Y108.547 E2.06593
G1 X175.445 Y108.631 E2.07933
G1 X176.1 Y108.788 E2.10168
G1 X176.493 Y108.893 E2.11517
G1 X177.156 Y109.089 E2.13811
G1 X177.534 Y109.211 E2.15129
G1 X178.202 Y109.446 E2.17478
G1 X178.605 Y109.601 E2.18911
G1 X179.231 Y109.861 E2.2116
G1 X179.598 Y110.024 E2.22492
G1 X180.233 Y110.327 E2.24826
G1 X180.569 Y110.498 E2.26077
G1 X181.177 Y110.825 E2.28367
G1 X181.571 Y111.051 E2.29874
G1 X182.151 Y111.408 E2.32134
G1 X182.488 Y111.628 E2.33469
G1 X183.051 Y112.016 E2.35738
G1 X183.363 Y112.243 E2.37018
G1 X183.924 Y112.672 E2.39361
G1 X184.264 Y112.947 E2.40812
G1 X184.784 Y113.393 E2.43085
G1 X185.07 Y113.652 E2.44365
G1 X185.564 Y114.12 E2.46622
G1 X185.846 Y114.401 E2.47943
G1 X186.333 Y114.912 E2.50285
G1 X186.616 Y115.225 E2.51685
G1 X187.057 Y115.741 E2.53937
G1 X187.318 Y116.063 E2.55312
G1 X187.742 Y116.616 E2.57624
G1 X187.976 Y116.937 E2.58942
G1 X188.37 Y117.509 E2.61246
G1 X188.591 Y117.85 E2.62594
G1 X188.945 Y118.426 E2.64837
G1 X189.157 Y118.792 E2.66241
G1 X189.491 Y119.408 E2.68566
G1 X189.662 Y119.744 E2.69816
G1 X189.957 Y120.357 E2.72073
G1 X190.137 Y120.757 E2.73529
G1 X190.403 Y121.4 E2.75837
G1 X190.553 Y121.795 E2.77239
G1 X190.784 Y122.452 E2.7955
G1 X190.904 Y122.822 E2.8084
G1 X191.102 Y123.49 E2.83152
G1 X191.205 Y123.872 E2.84464
G1 X191.365 Y124.533 E2.86721
G1 X191.455 Y124.953 E2.88146
G1 X191.581 Y125.636 E2.9045
G1 X191.641 Y126.013 E2.91716
G1 X191.732 Y126.691 E2.93986
G1 X191.777 Y127.12 E2.95417
G1 X191.831 Y127.809 E2.9771
G1 X191.852 Y128.215 E2.99059
G1 X191.87 Y128.905 E3.01349
G1 X191.873 Y129.108 E3.02022
G1 X191.874 Y170.878 E4.40603
G1 X191.871 Y171.09 E4.41306
G1 X191.852 Y171.788 E4.43623
G1 X191.832 Y172.178 E4.44918
G1 X191.78 Y172.85 E4.47154
G1 X191.736 Y173.266 E4.48542
G1 X191.646 Y173.95 E4.50831
G1 X191.582 Y174.355 E4.52191
G1 X191.453 Y175.05 E4.54537
G1 X191.369 Y175.445 E4.55876
G1 X191.212 Y176.1 E4.58111
G1 X191.107 Y176.493 E4.59461
G1 X190.911 Y177.156 E4.61754
G1 X190.791 Y177.529 E4.63054
G1 X190.56 Y178.187 E4.65368
G1 X190.405 Y178.59 E4.668
G1 X190.143 Y179.222 E4.6907
G1 X189.977 Y179.595 E4.70425
G1 X189.672 Y180.234 E4.72774
G1 X189.506 Y180.562 E4.73994
G1 X189.183 Y181.164 E4.7626
G1 X188.953 Y181.564 E4.77791
G1 X188.593 Y182.149 E4.8007
G1 X188.371 Y182.49 E4.8142
G1 X187.982 Y183.054 E4.83693
G1 X187.757 Y183.363 E4.84961
G1 X187.328 Y183.924 E4.87304
G1 X187.053 Y184.264 E4.88755
G1 X186.607 Y184.784 E4.91028
G1 X186.348 Y185.07 E4.92308
G1 X185.88 Y185.564 E4.94566
G1 X185.598 Y185.847 E4.95891
G1 X185.091 Y186.33 E4.98214
G1 X184.782 Y186.609 E4.99595
G1 X184.262 Y187.054 E5.01866
G1 X183.937 Y187.318 E5.03255
G1 X183.384 Y187.742 E5.05567
G1 X183.055 Y187.981 E5.06916
G1 X182.483 Y188.374 E5.09219
G1 X182.164 Y188.582 E5.10482
G1 X181.589 Y188.937 E5.12724
G1 X181.204 Y189.159 E5.14199
G1 X180.587 Y189.493 E5.16526
G1 X180.252 Y189.665 E5.17776
G1 X179.638 Y189.96 E5.20036
G1 X179.246 Y190.135 E5.2146
G1 X178.604 Y190.401 E5.23766
G1 X178.205 Y190.553 E5.25182
G1 X177.548 Y190.784 E5.27493
G1 X177.178 Y190.904 E5.28783
G1 X176.51 Y191.102 E5.31095
G1 X176.128 Y191.205 E5.32407
G1 X175.467 Y191.365 E5.34664
G1 X175.045 Y191.455 E5.36095
G1 X174.361 Y191.581 E5.38403
G1 X173.975 Y191.642 E5.39699
G1 X173.29 Y191.733 E5.41992
G1 X172.879 Y191.777 E5.43363
G1 X172.197 Y191.831 E5.45633
G1 X171.783 Y191.852 E5.47008
G1 X171.089 Y191.87 E5.49311
G1 X170.911 Y191.873 E5.49902
G1 X170.591 Y191.874 E5.50964
G1 X170.567 Y191.874 E5.51043
G1 X129.122 Y191.873 E6.88545
G1 X128.921 Y191.87 E6.89212
G1 X128.223 Y191.852 E6.91529
G1 X127.825 Y191.832 E6.92851
G1 X127.15 Y191.78 E6.95097
G1 X126.727 Y191.736 E6.96508
G1 X126.046 Y191.646 E6.98787
G1 X125.645 Y191.582 E7.00134
G1 X124.95 Y191.453 E7.02479
G1 X124.555 Y191.369 E7.03819
G1 X123.9 Y191.212 E7.06054
G1 X123.51 Y191.108 E7.07393
G1 X122.846 Y190.912 E7.0969
G1 X122.462 Y190.788 E7.11029
G1 X121.795 Y190.553 E7.13375
G1 X121.395 Y190.399 E7.14797
G1 X120.769 Y190.139 E7.17046
G1 X120.402 Y189.976 E7.18378
G1 X119.767 Y189.673 E7.20712
G1 X119.431 Y189.502 E7.21963
G1 X118.823 Y189.175 E7.24254
G1 X118.416 Y188.94 E7.25813
G1 X117.837 Y188.582 E7.28071
G1 X117.518 Y188.374 E7.29335
G1 X116.954 Y187.986 E7.31606
G1 X116.642 Y187.76 E7.32884
G1 X116.08 Y187.331 E7.3523
G1 X115.736 Y187.052 E7.36699
G1 X115.217 Y186.607 E7.38967
G1 X114.93 Y186.348 E7.4025
G1 X114.436 Y185.88 E7.42508
G1 X114.154 Y185.6 E7.43826
G1 X113.666 Y185.088 E7.46173
G1 X113.383 Y184.774 E7.47575
G1 X112.942 Y184.258 E7.49827
G1 X112.68 Y183.934 E7.5121
G1 X112.257 Y183.382 E7.53517
G1 X112.026 Y183.065 E7.54818
G1 X111.631 Y182.492 E7.57127
G1 X111.405 Y182.145 E7.58501
G1 X111.049 Y181.565 E7.60759
G1 X110.839 Y181.2 E7.62156
G1 X110.508 Y180.589 E7.64461
G1 X110.335 Y180.252 E7.65718
G1 X110.04 Y179.638 E7.67978
G1 X109.864 Y179.244 E7.6941
G1 X109.594 Y178.592 E7.71751
G1 X109.44 Y178.187 E7.73189
G1 X109.213 Y177.539 E7.75467
G1 X109.097 Y177.18 E7.76718
G1 X108.899 Y176.513 E7.79027
G1 X108.795 Y176.128 E7.8035
G1 X108.635 Y175.467 E7.82606
G1 X108.545 Y175.047 E7.84031
G1 X108.419 Y174.364 E7.86335
G1 X108.358 Y173.98 E7.87625
G1 X108.266 Y173.29 E7.89935
G1 X108.222 Y172.866 E7.91349
G1 X108.169 Y172.187 E7.93609
G1 X108.148 Y171.783 E7.94951
G1 X108.13 Y171.09 E7.97251
G1 X108.127 Y170.911 E7.97845
G1 X108.126 Y170.591 E7.98906
G1 X108.126 Y170.567 E7.98986
G1 X108.127 Y129.122 E9.36488
G1 X108.13 Y128.921 E9.37155
G1 X108.148 Y128.223 E9.39471
G1 X108.168 Y127.822 E9.40803
G1 X108.22 Y127.15 E9.4304
G1 X108.264 Y126.734 E9.44427
G1 X108.354 Y126.05 E9.46716
G1 X108.418 Y125.645 E9.48077
G1 X108.547 Y124.95 E9.50422
G1 X108.631 Y124.555 E9.51762
G1 X108.788 Y123.9 E9.53996
G1 X108.893 Y123.507 E9.55346
G1 X109.089 Y122.844 E9.5764
G1 X109.209 Y122.471 E9.5894
G1 X109.44 Y121.813 E9.61253
G1 X109.595 Y121.41 E9.62686
G1 X109.857 Y120.778 E9.64956
G1 X110.023 Y120.405 E9.6631
G1 X110.328 Y119.766 E9.68659
G1 X110.495 Y119.435 E9.69889
G1 X110.821 Y118.828 E9.72175
G1 X111.05 Y118.43 E9.73699
G1 X111.407 Y117.85 E9.75958
G1 X111.629 Y117.51 E9.77305
G1 X112.018 Y116.946 E9.79578
G1 X112.243 Y116.637 E9.80847
G1 X112.672 Y116.076 E9.8319
G1 X112.947 Y115.736 E9.8464
G1 X113.393 Y115.216 E9.86913
G1 X113.652 Y114.93 E9.88193
G1 X114.12 Y114.436 E9.90451
G1 X114.401 Y114.154 E9.91772
G0 F6000 X114.677 Y114.443
G1 F600 X115.188 Y113.956 E9.94114
G1 X115.485 Y113.688 E9.95441
G1 X116.001 Y113.247 E9.97693
G1 X116.306 Y112.999 E9.98997
G1 X116.859 Y112.575 E10.01309
G1 X117.164 Y112.354 E10.02559
G1 X117.736 Y111.96 E10.04863
G1 X118.059 Y111.749 E10.06143
G1 X118.635 Y111.395 E10.08386
G1 X118.983 Y111.195 E10.09718
G1 X119.599 Y110.861 E10.12043
G1 X119.921 Y110.696 E10.13243
G1 X120.535 Y110.401 E10.15503
G1 X120.907 Y110.235 E10.16854
G1 X121.549 Y109.969 E10.1916
G1 X121.931 Y109.823 E10.20517
G1 X122.589 Y109.592 E10.2283
G1 X122.934 Y109.48 E10.24034
G1 X123.601 Y109.282 E10.26342
G1 X123.966 Y109.184 E10.27596
G1 X124.627 Y109.024 E10.29852
G1 X125.027 Y108.938 E10.3121
G1 X125.711 Y108.812 E10.33517
G1 X126.077 Y108.754 E10.34747
G1 X126.762 Y108.663 E10.37039
G1 X127.153 Y108.622 E10.38344
G1 X127.835 Y108.568 E10.40613
G1 X128.227 Y108.547 E10.41916
G1 X128.921 Y108.529 E10.44219
G1 X129.09 Y108.527 E10.4478
G1 X129.41 Y108.526 E10.45841
G1 X129.433 Y108.526 E10.45918
G1 X170.879 Y108.527 E11.83423
G1 X171.07 Y108.529 E11.84057
G1 X171.767 Y108.547 E11.8637
G1 X172.144 Y108.567 E11.87622
G1 X172.819 Y108.619 E11.89869
G1 X173.221 Y108.661 E11.9121
G1 X173.902 Y108.751 E11.93489
G1 X174.282 Y108.811 E11.94765
G1 X174.977 Y108.94 E11.9711
G1 X175.352 Y109.02 E11.98382
G1 X176.007 Y109.177 E12.00617
G1 X176.38 Y109.277 E12.01898
G1 X177.043 Y109.473 E12.04192
G1 X177.401 Y109.588 E12.05439
G1 X178.069 Y109.823 E12.07789
G1 X178.451 Y109.97 E12.09147
G1 X179.077 Y110.23 E12.11395
G1 X179.426 Y110.385 E12.12662
G1 X180.061 Y110.688 E12.14997
G1 X180.379 Y110.85 E12.16181
G1 X180.987 Y111.177 E12.18471
G1 X181.361 Y111.392 E12.19902
G1 X181.941 Y111.749 E12.22162
G1 X182.261 Y111.958 E12.2343
G1 X182.824 Y112.346 E12.25698
G1 X183.12 Y112.561 E12.26912
G1 X183.681 Y112.99 E12.29255
G1 X184.004 Y113.251 E12.30633
G1 X184.524 Y113.697 E12.32906
G1 X184.795 Y113.942 E12.34118
G1 X185.289 Y114.41 E12.36376
G1 X185.557 Y114.677 E12.37631
G1 X186.044 Y115.188 E12.39973
G1 X186.312 Y115.485 E12.413
G1 X186.753 Y116.001 E12.43552
G1 X187.001 Y116.306 E12.44856
G1 X187.425 Y116.859 E12.47168
G1 X187.646 Y117.164 E12.48418
G1 X188.04 Y117.736 E12.50722
G1 X188.251 Y118.059 E12.52002
G1 X188.605 Y118.635 E12.54245
G1 X188.805 Y118.983 E12.55577
G1 X189.139 Y119.599 E12.57901
G1 X189.302 Y119.917 E12.59087
G1 X189.597 Y120.53 E12.61344
G1 X189.767 Y120.91 E12.62725
G1 X190.033 Y121.553 E12.65034
G1 X190.176 Y121.927 E12.66362
G1 X190.407 Y122.584 E12.68673
G1 X190.521 Y122.936 E12.699
G1 X190.719 Y123.604 E12.72212
G1 X190.816 Y123.966 E12.73455
G1 X190.976 Y124.627 E12.75711
G1 X191.061 Y125.025 E12.77062
G1 X191.187 Y125.708 E12.79366
G1 X191.244 Y126.067 E12.80572
G1 X191.335 Y126.745 E12.82841
G1 X191.378 Y127.151 E12.84196
G1 X191.432 Y127.84 E12.86489
G1 X191.452 Y128.225 E12.87768
G1 X191.47 Y128.915 E12.90058
G1 X191.473 Y129.108 E12.90698
G1 X191.474 Y170.878 E14.29279
G1 X191.471 Y171.079 E14.29945
G1 X191.452 Y171.777 E14.32262
G1 X191.433 Y172.147 E14.33491
G1 X191.381 Y172.819 E14.35727
G1 X191.34 Y173.213 E14.37042
G1 X191.25 Y173.897 E14.3933
G1 X191.189 Y174.282 E14.40624
G1 X191.06 Y174.977 E14.42969
G1 X190.98 Y175.352 E14.44241
G1 X190.823 Y176.007 E14.46476
G1 X190.723 Y176.38 E14.47757
G1 X190.527 Y177.043 E14.50051
G1 X190.413 Y177.396 E14.51281
G1 X190.182 Y178.054 E14.53595
G1 X190.036 Y178.437 E14.54955
G1 X189.774 Y179.069 E14.57225
G1 X189.616 Y179.423 E14.58511
G1 X189.311 Y180.062 E14.6086
G1 X189.154 Y180.373 E14.62016
G1 X188.831 Y180.975 E14.64282
G1 X188.612 Y181.354 E14.65735
G1 X188.252 Y181.939 E14.68013
G1 X188.042 Y182.262 E14.69292
G1 X187.653 Y182.826 E14.71565
G1 X187.439 Y183.12 E14.72771
G1 X187.01 Y183.681 E14.75114
G1 X186.749 Y184.004 E14.76492
G1 X186.303 Y184.524 E14.78765
G1 X186.058 Y184.795 E14.79977
G1 X185.59 Y185.289 E14.82235
G1 X185.322 Y185.558 E14.83494
G1 X184.815 Y186.041 E14.85818
G1 X184.522 Y186.305 E14.87126
G1 X184.002 Y186.75 E14.89397
G1 X183.694 Y187.001 E14.90715
G1 X183.141 Y187.425 E14.93027
G1 X182.829 Y187.651 E14.94305
G1 X182.257 Y188.044 E14.96607
G1 X181.953 Y188.242 E14.97811
G1 X181.378 Y188.597 E15.00053
G1 X181.014 Y188.808 E15.01449
G1 X180.397 Y189.142 E15.03777
G1 X180.079 Y189.304 E15.04961
G1 X179.465 Y189.599 E15.07221
G1 X179.093 Y189.765 E15.08572
G1 X178.451 Y190.031 E15.10878
G1 X178.073 Y190.176 E15.12221
G1 X177.416 Y190.407 E15.14531
G1 X177.064 Y190.521 E15.15759
G1 X176.396 Y190.719 E15.1807
G1 X176.034 Y190.816 E15.19314
G1 X175.373 Y190.976 E15.2157
G1 X174.973 Y191.062 E15.22928
G1 X174.289 Y191.188 E15.25235
G1 X173.923 Y191.246 E15.26465
G1 X173.238 Y191.337 E15.28757
G1 X172.847 Y191.378 E15.30061
G1 X172.165 Y191.432 E15.32331
G1 X171.773 Y191.453 E15.33634
G1 X171.079 Y191.471 E15.35937
G1 X170.91 Y191.473 E15.36498
G1 X170.59 Y191.474 E15.37559
G1 X170.567 Y191.474 E15.37636
G1 X129.122 Y191.473 E16.75138
G1 X128.931 Y191.471 E16.75771
G1 X128.233 Y191.453 E16.78088
G1 X127.856 Y191.433 E16.7934
G1 X127.181 Y191.381 E16.81586
G1 X126.779 Y191.339 E16.82927
G1 X126.098 Y191.249 E16.85206
G1 X125.718 Y191.189 E16.86483
G1 X125.023 Y191.06 E16.88828
G1 X124.648 Y190.98 E16.901
G1 X123.993 Y190.823 E16.92335
G1 X123.623 Y190.724 E16.93605
G1 X122.959 Y190.528 E16.95902
G1 X122.595 Y190.41 E16.97172
G1 X121.928 Y190.175 E16.99518
G1 X121.549 Y190.03 E17.00864
G1 X120.923 Y189.77 E17.03113
G1 X120.574 Y189.615 E17.0438
G1 X119.939 Y189.312 E17.06714
G1 X119.621 Y189.15 E17.07899
G1 X119.013 Y188.823 E17.10189
G1 X118.626 Y188.6 E17.11671
G1 X118.047 Y188.242 E17.13929
G1 X117.745 Y188.045 E17.15126
G1 X117.181 Y187.657 E17.17397
G1 X116.885 Y187.442 E17.18611
G1 X116.323 Y187.013 E17.20956
G1 X115.996 Y186.749 E17.22351
G1 X115.477 Y186.304 E17.24619
G1 X115.205 Y186.058 E17.25835
G1 X114.711 Y185.59 E17.28093
G1 X114.443 Y185.324 E17.29346
G1 X113.955 Y184.812 E17.31692
G1 X113.687 Y184.514 E17.33022
G1 X113.246 Y183.998 E17.35274
G1 X112.997 Y183.691 E17.36586
G1 X112.574 Y183.139 E17.38893
G1 X112.355 Y182.838 E17.40128
G1 X111.96 Y182.265 E17.42437
G1 X111.746 Y181.936 E17.43739
G1 X111.39 Y181.356 E17.45997
G1 X111.19 Y181.01 E17.47323
G1 X110.859 Y180.399 E17.49628
G1 X110.696 Y180.079 E17.5082
G1 X110.401 Y179.465 E17.5308
G1 X110.234 Y179.091 E17.54438
G1 X109.964 Y178.439 E17.5678
G1 X109.817 Y178.055 E17.58144
G1 X109.59 Y177.407 E17.60422
G1 X109.48 Y177.066 E17.61611
G1 X109.282 Y176.399 E17.63919
G1 X109.184 Y176.034 E17.65173
G1 X109.024 Y175.373 E17.67429
G1 X108.939 Y174.975 E17.68779
G1 X108.813 Y174.292 E17.71084
G1 X108.755 Y173.927 E17.7231
G1 X108.663 Y173.237 E17.74619
G1 X108.62 Y172.835 E17.7596
G1 X108.567 Y172.156 E17.7822
G1 X108.547 Y171.772 E17.79496
G1 X108.529 Y171.079 E17.81796
G1 X108.527 Y170.91 E17.82356
G1 X108.526 Y170.59 E17.83418
G1 X108.526 Y170.567 E17.83494
G1 X108.527 Y129.122 E19.20996
G1 X108.529 Y128.931 E19.2163
G1 X108.547 Y128.233 E19.23947
G1 X108.567 Y127.853 E19.25209
G1 X108.619 Y127.181 E19.27445
G1 X108.66 Y126.787 E19.2876
G1 X108.75 Y126.103 E19.31048
G1 X108.811 Y125.718 E19.32342
G1 X108.94 Y125.023 E19.34687
G1 X109.02 Y124.648 E19.35959
G1 X109.177 Y123.993 E19.38194
G1 X109.277 Y123.62 E19.39475
G1 X109.473 Y122.957 E19.41769
G1 X109.587 Y122.604 E19.42999
G1 X109.818 Y121.946 E19.45313
G1 X109.964 Y121.563 E19.46673
G1 X110.226 Y120.931 E19.48943
