;FLAVOR:Marlin
M117 Time Left 0h35m42s
;Filament used: 1.25533m
;Layer height: 0.2
;MINX:125.26
;MINY:125.268
;MINZ:0.2
;MAXX:174.749
;MAXY:174.733
;MAXZ:8
;POSTPROCESSED
;Generated with Cura_SteamEngine 4.6.1
M140 S58
M105
M190 S58
M104 S195
M105
M109 S195
M82 ;absolute extrusion mode
M201 X500.00 Y500.00 Z100.00 E5000.00 ;Setup machine max acceleration
M203 X500.00 Y500.00 Z10.00 E50.00 ;Setup machine max feedrate
M204 P500.00 R1000.00 T500.00 ;Setup Print/Retract/Travel acceleration
M205 X8.00 Y8.00 Z0.40 E5.00 ;Setup Jerk
M220 S100 ;Reset Feedrate
M221 S100 ;Reset Flowrate

G28 ;Home

G92 E0 ;Reset Extruder
G1 Z2.0 F3000 ;Move Z Axis up
G1 X10.1 Y20 Z0.28 F5000.0 ;Move to start position
G1 X10.1 Y200.0 Z0.28 F1500.0 E15 ;Draw the first line
G1 X10.4 Y200.0 Z0.28 F5000.0 ;Move to side a little
G1 X10.4 Y20 Z0.28 F1500.0 E30 ;Draw the second line
G92 E0 ;Reset Extruder
G1 Z2.0 F3000 ;Move Z Axis up

G92 E0
G92 E0
G1 F1500 E-5.5
;LAYER_COUNT:40
;LAYER:0
M107
;MESH:stand-elegant-base.stl
G0 F6000 X143.154 Y170.401 Z0.2
;TYPE:WALL-INNER
G1 F1500 E0
G1 F1200 X145.017 Y170.134 E0.0626
G1 X146.32 Y169.66 E0.10871
G1 X146.806 Y169.414 E0.12683
G1 X147.836 Y168.74 E0.16777
G1 X148.339 Y168.316 E0.18965
G1 X149.11 Y167.507 E0.22682
G1 X149.573 Y166.889 E0.25251
G1 X150.082 Y166.026 E0.28583
G1 X150.439 Y165.212 E0.31539
G1 X150.702 Y164.365 E0.34489
G1 X150.886 Y163.38 E0.37822
G1 X150.943 Y162.609 E0.40393
G1 X150.892 Y161.493 E0.44109
G1 X150.789 Y160.844 E0.46295
G1 X150.457 Y159.658 E0.50391
G1 X150.249 Y159.147 E0.52226
G1 X149.375 Y157.651 E0.57988
G1 X148.172 Y156.358 E0.63862
G1 X146.714 Y155.359 E0.69741
G1 X145.12 Y154.723 E0.75449
G1 X142.248 Y153.762 E0.85522
G1 X139.595 Y152.52 E0.95265
G1 X137.074 Y150.974 E1.05101
G1 X134.751 Y149.153 E1.14918
G1 X132.641 Y147.069 E1.24782
G1 X130.754 Y144.726 E1.34788
G1 X130.41 Y144.348 E1.36488
G1 X129.968 Y144.048 E1.38265
G1 X129.464 Y143.859 E1.40055
G1 X128.929 Y143.796 E1.41847
G1 X128.394 Y143.859 E1.43638
G1 X127.89 Y144.048 E1.45429
G1 X127.445 Y144.35 E1.47217
G1 X127.253 Y144.561 E1.48166
G1 X127.083 Y144.748 E1.49007
G1 X126.827 Y145.222 E1.50799
G1 X126.754 Y145.497 E1.51745
G1 X126.693 Y145.726 E1.52533
G1 X126.595 Y147.043 E1.56926
G1 X126.486 Y148.487 E1.61742
G1 X126.474 Y148.635 E1.62236
G1 X126.543 Y150.003 E1.66792
G1 X126.62 Y151.5 E1.71777
G1 X126.713 Y152.025 E1.73551
G1 X127.125 Y154.35 E1.81404
G1 X127.987 Y157.113 E1.91031
G1 X129.19 Y159.747 E2.00662
G1 X130.714 Y162.207 E2.10287
G1 X132.534 Y164.457 E2.19912
G1 X134.624 Y166.46 E2.2954
G1 X136.949 Y168.184 E2.39167
G1 X139.487 Y169.609 E2.48848
G1 X141.285 Y170.228 E2.55173
G1 X142.357 Y170.328 E2.58754
G0 F1080 X143.154 Y170.401
G0 F6000 X143.144 Y169.998
;TYPE:WALL-OUTER
G1 F1200 X144.919 Y169.744 E2.64718
G1 X146.161 Y169.292 E2.69114
G1 X146.605 Y169.067 E2.70769
G1 X147.597 Y168.418 E2.74712
G1 X148.065 Y168.024 E2.76747
G1 X148.804 Y167.248 E2.80311
G1 X149.24 Y166.667 E2.82727
G1 X149.725 Y165.843 E2.85907
G1 X150.064 Y165.072 E2.88708
G1 X150.313 Y164.269 E2.91504
G1 X150.489 Y163.328 E2.94689
G1 X150.542 Y162.604 E2.97103
G1 X150.493 Y161.533 E3.00669
G1 X150.398 Y160.929 E3.02702
G1 X150.078 Y159.788 E3.06644
G1 X149.889 Y159.324 E3.0831
G1 X149.052 Y157.891 E3.1383
G1 X147.909 Y156.663 E3.1941
G1 X146.525 Y155.714 E3.24991
G1 X144.982 Y155.099 E3.30516
G1 X142.098 Y154.133 E3.40632
G1 X139.405 Y152.873 E3.50521
G1 X136.843 Y151.301 E3.60518
G1 X134.486 Y149.454 E3.70478
G1 X132.342 Y147.337 E3.80499
G1 X130.45 Y144.986 E3.90536
G1 X130.146 Y144.652 E3.92038
G1 X129.783 Y144.406 E3.93497
G1 X129.369 Y144.251 E3.94967
G1 X128.929 Y144.199 E3.96441
G1 X128.489 Y144.251 E3.97914
G1 X128.075 Y144.406 E3.99385
G1 X127.709 Y144.654 E4.00855
G1 X127.412 Y144.981 E4.02325
G1 X127.201 Y145.371 E4.03799
G1 X127.089 Y145.793 E4.05251
G1 X126.875 Y148.64 E4.14747
G1 X127.018 Y151.455 E4.24122
G1 X127.514 Y154.255 E4.3358
G1 X128.361 Y156.97 E4.43039
G1 X129.543 Y159.558 E4.52502
G1 X131.041 Y161.975 E4.6196
G1 X132.829 Y164.186 E4.71418
G1 X134.883 Y166.154 E4.80879
G1 X137.167 Y167.848 E4.90337
G1 X139.651 Y169.243 E4.99812
G1 X141.37 Y169.834 E5.05858
G1 X142.348 Y169.925 E5.09125
G0 F1080 X143.144 Y169.998
G0 F6000 X143.539 Y169.942
G0 X143.6 Y170.377
G1 F1500 E-0.40875
G0 F6000 X144.977 Y169.977
G0 X146.256 Y169.512
G0 X146.725 Y169.274
G0 X147.74 Y168.611
G0 X148.229 Y168.199
G0 X148.987 Y167.402
G0 X149.44 Y166.8
G0 X149.938 Y165.952
G0 X150.289 Y165.155
G0 X150.545 Y164.326
G0 X150.727 Y163.359
G0 X150.781 Y162.607
G0 X150.731 Y161.509
G0 X150.633 Y160.878
G0 X150.305 Y159.711
G0 X150.104 Y159.218
G0 X149.246 Y157.748
G0 X148.066 Y156.481
G0 X146.638 Y155.501
G0 X139.869 Y152.018
G0 X137.403 Y150.506
G0 X135.129 Y148.724
G0 X128.929 Y143.222
G0 X127.761 Y143.463
G0 X127.962 Y142.7
G0 X128.417 Y141.447
G0 X129.064 Y139.971
G0 X129.662 Y138.809
G0 X130.526 Y137.365
G0 X131.206 Y136.373
G0 X132.327 Y134.948
G0 X133.047 Y134.142
G0 X134.407 Y132.803
G0 X135.197 Y132.116
G0 X136.693 Y130.979
G0 X137.555 Y130.405
G0 X140.101 Y129.002
G0 X142.792 Y127.935
G0 X144.903 Y127.39
G0 X136.413 Y131.953
G0 X134.215 Y137.527
G0 X136.811 Y143.84
G0 X140.943 Y145.761
G0 X143.686 Y145.633
;TYPE:WALL-INNER
G1 F1500 E5.09125
G1 F1200 X145.407 Y145.241 E5.14996
G1 X147.003 Y144.476 E5.20882
G1 X148.35 Y143.411 E5.26594
G1 X150.614 Y141.411 E5.36641
G1 X153.022 Y139.729 E5.46411
G1 X155.618 Y138.324 E5.56228
G1 X158.365 Y137.218 E5.66078
G1 X161.219 Y136.433 E5.75923
G1 X164.193 Y135.97 E5.85933
G1 X164.69 Y135.862 E5.87625
G1 X165.17 Y135.628 E5.89401
G1 X165.587 Y135.288 E5.91191
G1 X165.911 Y134.854 E5.92992
G1 X166.12 Y134.359 E5.94779
G1 X166.209 Y133.83 E5.96563
G1 X166.17 Y133.291 E5.98361
G1 X166.108 Y133.099 E5.99032
G1 X166.005 Y132.779 E6.0015
G1 X165.725 Y132.321 E6.01935
G1 X165.356 Y131.952 E6.03671
G1 X165.073 Y131.759 E6.0481
G1 X162.946 Y130.309 E6.13372
G1 X162.601 Y130.133 E6.1466
G1 X160.391 Y129.002 E6.22918
G1 X159.958 Y128.846 E6.24448
G1 X157.67 Y128.017 E6.32542
G1 X154.847 Y127.382 E6.42166
G1 X151.964 Y127.107 E6.51799
G1 X149.072 Y127.196 E6.61422
G1 X146.213 Y127.646 E6.71048
G1 X143.433 Y128.454 E6.80677
G1 X140.778 Y129.606 E6.90303
G1 X138.273 Y131.089 E6.99985
G1 X136.84 Y132.339 E7.0631
G1 X135.755 Y133.871 E7.12554
G1 X135.057 Y135.619 E7.18814
G1 X134.816 Y136.985 E7.23428
G1 X134.786 Y137.527 E7.25233
G1 X134.856 Y138.756 E7.29327
G1 X134.97 Y139.404 E7.31516
G1 X135.282 Y140.476 E7.35229
G1 X135.587 Y141.188 E7.37806
G1 X136.081 Y142.059 E7.41136
G1 X136.606 Y142.775 E7.44089
G1 X137.208 Y143.428 E7.47043
G1 X137.97 Y144.08 E7.50379
G1 X138.609 Y144.512 E7.52944
G1 X139.6 Y145.027 E7.56659
G1 X140.213 Y145.264 E7.58845
G1 X141.408 Y145.566 E7.62944
G1 X141.953 Y145.642 E7.64774
G1 X142.886 Y145.637 E7.67877
G0 F1080 X143.686 Y145.633
G0 F6000 X143.64 Y145.233
;TYPE:WALL-OUTER
G1 F1200 X145.275 Y144.861 E7.73455
G1 X146.79 Y144.135 E7.79042
G1 X148.093 Y143.104 E7.84568
G1 X150.364 Y141.097 E7.94649
G1 X152.811 Y139.388 E8.04576
G1 X155.446 Y137.962 E8.14541
G1 X158.241 Y136.837 E8.24562
G1 X161.131 Y136.042 E8.34531
G1 X164.119 Y135.577 E8.44589
G1 X164.558 Y135.481 E8.46084
G1 X164.953 Y135.289 E8.47544
G1 X165.296 Y135.009 E8.49017
G1 X165.561 Y134.654 E8.50491
G1 X165.733 Y134.246 E8.51963
G1 X165.807 Y133.811 E8.53431
G1 X165.775 Y133.368 E8.54908
G1 X165.639 Y132.947 E8.5638
G1 X165.409 Y132.57 E8.57848
G1 X165.1 Y132.262 E8.593
G1 X162.741 Y130.654 E8.68795
G1 X160.231 Y129.37 E8.78172
G1 X157.558 Y128.402 E8.87628
G1 X154.784 Y127.778 E8.97085
G1 X151.951 Y127.508 E9.0655
G1 X149.109 Y127.595 E9.16007
G1 X146.3 Y128.037 E9.25465
G1 X143.569 Y128.831 E9.34924
G1 X140.96 Y129.963 E9.44383
G1 X138.508 Y131.415 E9.53861
G1 X137.139 Y132.609 E9.59903
G1 X136.109 Y134.063 E9.6583
G1 X135.444 Y135.729 E9.71796
G1 X135.214 Y137.031 E9.76193
G1 X135.187 Y137.527 E9.77845
G1 X135.254 Y138.71 E9.81786
G1 X135.36 Y139.313 E9.83823
G1 X135.659 Y140.341 E9.87384
G1 X135.946 Y141.01 E9.89805
G1 X136.417 Y141.841 E9.92982
G1 X136.915 Y142.52 E9.95782
G1 X137.486 Y143.139 E9.98583
G1 X138.213 Y143.761 E10.01766
G1 X138.814 Y144.168 E10.0418
G1 X139.765 Y144.662 E10.07744
G1 X140.335 Y144.882 E10.09776
G1 X141.485 Y145.173 E10.13722
G1 X141.98 Y145.242 E10.15384
G1 X142.84 Y145.237 E10.18244
G0 F1080 X143.64 Y145.233
G0 F6000 X144.03 Y145.145
G0 X144.126 Y145.574
G1 F1500 E4.68244
G0 F6000 X145.61 Y145.821
G0 X146.703 Y147.066
G0 X146.345 Y149.993
G0 X146.449 Y150.867
G0 X146.757 Y151.692
G0 X147.259 Y152.418
G0 X147.63 Y152.75
G0 X149.482 Y154.189
;TYPE:WALL-INNER
G1 F1500 E10.18244
G1 F1200 X150.501 Y154.19 E10.21634
G1 X151.487 Y153.95 E10.25009
G1 X152.39 Y153.48 E10.28395
G1 X153.153 Y152.807 E10.31779
G1 X153.732 Y151.97 E10.35164
G1 X154.096 Y151.018 E10.38554
G1 X154.22 Y150 E10.41965
G1 X154.099 Y149 E10.45315
G1 X153.743 Y148.048 E10.48695
G1 X153.165 Y147.208 E10.52087
G1 X152.407 Y146.532 E10.55465
G1 X151.504 Y146.056 E10.5886
G1 X150.518 Y145.812 E10.62238
G1 X149.499 Y145.811 E10.65627
G1 X148.513 Y146.051 E10.69003
G1 X147.61 Y146.521 E10.72388
G1 X146.847 Y147.194 E10.75772
G1 X146.268 Y148.031 E10.79157
G1 X145.904 Y148.982 E10.82544
G1 X145.78 Y149.991 E10.85925
G1 X145.899 Y151.001 E10.89308
G1 X146.257 Y151.954 E10.92694
G1 X146.835 Y152.793 E10.96083
G1 X147.593 Y153.469 E10.99461
G1 X148.496 Y153.945 E11.02856
G1 X148.705 Y153.997 E11.03572
G0 F1080 X149.482 Y154.189
G0 F6000 X149.531 Y153.789
G1 F1200 X150.453 Y153.79 E11.06639
G1 X151.345 Y153.573 E11.09692
G1 X152.162 Y153.148 E11.12755
G1 X152.852 Y152.539 E11.15816
G1 X153.376 Y151.782 E11.18878
G1 X153.705 Y150.921 E11.21944
G1 X153.817 Y150 E11.2503
G1 X153.708 Y149.095 E11.28061
G1 X153.386 Y148.234 E11.31119
G1 X152.863 Y147.475 E11.34184
G1 X152.177 Y146.863 E11.37242
G1 X151.361 Y146.433 E11.4031
G1 X150.469 Y146.212 E11.43366
G1 X149.547 Y146.211 E11.46433
G1 X148.655 Y146.428 E11.49486
G1 X147.838 Y146.853 E11.52549
G1 X147.148 Y147.462 E11.5561
G1 X146.624 Y148.219 E11.58673
G1 X146.295 Y149.079 E11.61735
G1 X146.183 Y149.992 E11.64794
G1 X146.291 Y150.906 E11.67856
G1 X146.614 Y151.767 E11.70914
G1 X147.137 Y152.526 E11.7398
G1 X147.823 Y153.138 E11.77038
G1 X148.639 Y153.568 E11.80105
G1 X148.754 Y153.597 E11.805
G0 F1080 X149.531 Y153.789
G0 F6000 X149.58 Y153.389
;TYPE:WALL-OUTER
G1 F1200 X150.405 Y153.39 E11.83244
G1 X151.203 Y153.196 E11.85975
G1 X151.934 Y152.816 E11.88715
G1 X152.551 Y152.271 E11.91454
G1 X153.02 Y151.594 E11.94193
G1 X153.314 Y150.824 E11.96934
G1 X153.414 Y150 E11.99695
G1 X153.317 Y149.19 E12.02408
G1 X153.029 Y148.42 E12.05143
G1 X152.561 Y147.742 E12.07883
G1 X151.947 Y147.194 E12.1062
G1 X151.218 Y146.81 E12.1336
G1 X150.42 Y146.612 E12.16095
G1 X149.595 Y146.611 E12.18839
G1 X148.797 Y146.805 E12.2157
G1 X148.066 Y147.185 E12.24311
G1 X147.449 Y147.73 E12.27049
G1 X146.98 Y148.407 E12.29788
G1 X146.686 Y149.176 E12.32526
G1 X146.586 Y149.993 E12.35264
G1 X146.683 Y150.811 E12.38004
G1 X146.971 Y151.581 E12.40738
G1 X147.439 Y152.259 E12.43478
G1 X148.053 Y152.807 E12.46215
G1 X148.782 Y153.191 E12.48956
G1 X148.804 Y153.197 E12.49032
G0 F1080 X149.58 Y153.389
G0 F6000 X149.98 Y153.389
G0 X149.98 Y153.829
G1 F1500 E6.99032
G0 F6000 X151.443 Y154.176
G0 X150.897 Y152.382
G0 X157.375 Y166.787
G0 X155.56 Y166.315
G0 X155.669 Y168.225
G0 X155.058 Y169.825
G0 X155.024 Y170.318
G0 X155.09 Y170.716
G0 X155.923 Y172.581
;TYPE:WALL-INNER
G1 F1500 E12.49032
G1 F1200 X155.722 Y172.627 E12.49717
G1 X155.491 Y172.68 E12.50506
G1 X153.755 Y173.079 E12.5643
G1 X150.77 Y173.37 E12.66405
G1 X148.534 Y173.339 E12.73843
G1 X147.778 Y173.281 E12.76365
G1 X145.634 Y172.973 E12.83569
G1 X144.816 Y172.804 E12.86347
G1 X142.766 Y172.239 E12.9342
G1 X141.943 Y171.954 E12.96317
G1 X140.037 Y171.157 E13.03188
G1 X139.222 Y170.753 E13.06213
G1 X137.463 Y169.74 E13.12965
G1 X136.645 Y169.194 E13.16236
G1 X135.081 Y168.009 E13.22762
G1 X134.288 Y167.32 E13.26256
G1 X132.977 Y166.031 E13.32371
G1 X132.697 Y165.72 E13.33763
G1 X132.194 Y165.16 E13.36267
G1 X132.002 Y164.915 E13.37302
G1 X131.087 Y163.751 E13.42226
G1 X130.415 Y162.777 E13.46162
G1 X130.259 Y162.517 E13.4717
G1 X129.513 Y161.275 E13.51989
G1 X128.926 Y160.134 E13.56257
G1 X128.845 Y159.949 E13.56929
G1 X128.95 Y160.119 E13.56949
G1 X129.623 Y161.206 E13.57793
G1 X130.387 Y162.439 E13.59475
G1 X130.563 Y162.657 E13.59851
G1 X131.305 Y163.574 E13.62173
G1 X132.239 Y164.728 E13.6577
G1 X132.431 Y164.912 E13.66469
G1 X132.974 Y165.433 E13.68796
G1 X134.365 Y166.766 E13.75204
G1 X136.731 Y168.52 E13.85
G1 X139.323 Y169.975 E13.94887
G1 X141.2 Y170.622 E14.0149
G1 X143.164 Y170.804 E14.0805
G1 X145.115 Y170.524 E14.14606
G1 X146.479 Y170.028 E14.19433
G1 X147.006 Y169.761 E14.21398
G1 X148.075 Y169.061 E14.25648
G1 X148.613 Y168.608 E14.27987
G1 X149.416 Y167.766 E14.31857
G1 X149.906 Y167.111 E14.34578
G1 X150.439 Y166.209 E14.38063
G1 X150.814 Y165.352 E14.41174
G1 X151.091 Y164.461 E14.44277
G1 X151.283 Y163.432 E14.47759
G1 X151.344 Y162.615 E14.50484
G1 X151.291 Y161.452 E14.54356
G1 X151.18 Y160.758 E14.56693
G1 X150.836 Y159.528 E14.60941
G1 X150.609 Y158.97 E14.62945
G1 X149.698 Y157.411 E14.68951
G1 X148.435 Y156.053 E14.75119
G1 X146.903 Y155.004 E14.81294
G1 X145.258 Y154.347 E14.87186
G1 X142.398 Y153.391 E14.97216
G1 X139.785 Y152.167 E15.06813
G1 X137.305 Y150.647 E15.16487
G1 X135.016 Y148.852 E15.26162
G1 X132.94 Y146.801 E15.35869
G1 X131.058 Y144.466 E15.45843
G1 X130.674 Y144.044 E15.47741
G1 X130.153 Y143.69 E15.49836
G1 X129.559 Y143.467 E15.51946
G1 X128.929 Y143.393 E15.54056
G1 X128.299 Y143.467 E15.56166
G1 X127.889 Y143.621 E15.57623
G1 X127.705 Y143.69 E15.58276
G1 X127.442 Y143.868 E15.59333
G1 X127.51 Y143.634 E15.59485
G1 X127.565 Y143.445 E15.59995
G1 X127.798 Y142.653 E15.62741
G1 X128.257 Y141.389 E15.67214
G1 X128.913 Y139.892 E15.7265
G1 X129.509 Y138.732 E15.76988
G1 X130.386 Y137.267 E15.82667
G1 X131.073 Y136.266 E15.86705
G1 X132.2 Y134.833 E15.92768
G1 X132.918 Y134.029 E15.96353
G1 X134.287 Y132.682 E16.02741
G1 X135.09 Y131.984 E16.0628
G1 X136.6 Y130.836 E16.12589
G1 X137.467 Y130.258 E16.16055
G1 X139.172 Y129.275 E16.226
G1 X140.03 Y128.847 E16.2579
G1 X141.907 Y128.062 E16.32556
G1 X142.74 Y127.773 E16.35489
G1 X144.811 Y127.2 E16.42636
G1 X145.087 Y127.141 E16.43575
G1 X145.601 Y127.031 E16.45323
G1 X146.084 Y126.963 E16.46945
G1 X147.743 Y126.727 E16.52519
G1 X148.507 Y126.663 E16.55069
G1 X149.034 Y126.663 E16.56821
G1 X151.443 Y126.662 E16.64834
G1 X151.83 Y126.711 E16.66131
G1 X151.445 Y126.722 E16.66225
G1 X149.035 Y126.797 E16.68178
G1 X148.541 Y126.874 E16.68877
G1 X147.786 Y126.993 E16.70425
G1 X146.126 Y127.255 E16.74378
G1 X145.702 Y127.378 E16.75572
G1 X145.197 Y127.524 E16.77237
G1 X143.297 Y128.077 E16.83819
G1 X140.596 Y129.249 E16.93612
G1 X138.038 Y130.763 E17.03498
G1 X136.541 Y132.069 E17.10106
G1 X135.401 Y133.679 E17.16667
G1 X134.67 Y135.509 E17.23221
G1 X134.418 Y136.939 E17.28051
G1 X134.385 Y137.527 E17.30009
G1 X134.458 Y138.802 E17.34257
G1 X134.58 Y139.495 E17.36597
G1 X134.905 Y140.611 E17.40463
G1 X135.228 Y141.366 E17.43195
G1 X135.745 Y142.277 E17.46679
G1 X136.297 Y143.03 E17.49784
G1 X136.93 Y143.717 E17.52891
G1 X137.727 Y144.399 E17.5638
G1 X138.404 Y144.856 E17.59097
G1 X139.435 Y145.392 E17.62961
G1 X140.091 Y145.646 E17.65301
G1 X141.331 Y145.959 E17.69555
G1 X141.926 Y146.042 E17.71553
G1 X143.732 Y146.033 E17.7756
G1 X145.54 Y145.621 E17.83727
G1 X147.216 Y144.817 E17.8991
G1 X148.607 Y143.718 E17.95806
G1 X150.864 Y141.725 E18.05821
G1 X153.233 Y140.07 E18.15433
G1 X155.79 Y138.686 E18.25103
G1 X158.489 Y137.599 E18.34781
G1 X161.307 Y136.824 E18.44501
G1 X164.266 Y136.363 E18.54462
G1 X164.822 Y136.243 E18.56354
G1 X165.387 Y135.967 E18.58445
G1 X165.878 Y135.567 E18.60551
G1 X166.261 Y135.054 E18.62681
G1 X166.507 Y134.471 E18.64785
G1 X166.58 Y134.039 E18.66242
G1 X166.611 Y133.849 E18.66883
G1 X166.591 Y133.566 E18.67826
G1 X166.742 Y133.708 E18.67937
G1 X166.882 Y133.839 E18.68428
G1 X167.026 Y133.974 E18.69084
