;FLAVOR:Marlin
M117 Time Left 0h38m39s
;Filament used: 1.20116m
;Layer height: 0.2
;MINX:97.506
;MINY:121.603
;MINZ:0.2
;MAXX:202.403
;MAXY:177.943
;MAXZ:8
;POSTPROCESSED
;Generated with Cura_SteamEngine 4.6.1
M140 S58
M105
M190 S58
M104 S195
M105
M109 S195
M82 ;absolute extrusion mode
M201 X500.00 Y500.00 Z100.00 E5000.00 ;Setup machine max acceleration
M203 X500.00 Y500.00 Z10.00 E50.00 ;Setup machine max feedrate
M204 P500.00 R1000.00 T500.00 ;Setup Print/Retract/Travel acceleration
M205 X8.00 Y8.00 Z0.40 E5.00 ;Setup Jerk
M220 S100 ;Reset Feedrate
M221 S100 ;Reset Flowrate

G28 ;Home

G92 E0 ;Reset Extruder
G1 Z2.0 F3000 ;Move Z Axis up
G1 X10.1 Y20 Z0.28 F5000.0 ;Move to start position
G1 X10.1 Y200.0 Z0.28 F1500.0 E15 ;Draw the first line
G1 X10.4 Y200.0 Z0.28 F5000.0 ;Move to side a little
G1 X10.4 Y20 Z0.28 F1500.0 E30 ;Draw the second line
G92 E0 ;Reset Extruder
G1 Z2.0 F3000 ;Move Z Axis up

G92 E0
G92 E0
G1 F1500 E-5.5
;LAYER_COUNT:40
;LAYER:0
M107
G0 F6000 X116.689 Y132.266 Z0.2
;TYPE:SKIRT
G1 F1500 E0
G1 F1200 X116.976 Y132.032 E0.01293
G1 X120.333 Y129.56 E0.15853
G1 X120.642 Y129.355 E0.17148
G1 X124.279 Y127.189 E0.31931
G1 X124.603 Y127.016 E0.33214
G1 X128.415 Y125.22 E0.4793
G1 X128.761 Y125.078 E0.49236
G1 X132.753 Y123.658 E0.64033
G1 X133.11 Y123.55 E0.65336
G1 X137.219 Y122.528 E0.80123
G1 X137.608 Y122.453 E0.81506
G1 X138.946 Y122.265 E0.86225
G1 X139.344 Y122.198 E0.87634
G1 X141.756 Y121.844 E0.96148
G1 X142.124 Y121.808 E0.97439
G1 X146.344 Y121.603 E1.12194
G1 X146.746 Y121.605 E1.13598
G1 X148.473 Y121.704 E1.19639
G1 X148.741 Y121.708 E1.20575
G1 X148.876 Y121.713 E1.21047
G1 X150.949 Y121.817 E1.28296
G1 X151.313 Y121.853 E1.29573
G1 X155.377 Y122.452 E1.43919
G1 X155.735 Y122.522 E1.45193
G1 X159.895 Y123.551 E1.60159
G1 X160.259 Y123.661 E1.61487
G1 X164.249 Y125.084 E1.76281
G1 X164.592 Y125.225 E1.77576
G1 X168.411 Y127.024 E1.92319
G1 X168.737 Y127.197 E1.93608
G1 X172.356 Y129.353 E2.0832
G1 X172.666 Y129.559 E2.09619
G1 X176.054 Y132.057 E2.2432
G1 X176.342 Y132.292 E2.25618
G1 X179.472 Y135.111 E2.40329
G1 X179.734 Y135.372 E2.4162
G1 X182.551 Y138.455 E2.56205
G1 X182.786 Y138.738 E2.57489
G1 X185.359 Y142.168 E2.72464
G1 X185.569 Y142.48 E2.73777
G1 X187.729 Y146.047 E2.8834
G1 X187.905 Y146.371 E2.89628
G1 X189.745 Y150.204 E3.04476
G1 X189.889 Y150.545 E3.05769
G1 X191.327 Y154.486 E3.2042
G1 X191.437 Y154.842 E3.21721
G1 X192.493 Y158.947 E3.36524
G1 X192.568 Y159.308 E3.37811
G1 X193.217 Y163.469 E3.52519
G1 X193.254 Y163.801 E3.53685
G1 X193.4 Y165.978 E3.61305
G1 X197.721 Y165.978 E3.76395
G1 X198.083 Y165.995 E3.77661
G1 X198.292 Y166.015 E3.78394
G1 X198.835 Y166.107 E3.80318
G1 X199.582 Y166.376 E3.8309
G1 X199.783 Y166.473 E3.8387
G1 X200.26 Y166.747 E3.85791
G1 X200.636 Y167.037 E3.87449
G1 X200.798 Y167.179 E3.88201
G1 X201.185 Y167.572 E3.90128
G1 X201.394 Y167.841 E3.91317
G1 X201.559 Y168.074 E3.92314
G1 X201.844 Y168.545 E3.94237
G1 X201.968 Y168.815 E3.95275
G1 X202.128 Y169.201 E3.96734
G1 X202.302 Y169.724 E3.98659
G1 X202.398 Y170.266 E4.00581
G1 X202.403 Y170.994 E4.03124
G1 X202.341 Y171.689 E4.0556
G1 X202.341 Y172.368 E4.07932
G1 X202.301 Y172.918 E4.09857
G1 X202.182 Y173.456 E4.11782
G1 X201.986 Y173.971 E4.13706
G1 X201.816 Y174.296 E4.14987
G1 X201.67 Y174.544 E4.15992
G1 X201.186 Y175.195 E4.18825
G1 X200.931 Y175.471 E4.20137
G1 X200.529 Y175.847 E4.2206
G1 X200.076 Y176.162 E4.23987
G1 X199.825 Y176.298 E4.24984
G1 X199.639 Y176.39 E4.25708
G1 X199.128 Y176.598 E4.27635
G1 X198.415 Y176.756 E4.30185
G1 X198.194 Y176.783 E4.30963
G1 X197.732 Y176.811 E4.32579
G1 X193.334 Y176.81 E4.47939
G1 X192.899 Y177.188 E4.49951
G1 X192.435 Y177.485 E4.51875
G1 X191.932 Y177.711 E4.53801
G1 X191.402 Y177.862 E4.55725
G1 X190.63 Y177.941 E4.58436
G1 X186.754 Y177.942 E4.71972
G1 X186.231 Y177.906 E4.73803
G1 X186.022 Y177.877 E4.7454
G1 X185.483 Y177.762 E4.76464
G1 X184.895 Y177.537 E4.78663
G1 X184.623 Y177.406 E4.79717
G1 X184.145 Y177.131 E4.81643
G1 X183.582 Y176.666 E4.84193
G1 X183.06 Y176.143 E4.86774
G1 X182.7 Y175.726 E4.88698
G1 X182.405 Y175.261 E4.90621
G1 X182.179 Y174.759 E4.92543
G1 X182.029 Y174.229 E4.94467
G1 X181.95 Y173.459 E4.9717
G1 X181.95 Y172.423 E5.00788
G1 X181.99 Y171.873 E5.02714
G1 X182.091 Y171.418 E5.04342
G1 X181.982 Y170.89 E5.06225
G1 X181.95 Y170.396 E5.07953
G1 X181.95 Y169.359 E5.11575
G1 X181.99 Y168.809 E5.13501
G1 X182.109 Y168.271 E5.15425
G1 X182.305 Y167.756 E5.1735
G1 X182.573 Y167.275 E5.19272
G1 X183.051 Y166.684 E5.21927
G1 X183.612 Y166.118 E5.2471
G1 X183.881 Y165.889 E5.25944
G1 X183.796 Y164.669 E5.30215
G1 X183.229 Y161.03 E5.43077
G1 X182.318 Y157.482 E5.55869
G1 X181.071 Y154.052 E5.68615
G1 X179.471 Y150.726 E5.81505
G1 X177.584 Y147.616 E5.94209
G1 X175.361 Y144.649 E6.07156
G1 X172.941 Y142.001 E6.19684
G1 X170.168 Y139.508 E6.32706
G1 X167.245 Y137.355 E6.45384
G1 X164.102 Y135.483 E6.5816
G1 X160.776 Y133.914 E6.71003
G1 X157.347 Y132.7 E6.83707
G1 X153.751 Y131.804 E6.96649
G1 X150.204 Y131.28 E7.09171
G1 X146.501 Y131.103 E7.22118
G1 X142.777 Y131.282 E7.35138
G1 X139.247 Y131.804 E7.476
G1 X135.661 Y132.695 E7.60504
G1 X132.187 Y133.936 E7.73387
G1 X128.916 Y135.472 E7.86007
G1 X125.743 Y137.362 E7.98905
G1 X122.813 Y139.525 E8.11624
G1 X120.086 Y141.978 E8.24434
G1 X117.613 Y144.688 E8.37246
G1 X115.406 Y147.633 E8.50099
G1 X113.503 Y150.768 E8.62906
G1 X111.93 Y154.05 E8.75616
G1 X110.681 Y157.48 E8.88364
G1 X109.766 Y161.046 E9.01221
G1 X109.237 Y164.458 E9.1328
G1 X109.285 Y164.769 E9.14379
G1 X109.297 Y165.153 E9.1572
G1 X109.28 Y166.015 E9.18731
G1 X109.371 Y166.098 E9.19161
G1 X109.745 Y166.502 E9.21084
G1 X110.057 Y166.956 E9.23008
G1 X110.301 Y167.451 E9.24935
G1 X110.64 Y168.463 E9.28662
G1 X110.67 Y168.683 E9.29438
G1 X110.721 Y168.785 E9.29836
G1 X110.932 Y169.294 E9.3176
G1 X111.068 Y169.828 E9.33685
G1 X111.124 Y170.376 E9.35609
G1 X111.079 Y171.085 E9.3809
G1 X111.07 Y171.142 E9.38291
G1 X110.945 Y171.678 E9.40213
G1 X110.744 Y172.191 E9.42137
G1 X110.797 Y172.662 E9.43793
G1 X110.802 Y172.875 E9.44537
G1 X110.775 Y173.425 E9.4646
G1 X110.678 Y173.919 E9.48218
G1 X110.666 Y174.089 E9.48813
G1 X110.587 Y174.635 E9.5074
G1 X110.43 Y175.163 E9.52663
G1 X110.198 Y175.662 E9.54585
G1 X109.896 Y176.123 E9.5651
G1 X109.547 Y176.52 E9.58356
G1 X109.38 Y176.685 E9.59176
G1 X108.961 Y177.043 E9.611
G1 X108.627 Y177.262 E9.62495
G1 X108.444 Y177.369 E9.63236
G1 X107.949 Y177.612 E9.65161
G1 X107.472 Y177.769 E9.66915
G1 X107.262 Y177.823 E9.67672
G1 X106.72 Y177.921 E9.69596
G1 X106.312 Y177.943 E9.71023
G1 X102.12 Y177.939 E9.85663
G1 X101.571 Y177.899 E9.87585
G1 X101.033 Y177.779 E9.8951
G1 X100.565 Y177.605 E9.91254
G1 X100.256 Y177.466 E9.92437
G1 X99.771 Y177.204 E9.94362
G1 X99.202 Y176.759 E9.96885
G1 X99.031 Y176.597 E9.97707
G1 X98.659 Y176.19 E9.99633
G1 X98.35 Y175.733 E10.0156
G1 X98.111 Y175.237 E10.03482
G1 X97.918 Y174.586 E10.05854
G1 X97.747 Y173.734 E10.08889
G1 X97.673 Y172.986 E10.11514
G1 X97.673 Y172.72 E10.12442
G1 X97.713 Y172.17 E10.14368
G1 X97.802 Y171.766 E10.15813
G1 X97.662 Y171.396 E10.17195
G1 X97.545 Y170.857 E10.19121
G1 X97.506 Y170.308 E10.21043
G1 X97.547 Y169.758 E10.22969
G1 X97.668 Y169.221 E10.24891
G1 X97.807 Y168.834 E10.26327
G1 X97.841 Y168.577 E10.27233
G1 X97.937 Y168.207 E10.28568
G1 X98.081 Y167.751 E10.30238
G1 X98.285 Y167.239 E10.32163
G1 X98.56 Y166.762 E10.34085
G1 X98.902 Y166.329 E10.36012
G1 X99.487 Y165.81 E10.38743
G1 X99.632 Y165.706 E10.39367
G1 X99.746 Y163.844 E10.45882
G1 X99.784 Y163.493 E10.47114
G1 X100.438 Y159.277 E10.62014
G1 X100.514 Y158.908 E10.6333
G1 X101.563 Y154.853 E10.77957
G1 X101.672 Y154.502 E10.79241
G1 X103.132 Y150.501 E10.94115
G1 X103.276 Y150.16 E10.95408
G1 X105.095 Y146.368 E11.10095
G1 X105.272 Y146.041 E11.11394
G1 X107.39 Y142.55 E11.25654
G1 X107.592 Y142.25 E11.26917
G1 X110.206 Y138.742 E11.42195
G1 X110.448 Y138.449 E11.43522
G1 X113.267 Y135.365 E11.58114
G1 X113.532 Y135.103 E11.59416
G1 X116.094 Y132.8 E11.71446
G0 F1080 X116.689 Y132.266
G0 F6000 X116.956 Y132.563
G1 F1200 X117.213 Y132.354 E11.72603
G1 X120.57 Y129.882 E11.87163
G1 X120.846 Y129.699 E11.88319
G1 X124.483 Y127.533 E12.03102
G1 X124.774 Y127.378 E12.04254
G1 X128.586 Y125.582 E12.1897
G1 X128.896 Y125.455 E12.2014
G1 X132.888 Y124.035 E12.34937
G1 X133.206 Y123.939 E12.36097
G1 X137.315 Y122.917 E12.50884
G1 X137.663 Y122.849 E12.52123
G1 X139.002 Y122.661 E12.56845
G1 X139.402 Y122.594 E12.58261
G1 X141.814 Y122.24 E12.66775
G1 X142.143 Y122.208 E12.67929
G1 X146.363 Y122.003 E12.82684
G1 X146.723 Y122.005 E12.83941
G1 X148.444 Y122.104 E12.89962
G1 X148.735 Y122.108 E12.90978
G1 X148.856 Y122.112 E12.91401
G1 X150.929 Y122.216 E12.98649
G1 X151.255 Y122.248 E12.99793
G1 X155.319 Y122.847 E13.14139
G1 X155.639 Y122.91 E13.15278
G1 X159.799 Y123.939 E13.30244
G1 X160.125 Y124.038 E13.31434
G1 X164.115 Y125.461 E13.46228
G1 X164.422 Y125.587 E13.47387
G1 X168.241 Y127.386 E13.6213
G1 X168.532 Y127.541 E13.63281
G1 X172.151 Y129.697 E13.77993
G1 X172.429 Y129.881 E13.79157
G1 X175.817 Y132.379 E13.93857
G1 X176.074 Y132.59 E13.95019
G1 X179.204 Y135.409 E14.0973
G1 X179.439 Y135.642 E14.10885
G1 X182.256 Y138.725 E14.2547
G1 X182.466 Y138.978 E14.26618
G1 X185.039 Y142.408 E14.41592
G1 X185.227 Y142.687 E14.42767
G1 X187.387 Y146.254 E14.5733
G1 X187.544 Y146.544 E14.58482
G1 X189.384 Y150.377 E14.7333
G1 X189.513 Y150.683 E14.7449
G1 X190.951 Y154.624 E14.89141
G1 X191.05 Y154.942 E14.90304
G1 X192.106 Y159.047 E15.05107
G1 X192.172 Y159.37 E15.06258
G1 X192.821 Y163.531 E15.20965
G1 X192.854 Y163.828 E15.22009
G1 X193.014 Y166.226 E15.30402
G1 X193.169 Y166.378 E15.3116
G1 X197.721 Y166.378 E15.47057
G1 X198.045 Y166.393 E15.4819
G1 X198.254 Y166.413 E15.48923
G1 X198.767 Y166.503 E15.50742
G1 X199.408 Y166.736 E15.53124
G1 X199.609 Y166.833 E15.53903
G1 X200.059 Y167.095 E15.55722
G1 X200.372 Y167.338 E15.57106
G1 X200.534 Y167.48 E15.57858
G1 X200.899 Y167.853 E15.59681
G1 X201.068 Y168.072 E15.60647
G1 X201.233 Y168.305 E15.61644
G1 X201.599 Y168.968 E15.64289
G1 X201.759 Y169.354 E15.65748
G1 X201.921 Y169.849 E15.67567
G1 X202.005 Y170.364 E15.69389
G1 X202.005 Y170.958 E15.71464
G1 X201.941 Y171.675 E15.73977
G1 X201.941 Y172.368 E15.76398
G1 X201.901 Y172.888 E15.78219
G1 X201.782 Y173.395 E15.80038
G1 X201.471 Y174.093 E15.82706
G1 X201.325 Y174.341 E15.83711
G1 X200.892 Y174.923 E15.86245
G1 X200.637 Y175.199 E15.87557
G1 X200.255 Y175.554 E15.89378
G1 X199.647 Y175.94 E15.91893
G1 X199.461 Y176.032 E15.92618
G1 X198.978 Y176.226 E15.94436
G1 X198.366 Y176.359 E15.96623
G1 X198.145 Y176.386 E15.97401
G1 X197.732 Y176.411 E15.98845
G1 X193.168 Y176.41 E16.14784
G1 X193.033 Y176.545 E16.15451
G1 X192.637 Y176.884 E16.17272
G1 X192.195 Y177.159 E16.1909
G1 X191.715 Y177.363 E16.20911
G1 X191.21 Y177.491 E16.2273
G1 X190.63 Y177.541 E16.24764
G1 X186.754 Y177.542 E16.383
G1 X186.286 Y177.51 E16.39938
G1 X186.077 Y177.481 E16.40675
G1 X185.568 Y177.37 E16.42494
G1 X185.069 Y177.176 E16.44364
G1 X184.797 Y177.045 E16.45418
G1 X184.346 Y176.784 E16.47238
G1 X183.866 Y176.384 E16.4942
G1 X183.344 Y175.861 E16.52001
G1 X183.005 Y175.465 E16.53821
G1 X182.73 Y175.022 E16.55642
G1 X182.527 Y174.542 E16.57462
G1 X182.399 Y174.037 E16.59282
G1 X182.35 Y173.459 E16.61307
G1 X182.35 Y172.423 E16.64925
G1 X182.39 Y171.903 E16.66747
G1 X182.507 Y171.405 E16.68533
G1 X182.381 Y170.851 E16.70517
G1 X182.35 Y170.396 E16.7211
G1 X182.35 Y169.359 E16.75732
G1 X182.39 Y168.839 E16.77553
G1 X182.509 Y168.332 E16.79372
G1 X182.704 Y167.849 E16.81191
G1 X182.97 Y167.401 E16.8301
G1 X183.335 Y166.966 E16.84993
G1 X183.896 Y166.4 E16.87777
G1 X184.294 Y166.062 E16.896
G1 X184.193 Y164.614 E16.94669
G1 X183.624 Y160.96 E17.07584
G1 X182.7 Y157.362 E17.20557
G1 X181.436 Y153.888 E17.33467
G1 X179.826 Y150.539 E17.46445
G1 X177.921 Y147.4 E17.59268
G1 X175.67 Y144.396 E17.72377
G1 X173.221 Y141.716 E17.85056
G1 X170.417 Y139.195 E17.98224
G1 X167.466 Y137.02 E18.11027
G1 X164.286 Y135.127 E18.23951
G1 X160.934 Y133.546 E18.36894
G1 X157.463 Y132.317 E18.49753
G1 X153.822 Y131.41 E18.62857
G1 X150.242 Y130.881 E18.75496
G1 X146.501 Y130.702 E18.88575
G1 X142.739 Y130.883 E19.01729
G1 X139.176 Y131.41 E19.14307
G1 X135.539 Y132.313 E19.27394
G1 X132.039 Y133.563 E19.40373
G1 X128.723 Y135.121 E19.53168
G1 X125.529 Y137.023 E19.66151
G1 X122.557 Y139.217 E19.79052
G1 X119.799 Y141.698 E19.92007
G1 X117.308 Y144.427 E20.04911
G1 X115.077 Y147.404 E20.17903
G1 X113.147 Y150.585 E20.30897
G1 X111.561 Y153.893 E20.43709
G1 X110.298 Y157.364 E20.56608
G1 X109.375 Y160.959 E20.6957
G1 X108.833 Y164.454 E20.81922
G1 X108.891 Y164.858 E20.83347
G1 X108.897 Y165.146 E20.84353
G1 X108.876 Y166.198 E20.88028
G1 X109.023 Y166.32 E20.88695
G1 X109.098 Y166.39 E20.89053
G1 X109.451 Y166.774 E20.90875
G1 X109.74 Y167.207 E20.92693
G1 X109.961 Y167.68 E20.94516
G1 X110.076 Y168.046 E20.95856
G1 X110.11 Y168.115 E20.96125
G1 X110.264 Y168.613 E20.97945
G1 X110.29 Y168.818 E20.98667
G1 X110.364 Y168.965 E20.99241
G1 X110.561 Y169.447 E21.0106
G1 X110.683 Y169.954 E21.02881
G1 X110.726 Y170.473 E21.047
G1 X110.675 Y171.079 E21.06824
G1 X110.555 Y171.586 E21.08643
G1 X110.358 Y172.069 E21.10465
G1 X110.326 Y172.122 E21.10681
G1 X110.397 Y172.671 E21.12614
G1 X110.402 Y172.884 E21.13358
G1 X110.374 Y173.405 E21.15181
G1 X110.283 Y173.839 E21.16729
G1 X110.267 Y174.061 E21.17506
G1 X110.19 Y174.576 E21.19325
G1 X110.035 Y175.074 E21.21146
G1 X109.806 Y175.542 E21.22966
G1 X109.508 Y175.969 E21.24784
G1 X109.266 Y176.236 E21.26043
G1 X109.099 Y176.401 E21.26863
G1 X108.701 Y176.737 E21.28682
G1 X108.425 Y176.917 E21.29833
G1 X108.242 Y177.024 E21.30573
G1 X107.773 Y177.252 E21.32394
G1 X107.373 Y177.382 E21.33863
G1 X107.163 Y177.436 E21.3462
G1 X106.65 Y177.527 E21.3644
G1 X106.313 Y177.543 E21.37618
G1 X102.121 Y177.539 E21.52258
G1 X101.601 Y177.499 E21.54079
G1 X101.094 Y177.379 E21.55899
G1 X100.729 Y177.24 E21.57263
G1 X100.42 Y177.101 E21.58446
G1 X99.963 Y176.851 E21.60265
G1 X99.477 Y176.468 E21.62426
G1 X99.306 Y176.306 E21.63249
G1 X98.956 Y175.92 E21.65068
G1 X98.669 Y175.485 E21.66888
G1 X98.453 Y175.011 E21.68707
G1 X98.31 Y174.507 E21.70537
G1 X98.139 Y173.655 E21.73572
G1 X98.073 Y172.986 E21.7592
G1 X98.073 Y172.72 E21.76849
G1 X98.113 Y172.2 E21.7867
G1 X98.222 Y171.734 E21.80341
G1 X98.066 Y171.349 E21.81792
G1 X97.947 Y170.842 E21.83611
G1 X97.906 Y170.322 E21.85432
G1 X97.945 Y169.803 E21.8725
G1 X98.063 Y169.295 E21.89071
G1 X98.196 Y168.939 E21.90398
G1 X98.238 Y168.631 E21.91484
G1 X98.319 Y168.327 E21.92583
G1 X98.463 Y167.871 E21.94253
G1 X98.657 Y167.388 E21.96071
G1 X98.924 Y166.94 E21.97892
G1 X99.255 Y166.538 E21.9971
G1 X99.72 Y166.134 E22.01862
G1 X100.019 Y165.919 E22.03148
G1 X100.145 Y163.868 E22.10324
G1 X100.179 Y163.555 E22.11424
G1 X100.833 Y159.339 E22.26323
G1 X100.901 Y159.008 E22.27503
G1 X101.95 Y154.953 E22.42131
G1 X102.048 Y154.639 E22.4328
G1 X103.508 Y150.638 E22.58154
G1 X103.636 Y150.333 E22.59309
G1 X105.455 Y146.541 E22.73996
G1 X105.614 Y146.248 E22.75161
G1 X107.732 Y142.757 E22.89421
G1 X107.913 Y142.489 E22.9055
G1 X110.527 Y138.981 E23.05828
G1 X110.743 Y138.719 E23.07014
G1 X113.562 Y135.635 E23.21606
G1 X113.799 Y135.4 E23.22772
G1 X116.361 Y133.097 E23.34802
G0 F1080 X116.956 Y132.563
G0 F6000 X117.224 Y132.861
G1 F1200 X117.45 Y132.676 E23.35822
G1 X120.807 Y130.204 E23.50382
G1 X121.051 Y130.042 E23.51405
G1 X124.688 Y127.876 E23.66188
G1 X124.944 Y127.74 E23.672
G1 X128.756 Y125.944 E23.81917
G1 X129.03 Y125.831 E23.82952
G1 X133.022 Y124.411 E23.97749
G1 X133.303 Y124.327 E23.98773
G1 X137.412 Y123.305 E24.1356
G1 X137.719 Y123.245 E24.14652
G1 X139.088 Y123.053 E24.1948
G1 X139.46 Y122.99 E24.20798
G1 X141.872 Y122.636 E24.29312
G1 X142.162 Y122.608 E24.30329
G1 X146.382 Y122.403 E24.45084
G1 X146.7 Y122.404 E24.46195
G1 X148.439 Y122.504 E24.52278
G1 X148.729 Y122.508 E24.53291
G1 X148.836 Y122.512 E24.53665
G1 X150.909 Y122.616 E24.60913
G1 X151.196 Y122.644 E24.6192
