;FLAVOR:Marlin
M117 Time Left 5h10m30s
;Filament used: 13.8647m
;Layer height: 0.2
;MINX:76.066
;MINY:76.066
;MINZ:0.2
;MAXX:223.934
;MAXY:223.934
;MAXZ:230.114
;POSTPROCESSED
;Generated with Cura_SteamEngine 4.4.1
M140 S55
M105
M190 S55
M104 S210
M105
M109 S210
M82 ;absolute extrusion mode
M201 X500.00 Y500.00 Z100.00 E5000.00 ;Setup machine max acceleration
M203 X500.00 Y500.00 Z10.00 E50.00 ;Setup machine max feedrate
M204 P500.00 R1000.00 T500.00 ;Setup Print/Retract/Travel acceleration
M205 X8.00 Y8.00 Z0.40 E5.00 ;Setup Jerk
M220 S100 ;Reset Feedrate
M221 S100 ;Reset Flowrate

G28 ;Home

G92 E0 ;Reset Extruder
G1 Z2.0 F3000 ;Move Z Axis up
G1 X10.1 Y20 Z0.28 F5000.0 ;Move to start position
G1 X10.1 Y200.0 Z0.28 F1500.0 E15 ;Draw the first line
G1 X10.4 Y200.0 Z0.28 F5000.0 ;Move to side a little
G1 X10.4 Y20 Z0.28 F1500.0 E30 ;Draw the second line
G92 E0 ;Reset Extruder
G1 Z2.0 F3000 ;Move Z Axis up

G92 E0
G92 E0
G1 F1800 E-6.5
;LAYER_COUNT:1150
;LAYER:0
M117 Layer 1 vase_bez_strips of 1150
M107
G1 F300 Z0.7
G0 F6000 X117.389 Y107.224 Z0.7
;TYPE:SKIRT
G1 F300 Z0.2
G1 F1800 E0
G1 F600 X117.974 Y106.695 E0.02617
G1 X118.611 Y106.227 E0.05239
G1 X119.362 Y105.789 E0.08124
G1 X132.202 Y99.241 E0.55942
G1 X132.923 Y98.919 E0.58562
G1 X133.673 Y98.671 E0.61183
G1 X134.523 Y98.486 E0.64069
G1 X148.761 Y96.226 E1.11898
G1 X149.546 Y96.142 E1.14517
G1 X150.336 Y96.138 E1.17138
G1 X151.2 Y96.225 E1.20019
G1 X164.448 Y98.316 E1.64516
G1 X164.466 Y98.319 E1.64577
G1 X165.458 Y98.478 E1.6791
G1 X166.231 Y98.643 E1.70532
G1 X166.983 Y98.884 E1.73152
G1 X167.763 Y99.229 E1.75982
G1 X180.608 Y105.769 E2.23803
G1 X181.293 Y106.163 E2.26425
G1 X181.934 Y106.623 E2.29042
G1 X182.583 Y107.203 E2.3193
G1 X192.776 Y117.389 E2.79739
G1 X193.305 Y117.974 E2.82355
G1 X193.773 Y118.611 E2.84978
G1 X194.211 Y119.362 E2.87862
G1 X200.759 Y132.202 E3.35681
G1 X201.081 Y132.923 E3.38301
G1 X201.329 Y133.673 E3.40922
G1 X201.514 Y134.523 E3.43808
G1 X203.774 Y148.761 E3.91636
G1 X203.858 Y149.546 E3.94256
G1 X203.862 Y150.336 E3.96877
G1 X203.774 Y151.201 E3.99761
G1 X201.524 Y165.441 E4.47591
G1 X201.362 Y166.214 E4.50212
G1 X201.122 Y166.966 E4.52831
G1 X200.771 Y167.763 E4.5572
G1 X194.231 Y180.608 E5.03541
G1 X193.837 Y181.293 E5.06163
G1 X193.377 Y181.934 E5.08781
G1 X192.797 Y182.583 E5.11669
G1 X182.611 Y192.776 E5.59477
G1 X182.026 Y193.305 E5.62094
G1 X181.389 Y193.773 E5.64716
G1 X180.638 Y194.211 E5.67601
G1 X167.798 Y200.759 E6.15419
G1 X167.077 Y201.081 E6.18039
G1 X166.327 Y201.329 E6.2066
G1 X165.477 Y201.514 E6.23546
G1 X151.239 Y203.774 E6.71375
G1 X150.454 Y203.858 E6.73994
G1 X149.664 Y203.862 E6.76615
G1 X148.799 Y203.774 E6.795
G1 X134.559 Y201.524 E7.2733
G1 X133.786 Y201.362 E7.2995
G1 X133.034 Y201.122 E7.32569
G1 X132.237 Y200.771 E7.35458
G1 X119.392 Y194.231 E7.8328
G1 X118.707 Y193.837 E7.85902
G1 X118.066 Y193.377 E7.88519
G1 X117.417 Y192.797 E7.91407
G1 X107.224 Y182.611 E8.39215
G1 X106.695 Y182.026 E8.41832
G1 X106.227 Y181.389 E8.44454
G1 X105.789 Y180.638 E8.47339
G1 X99.241 Y167.798 E8.95158
G1 X98.919 Y167.077 E8.97777
G1 X98.671 Y166.327 E9.00398
G1 X98.486 Y165.477 E9.03284
G1 X96.226 Y151.239 E9.51113
G1 X96.142 Y150.454 E9.53732
G1 X96.138 Y149.664 E9.56353
G1 X96.226 Y148.799 E9.59238
G1 X98.476 Y134.559 E10.07068
G1 X98.638 Y133.786 E10.09688
G1 X98.878 Y133.034 E10.12307
G1 X99.229 Y132.237 E10.15197
G1 X105.769 Y119.392 E10.63018
G1 X106.163 Y118.707 E10.6564
G1 X106.623 Y118.066 E10.68257
G1 X107.203 Y117.417 E10.71145
G1 X117.389 Y107.224 E11.18954
G0 F6000 X117.672 Y107.507
G1 F600 X118.243 Y106.992 E11.21505
G1 X118.864 Y106.539 E11.24055
G1 X119.544 Y106.146 E11.26661
G1 X132.384 Y99.598 E11.74479
G1 X133.087 Y99.284 E11.77034
G1 X133.818 Y99.046 E11.79584
G1 X134.586 Y98.881 E11.82191
G1 X148.824 Y96.621 E12.30019
G1 X149.589 Y96.541 E12.32571
G1 X150.358 Y96.539 E12.35123
G1 X151.138 Y96.62 E12.37724
G1 X164.386 Y98.711 E12.82221
G1 X164.403 Y98.714 E12.82279
G1 X165.395 Y98.873 E12.85612
G1 X166.147 Y99.034 E12.88163
G1 X166.879 Y99.273 E12.90718
G1 X167.582 Y99.586 E12.93271
G1 X180.427 Y106.126 E13.41092
G1 X181.093 Y106.51 E13.43643
G1 X181.716 Y106.961 E13.46195
G1 X182.3 Y107.486 E13.488
G1 X192.493 Y117.672 E13.96609
G1 X193.008 Y118.243 E13.9916
G1 X193.461 Y118.864 E14.0171
G1 X193.854 Y119.544 E14.04316
G1 X200.402 Y132.384 E14.52134
G1 X200.716 Y133.087 E14.54689
G1 X200.954 Y133.818 E14.57239
G1 X201.119 Y134.586 E14.59846
G1 X203.379 Y148.824 E15.07674
G1 X203.459 Y149.589 E15.10226
G1 X203.461 Y150.358 E15.12777
G1 X203.379 Y151.139 E15.15383
G1 X201.129 Y165.379 E15.63213
G1 X200.97 Y166.131 E15.65763
G1 X200.733 Y166.863 E15.68316
G1 X200.414 Y167.582 E15.70925
G1 X193.874 Y180.427 E16.18747
G1 X193.49 Y181.093 E16.21297
G1 X193.039 Y181.716 E16.23849
G1 X192.514 Y182.3 E16.26455
G1 X182.328 Y192.493 E16.74263
G1 X181.757 Y193.008 E16.76814
G1 X181.136 Y193.461 E16.79364
G1 X180.456 Y193.854 E16.8197
G1 X167.616 Y200.402 E17.29789
G1 X166.913 Y200.716 E17.32343
G1 X166.182 Y200.954 E17.34894
G1 X165.414 Y201.119 E17.375
G1 X151.176 Y203.379 E17.85329
G1 X150.411 Y203.459 E17.87881
G1 X149.642 Y203.461 E17.90432
G1 X148.861 Y203.379 E17.93037
G1 X134.621 Y201.129 E18.40867
G1 X133.869 Y200.97 E18.43417
G1 X133.137 Y200.733 E18.4597
G1 X132.418 Y200.414 E18.4858
G1 X119.573 Y193.874 E18.96401
G1 X118.907 Y193.49 E18.98952
G1 X118.284 Y193.039 E19.01504
G1 X117.7 Y192.514 E19.04109
G1 X107.507 Y182.328 E19.51917
G1 X106.992 Y181.757 E19.54469
G1 X106.539 Y181.136 E19.57019
G1 X106.146 Y180.456 E19.59624
G1 X99.598 Y167.616 E20.07443
G1 X99.284 Y166.913 E20.09998
G1 X99.046 Y166.182 E20.12548
G1 X98.881 Y165.414 E20.15154
G1 X96.621 Y151.176 E20.62983
G1 X96.541 Y150.411 E20.65535
G1 X96.539 Y149.642 E20.68086
G1 X96.621 Y148.861 E20.70692
G1 X98.871 Y134.621 E21.18522
G1 X99.03 Y133.869 E21.21072
G1 X99.267 Y133.137 E21.23625
G1 X99.586 Y132.418 E21.26234
G1 X106.126 Y119.573 E21.74056
G1 X106.51 Y118.907 E21.76606
G1 X106.961 Y118.284 E21.79158
G1 X107.486 Y117.7 E21.81763
G1 X117.672 Y107.507 E22.29572
G0 F6000 X117.955 Y107.79
G1 F600 X118.511 Y107.29 E22.32053
G1 X119.117 Y106.852 E22.34533
G1 X119.726 Y106.502 E22.36864
G1 X132.566 Y99.954 E22.84683
G1 X133.249 Y99.65 E22.87163
G1 X133.962 Y99.421 E22.89647
G1 X134.649 Y99.277 E22.91976
G1 X148.887 Y97.017 E23.39805
G1 X149.631 Y96.939 E23.42287
G1 X150.379 Y96.941 E23.44769
G1 X151.075 Y97.016 E23.47091
G1 X164.323 Y99.107 E23.91588
G1 X164.34 Y99.109 E23.91645
G1 X165.332 Y99.268 E23.94978
G1 X166.063 Y99.426 E23.97459
G1 X166.773 Y99.661 E23.9994
G1 X167.4 Y99.942 E24.0222
G1 X180.245 Y106.482 E24.50042
G1 X180.893 Y106.857 E24.52525
G1 X181.496 Y107.298 E24.55004
G1 X182.017 Y107.769 E24.57334
G1 X192.21 Y117.955 E25.05143
G1 X192.71 Y118.511 E25.07623
G1 X193.148 Y119.117 E25.10104
G1 X193.498 Y119.726 E25.12435
G1 X200.046 Y132.566 E25.60253
G1 X200.35 Y133.249 E25.62734
G1 X200.579 Y133.962 E25.65218
G1 X200.723 Y134.649 E25.67547
G1 X202.983 Y148.887 E26.15376
G1 X203.061 Y149.631 E26.17858
G1 X203.059 Y150.379 E26.20339
G1 X202.984 Y151.076 E26.22665
G1 X200.734 Y165.316 E26.70495
G1 X200.578 Y166.048 E26.72978
G1 X200.345 Y166.759 E26.75461
G1 X200.058 Y167.4 E26.77791
G1 X193.518 Y180.245 E27.25612
G1 X193.143 Y180.893 E27.28096
G1 X192.702 Y181.496 E27.30575
G1 X192.231 Y182.017 E27.32905
G1 X182.045 Y192.21 E27.80713
G1 X181.489 Y192.71 E27.83194
G1 X180.883 Y193.148 E27.85675
G1 X180.274 Y193.498 E27.88005
G1 X167.434 Y200.046 E28.35824
G1 X166.751 Y200.35 E28.38304
G1 X166.038 Y200.579 E28.40789
G1 X165.351 Y200.723 E28.43118
G1 X151.113 Y202.983 E28.90946
G1 X150.369 Y203.061 E28.93428
G1 X149.621 Y203.059 E28.9591
G1 X148.924 Y202.984 E28.98236
G1 X134.684 Y200.734 E29.46066
G1 X133.952 Y200.578 E29.48549
G1 X133.241 Y200.345 E29.51031
G1 X132.6 Y200.058 E29.53361
G1 X119.755 Y193.518 E30.01183
G1 X119.107 Y193.143 E30.03667
G1 X118.504 Y192.702 E30.06145
G1 X117.983 Y192.231 E30.08476
G1 X107.79 Y182.045 E30.56284
G1 X107.29 Y181.489 E30.58765
G1 X106.852 Y180.883 E30.61245
G1 X106.502 Y180.274 E30.63576
G1 X99.954 Y167.434 E31.11395
G1 X99.65 Y166.751 E31.13875
G1 X99.421 Y166.038 E31.1636
G1 X99.277 Y165.351 E31.18688
G1 X97.017 Y151.113 E31.66517
G1 X96.939 Y150.369 E31.68999
G1 X96.941 Y149.621 E31.71481
G1 X97.016 Y148.924 E31.73806
G1 X99.266 Y134.684 E32.21637
G1 X99.422 Y133.952 E32.2412
G1 X99.655 Y133.241 E32.26602
G1 X99.942 Y132.6 E32.28932
G1 X106.482 Y119.755 E32.76754
G1 X106.857 Y119.107 E32.79238
G1 X107.298 Y118.504 E32.81716
G1 X107.769 Y117.983 E32.84046
G1 X117.955 Y107.79 E33.31855
G0 F6000 X118.237 Y108.073
G1 F600 X118.778 Y107.588 E33.34265
G1 X119.369 Y107.166 E33.36675
G1 X119.908 Y106.858 E33.38734
G1 X132.748 Y100.31 E33.86553
G1 X133.412 Y100.017 E33.88961
G1 X134.104 Y99.797 E33.9137
G1 X134.711 Y99.672 E33.93426
G1 X148.949 Y97.412 E34.41255
G1 X149.672 Y97.337 E34.43666
G1 X150.398 Y97.343 E34.46075
G1 X151.013 Y97.411 E34.48128
G1 X164.261 Y99.502 E34.92625
G1 X164.277 Y99.504 E34.92678
G1 X165.269 Y99.663 E34.96012
G1 X165.978 Y99.817 E34.98419
G1 X166.667 Y100.049 E35.00831
G1 X167.219 Y100.298 E35.0284
G1 X180.064 Y106.838 E35.50661
G1 X180.692 Y107.203 E35.53071
G1 X181.276 Y107.635 E35.55481
G1 X181.734 Y108.051 E35.57534
G1 X191.927 Y118.237 E36.05342
G1 X192.412 Y118.778 E36.07753
G1 X192.834 Y119.369 E36.10162
G1 X193.142 Y119.908 E36.12222
G1 X199.69 Y132.748 E36.60041
G1 X199.983 Y133.412 E36.62449
G1 X200.203 Y134.104 E36.64858
G1 X200.328 Y134.711 E36.66914
G1 X202.588 Y148.949 E37.14743
G1 X202.663 Y149.672 E37.17154
G1 X202.657 Y150.398 E37.19563
G1 X202.589 Y151.014 E37.21619
G1 X200.339 Y165.254 E37.69449
G1 X200.186 Y165.964 E37.71859
G1 X199.957 Y166.653 E37.74268
G1 X199.702 Y167.219 E37.76327
G1 X193.162 Y180.064 E38.24149
G1 X192.797 Y180.692 E38.26559
G1 X192.365 Y181.276 E38.28969
G1 X191.949 Y181.734 E38.31021
G1 X181.763 Y191.927 E38.7883
G1 X181.222 Y192.412 E38.8124
G1 X180.631 Y192.834 E38.8365
G1 X180.092 Y193.142 E38.85709
G1 X167.252 Y199.69 E39.33528
G1 X166.588 Y199.983 E39.35936
G1 X165.896 Y200.203 E39.38345
G1 X165.289 Y200.328 E39.40401
G1 X151.051 Y202.588 E39.8823
G1 X150.328 Y202.663 E39.90642
G1 X149.602 Y202.657 E39.9305
G1 X148.986 Y202.589 E39.95106
G1 X134.746 Y200.339 E40.42936
G1 X134.036 Y200.186 E40.45346
G1 X133.347 Y199.957 E40.47755
G1 X132.781 Y199.702 E40.49815
G1 X119.936 Y193.162 E40.97636
G1 X119.308 Y192.797 E41.00046
G1 X118.724 Y192.365 E41.02456
G1 X118.266 Y191.949 E41.04509
G1 X108.073 Y181.763 E41.52317
G1 X107.588 Y181.222 E41.54728
G1 X107.166 Y180.631 E41.57137
G1 X106.858 Y180.092 E41.59197
G1 X100.31 Y167.252 E42.07016
G1 X100.017 Y166.588 E42.09423
G1 X99.797 Y165.896 E42.11832
G1 X99.672 Y165.289 E42.13889
G1 X97.412 Y151.051 E42.61717
G1 X97.337 Y150.328 E42.64129
G1 X97.343 Y149.602 E42.66538
G1 X97.411 Y148.986 E42.68594
G1 X99.661 Y134.746 E43.16424
G1 X99.814 Y134.036 E43.18834
G1 X100.043 Y133.347 E43.21242
G1 X100.298 Y132.781 E43.23302
G1 X106.838 Y119.936 E43.71124
G1 X107.203 Y119.308 E43.73533
G1 X107.635 Y118.724 E43.75943
G1 X108.051 Y118.266 E43.77996
G1 X118.237 Y108.073 E44.25805
G0 F6000 X118.52 Y108.355
G1 F600 X119.046 Y107.887 E44.28141
G1 X119.62 Y107.48 E44.30475
G1 X120.089 Y107.215 E44.32262
G1 X132.929 Y100.667 E44.80081
G1 X133.574 Y100.383 E44.82419
G1 X134.246 Y100.174 E44.84754
G1 X134.774 Y100.067 E44.86541
G1 X149.012 Y97.807 E45.3437
G1 X149.712 Y97.736 E45.36704
G1 X150.416 Y97.745 E45.3904
G1 X150.951 Y97.806 E45.40827
G1 X164.199 Y99.897 E45.85324
G1 X164.213 Y99.899 E45.85371
G1 X165.205 Y100.058 E45.88704
G1 X165.893 Y100.209 E45.91041
G1 X166.559 Y100.437 E45.93376
G1 X167.037 Y100.655 E45.95119
G1 X179.882 Y107.195 E46.42941
G1 X180.49 Y107.549 E46.45275
G1 X181.054 Y107.971 E46.47612
G1 X181.452 Y108.334 E46.49399
G1 X191.645 Y118.52 E46.97208
G1 X192.113 Y119.046 E46.99543
G1 X192.52 Y119.62 E47.01878
G1 X192.785 Y120.089 E47.03665
G1 X199.333 Y132.929 E47.51484
G1 X199.617 Y133.574 E47.53822
G1 X199.826 Y134.246 E47.56157
G1 X199.933 Y134.774 E47.57944
G1 X202.193 Y149.012 E48.05773
G1 X202.264 Y149.712 E48.08107
G1 X202.255 Y150.416 E48.10443
G1 X202.194 Y150.952 E48.12233
G1 X199.944 Y165.192 E48.60063
G1 X199.795 Y165.88 E48.62399
G1 X199.569 Y166.546 E48.64732
G1 X199.345 Y167.037 E48.66523
G1 X192.805 Y179.882 E49.14344
G1 X192.451 Y180.49 E49.16678
G1 X192.029 Y181.054 E49.19015
G1 X191.666 Y181.452 E49.20802
G1 X181.48 Y191.645 E49.68611
G1 X180.954 Y192.113 E49.70947
G1 X180.38 Y192.52 E49.73281
G1 X179.911 Y192.785 E49.75068
G1 X167.071 Y199.333 E50.22887
G1 X166.426 Y199.617 E50.25225
G1 X165.754 Y199.826 E50.2756
G1 X165.226 Y199.933 E50.29348
G1 X150.988 Y202.193 E50.77176
G1 X150.288 Y202.264 E50.79511
G1 X149.584 Y202.255 E50.81847
G1 X149.048 Y202.194 E50.83636
G1 X134.808 Y199.944 E51.31466
G1 X134.12 Y199.795 E51.33802
G1 X133.454 Y199.569 E51.36135
G1 X132.963 Y199.345 E51.37926
G1 X120.118 Y192.805 E51.85747
G1 X119.51 Y192.451 E51.88081
G1 X118.946 Y192.029 E51.90418
G1 X118.548 Y191.666 E51.92206
G1 X108.355 Y181.48 E52.40014
G1 X107.887 Y180.954 E52.4235
G1 X107.48 Y180.38 E52.44684
G1 X107.215 Y179.911 E52.46472
G1 X100.667 Y167.071 E52.94291
G1 X100.383 Y166.426 E52.96629
G1 X100.174 Y165.754 E52.98964
G1 X100.067 Y165.226 E53.00751
G1 X97.807 Y150.988 E53.4858
G1 X97.736 Y150.288 E53.50914
G1 X97.745 Y149.584 E53.5325
G1 X97.806 Y149.048 E53.5504
G1 X100.056 Y134.808 E54.0287
G1 X100.205 Y134.12 E54.05205
G1 X100.431 Y133.454 E54.07539
G1 X100.655 Y132.963 E54.09329
G1 X107.195 Y120.118 E54.57151
G1 X107.549 Y119.51 E54.59485
G1 X107.971 Y118.946 E54.61822
G1 X108.334 Y118.548 E54.63609
G1 X118.52 Y108.355 E55.11417
G0 F6000 X118.803 Y108.638
G1 F600 X119.312 Y108.186 E55.13676
G1 X119.87 Y107.796 E55.15934
G1 X120.271 Y107.571 E55.1746
G1 X133.111 Y101.023 E55.65279
G1 X133.735 Y100.75 E55.67538
G1 X134.386 Y100.552 E55.69796
G1 X134.837 Y100.462 E55.71322
G1 X149.075 Y98.202 E56.19151
G1 X149.752 Y98.135 E56.21408
G1 X150.433 Y98.147 E56.23667
G1 X150.888 Y98.201 E56.25187
G1 X164.136 Y100.292 E56.69684
G1 X164.15 Y100.294 E56.69731
G1 X165.142 Y100.453 E56.73065
G1 X165.807 Y100.6 E56.75324
G1 X166.45 Y100.824 E56.77583
G1 X166.856 Y101.011 E56.79066
G1 X179.701 Y107.551 E57.26888
G1 X180.288 Y107.895 E57.29145
G1 X180.831 Y108.306 E57.31404
G1 X181.169 Y108.617 E57.32928
G1 X191.362 Y118.803 E57.80737
G1 X191.814 Y119.312 E57.82995
G1 X192.204 Y119.87 E57.85254
G1 X192.429 Y120.271 E57.86779
G1 X198.977 Y133.111 E58.34598
G1 X199.25 Y133.735 E58.36858
G1 X199.448 Y134.386 E58.39115
G1 X199.538 Y134.837 E58.40641
G1 X201.798 Y149.075 E58.8847
G1 X201.865 Y149.752 E58.90727
G1 X201.853 Y150.433 E58.92987
G1 X201.799 Y150.889 E58.9451
G1 X199.549 Y165.129 E59.4234
G1 X199.403 Y165.794 E59.44599
G1 X199.181 Y166.438 E59.46859
G1 X198.989 Y166.856 E59.48385
G1 X192.449 Y179.701 E59.96207
G1 X192.105 Y180.288 E59.98464
G1 X191.694 Y180.831 E60.00723
G1 X191.383 Y181.169 E60.02247
G1 X181.197 Y191.362 E60.50056
G1 X180.688 Y191.814 E60.52314
G1 X180.13 Y192.204 E60.54573
G1 X179.729 Y192.429 E60.56098
G1 X166.889 Y198.977 E61.03917
G1 X166.265 Y199.25 E61.06177
G1 X165.614 Y199.448 E61.08434
G1 X165.163 Y199.538 E61.0996
G1 X150.925 Y201.798 E61.57789
G1 X150.248 Y201.865 E61.60046
G1 X149.567 Y201.853 E61.62305
G1 X149.111 Y201.799 E61.63829
G1 X134.871 Y199.549 E62.11659
G1 X134.206 Y199.403 E62.13918
G1 X133.562 Y199.181 E62.16178
G1 X133.144 Y198.989 E62.17704
G1 X120.299 Y192.449 E62.65525
G1 X119.712 Y192.105 E62.67783
G1 X119.169 Y191.694 E62.70042
G1 X118.831 Y191.383 E62.71566
G1 X108.638 Y181.197 E63.19374
G1 X108.186 Y180.688 E63.21633
G1 X107.796 Y180.13 E63.23891
G1 X107.571 Y179.729 E63.25417
G1 X101.023 Y166.889 E63.73236
G1 X100.75 Y166.265 E63.75496
G1 X100.552 Y165.614 E63.77753
G1 X100.462 Y165.163 E63.79279
G1 X98.202 Y150.925 E64.27108
G1 X98.135 Y150.248 E64.29365
G1 X98.147 Y149.567 E64.31624
G1 X98.201 Y149.111 E64.33148
G1 X100.451 Y134.871 E64.80978
G1 X100.597 Y134.206 E64.83237
