;FLAVOR:Marlin
M117 Time Left 1h47m33s
;Filament used: 3.89898m
;Layer height: 0.2
;MINX:116.546
;MINY:114.34
;MINZ:0.2
;MAXX:183.446
;MAXY:187.221
;MAXZ:48.8
;POSTPROCESSED
;Generated with Cura_SteamEngine 4.6.0
M140 S58
M105
M190 S58
M104 S195
M105
M109 S195
M82 ;absolute extrusion mode
M201 X500.00 Y500.00 Z100.00 E5000.00 ;Setup machine max acceleration
M203 X500.00 Y500.00 Z10.00 E50.00 ;Setup machine max feedrate
M204 P500.00 R1000.00 T500.00 ;Setup Print/Retract/Travel acceleration
M205 X8.00 Y8.00 Z0.40 E5.00 ;Setup Jerk
M220 S100 ;Reset Feedrate
M221 S100 ;Reset Flowrate

G28 ;Home

G92 E0 ;Reset Extruder
G1 Z2.0 F3000 ;Move Z Axis up
G1 X10.1 Y20 Z0.28 F5000.0 ;Move to start position
G1 X10.1 Y200.0 Z0.28 F1500.0 E15 ;Draw the first line
G1 X10.4 Y200.0 Z0.28 F5000.0 ;Move to side a little
G1 X10.4 Y20 Z0.28 F1500.0 E30 ;Draw the second line
G92 E0 ;Reset Extruder
G1 Z2.0 F3000 ;Move Z Axis up

G92 E0
G92 E0
G1 F1500 E-5.5
;LAYER_COUNT:244
;LAYER:0
M107
G0 F6000 X125.266 Y125.313 Z0.2
;TYPE:SKIRT
G1 F1500 E0
G1 F1200 X125.626 Y124.953 E0.01778
G1 X128.211 Y122.534 E0.14142
G1 X128.465 Y122.307 E0.15332
G1 X128.472 Y122.301 E0.15364
G1 X128.835 Y122.008 E0.16993
G1 X131.873 Y119.704 E0.30309
G1 X132.368 Y119.358 E0.32418
G1 X132.382 Y119.349 E0.32476
G1 X133.064 Y118.957 E0.35223
G1 X135.927 Y117.501 E0.4644
G1 X136.235 Y117.353 E0.47634
G1 X136.246 Y117.348 E0.47676
G1 X136.75 Y117.14 E0.4958
G1 X140.482 Y115.749 E0.63489
G1 X140.965 Y115.587 E0.65268
G1 X140.985 Y115.581 E0.65341
G1 X141.752 Y115.393 E0.68099
G1 X142.183 Y115.322 E0.69624
G1 X148.945 Y114.41 E0.93453
G1 X149.988 Y114.34 E0.97104
G1 X150.01 Y114.34 E0.97181
G1 X151.052 Y114.41 E1.00828
G1 X157.815 Y115.322 E1.2466
G1 X158.592 Y115.467 E1.27421
G1 X159.496 Y115.743 E1.30722
G1 X163.262 Y117.146 E1.44757
G1 X164.075 Y117.502 E1.47856
G1 X166.934 Y118.956 E1.59058
G1 X167.532 Y119.295 E1.61458
G1 X167.548 Y119.305 E1.61524
G1 X168.127 Y119.704 E1.6398
G1 X171.165 Y122.008 E1.77296
G1 X171.528 Y122.301 E1.78925
G1 X171.535 Y122.307 E1.78957
G1 X171.789 Y122.534 E1.80147
G1 X174.374 Y124.953 E1.92511
G1 X174.734 Y125.313 E1.94289
G1 X174.749 Y125.329 E1.94365
G1 X175.449 Y126.191 E1.98243
G1 X179.74 Y132.322 E2.24378
G1 X180.327 Y133.307 E2.28382
G1 X180.339 Y133.331 E2.28476
G1 X180.711 Y134.205 E2.31793
G1 X182.988 Y140.606 E2.5552
G1 X183.215 Y141.362 E2.58276
G1 X183.303 Y141.77 E2.59734
G1 X183.31 Y141.807 E2.59865
G1 X183.417 Y142.589 E2.62622
G1 X183.446 Y143.257 E2.64957
G1 X183.446 Y151.953 E2.95326
G1 X183.406 Y152.742 E2.98085
G1 X183.327 Y153.309 E3.00084
G1 X183.321 Y153.343 E3.00205
G1 X183.145 Y154.112 E3.0296
G1 X182.989 Y154.6 E3.04749
G1 X180.712 Y161.003 E3.28482
G1 X180.34 Y161.878 E3.31803
G1 X180.327 Y161.904 E3.31904
G1 X179.74 Y162.889 E3.35909
G1 X175.449 Y169.019 E3.6204
G1 X174.749 Y169.881 E3.65918
G1 X174.734 Y169.897 E3.65995
G1 X174.374 Y170.257 E3.67773
G1 X171.789 Y172.676 E3.80137
G1 X171.535 Y172.903 E3.81326
G1 X171.474 Y172.952 E3.816
G1 X171.361 Y173.703 E3.84252
G1 X171.164 Y174.468 E3.87011
G1 X170.891 Y175.209 E3.89769
G1 X170.544 Y175.919 E3.92528
G1 X170.154 Y176.552 E3.95125
G1 X169.553 Y177.44 E3.9887
G1 X169.238 Y177.896 E4.00805
G1 X168.974 Y178.267 E4.02395
G1 X168.796 Y178.502 E4.03425
G1 X168.299 Y179.211 E4.06449
G1 X168.158 Y179.426 E4.07347
G1 X167.853 Y179.861 E4.09202
G1 X167.726 Y180.03 E4.0994
G1 X167.612 Y180.204 E4.10667
G1 X167.176 Y180.807 E4.13265
G1 X167.06 Y180.952 E4.13914
G1 X166.734 Y181.407 E4.15869
G1 X166.242 Y182.026 E4.1863
G1 X165.691 Y182.591 E4.21386
G1 X165.085 Y183.098 E4.24145
G1 X164.431 Y183.54 E4.26902
G1 X163.736 Y183.915 E4.2966
G1 X163.006 Y184.217 E4.32419
G1 X162.66 Y184.321 E4.33681
G1 X162.534 Y184.485 E4.34403
G1 X161.992 Y185.059 E4.3716
G1 X161.394 Y185.575 E4.39918
G1 X160.747 Y186.028 E4.42677
G1 X160.058 Y186.413 E4.45433
G1 X159.333 Y186.727 E4.48192
G1 X158.58 Y186.966 E4.50951
G1 X157.807 Y187.127 E4.53709
G1 X157.022 Y187.21 E4.56466
G1 X156.601 Y187.221 E4.57936
G1 X143.352 Y187.221 E5.04206
G1 X142.563 Y187.181 E5.06965
G1 X141.783 Y187.062 E5.0972
G1 X141.018 Y186.864 E5.1248
G1 X140.278 Y186.59 E5.15236
G1 X139.569 Y186.242 E5.17994
G1 X138.898 Y185.824 E5.20755
G1 X138.274 Y185.341 E5.23511
G1 X137.701 Y184.798 E5.26268
G1 X137.357 Y184.398 E5.2811
G1 X137.279 Y184.378 E5.28391
G1 X136.539 Y184.104 E5.31147
G1 X135.83 Y183.756 E5.33905
G1 X135.159 Y183.338 E5.36666
G1 X134.535 Y182.855 E5.39422
G1 X133.962 Y182.312 E5.42179
G1 X133.447 Y181.713 E5.44938
G1 X133.156 Y181.311 E5.46671
G1 X132.799 Y180.785 E5.48891
G1 X132.722 Y180.682 E5.4934
G1 X132.498 Y180.366 E5.50693
G1 X132.106 Y179.782 E5.53149
G1 X131.467 Y178.9 E5.56953
G1 X131.19 Y178.495 E5.58666
G1 X130.44 Y177.413 E5.63264
G1 X130.254 Y177.166 E5.64344
G1 X130.056 Y176.89 E5.6553
G1 X129.844 Y176.581 E5.66839
G1 X129.431 Y175.908 E5.69596
G1 X129.088 Y175.197 E5.72353
G1 X128.819 Y174.454 E5.75113
G1 X128.667 Y173.887 E5.77163
G1 X128.512 Y172.941 E5.80511
G1 X128.472 Y172.909 E5.80689
G1 X128.465 Y172.903 E5.80722
G1 X128.211 Y172.676 E5.81911
G1 X125.626 Y170.257 E5.94275
G1 X125.266 Y169.897 E5.96053
G1 X125.251 Y169.881 E5.9613
G1 X124.551 Y169.019 E6.00008
G1 X120.26 Y162.889 E6.26139
G1 X119.673 Y161.904 E6.30144
G1 X119.66 Y161.878 E6.30245
G1 X119.291 Y161.012 E6.33533
G1 X117.006 Y154.609 E6.57275
G1 X116.778 Y153.852 E6.60036
G1 X116.671 Y153.343 E6.61853
G1 X116.665 Y153.309 E6.61973
G1 X116.567 Y152.525 E6.64733
G1 X116.546 Y151.953 E6.66732
G1 X116.546 Y143.257 E6.97101
G1 X116.586 Y142.468 E6.9986
G1 X116.665 Y141.901 E7.01859
G1 X116.671 Y141.867 E7.0198
G1 X116.847 Y141.098 E7.04735
G1 X117.006 Y140.601 E7.06557
G1 X119.291 Y134.199 E7.30296
G1 X119.66 Y133.333 E7.33584
G1 X119.673 Y133.307 E7.33685
G1 X120.26 Y132.322 E7.3769
G1 X124.551 Y126.191 E7.63824
G1 X124.76 Y125.933 E7.64984
G0 F1080 X125.251 Y125.329
G0 X125.266 Y125.313
G0 F6000 X125.557 Y125.587
G1 F1200 X125.9 Y125.245 E7.66675
G1 X128.485 Y122.826 E7.79039
G1 X128.725 Y122.611 E7.80164
G1 X128.732 Y122.605 E7.80197
G1 X129.076 Y122.327 E7.81741
G1 X132.114 Y120.023 E7.95057
G1 X132.584 Y119.694 E7.9706
G1 X132.598 Y119.685 E7.97119
G1 X133.246 Y119.314 E7.99726
G1 X136.109 Y117.858 E8.10943
G1 X136.401 Y117.717 E8.12076
G1 X136.412 Y117.712 E8.12118
G1 X136.89 Y117.515 E8.13924
G1 X140.622 Y116.124 E8.27833
G1 X141.08 Y115.97 E8.2952
G1 X141.1 Y115.964 E8.29593
G1 X141.847 Y115.782 E8.32278
G1 X142.237 Y115.718 E8.33658
G1 X148.999 Y114.806 E8.57487
G1 X149.988 Y114.74 E8.60949
G1 X150.01 Y114.74 E8.61026
G1 X150.999 Y114.806 E8.64487
G1 X157.762 Y115.718 E8.8832
G1 X158.518 Y115.861 E8.91007
G1 X159.356 Y116.118 E8.94068
G1 X163.122 Y117.521 E9.08103
G1 X163.894 Y117.859 E9.11046
G1 X166.753 Y119.313 E9.22247
G1 X167.32 Y119.634 E9.24523
G1 X167.336 Y119.644 E9.24589
G1 X167.886 Y120.023 E9.26921
G1 X170.924 Y122.327 E9.40237
G1 X171.268 Y122.605 E9.41782
G1 X171.275 Y122.611 E9.41814
G1 X171.515 Y122.826 E9.42939
G1 X174.1 Y125.245 E9.55303
G1 X174.443 Y125.587 E9.56995
G1 X174.458 Y125.603 E9.57071
G1 X175.122 Y126.421 E9.60751
G1 X179.413 Y132.552 E9.86885
G1 X179.969 Y133.486 E9.90681
G1 X179.981 Y133.51 E9.90775
G1 X180.334 Y134.339 E9.93922
G1 X182.611 Y140.74 E10.17648
G1 X182.91 Y141.844 E10.21643
G1 X182.917 Y141.881 E10.21774
G1 X183.021 Y142.644 E10.24463
G1 X183.046 Y143.257 E10.26606
G1 X183.046 Y151.953 E10.56975
G1 X183.006 Y152.721 E10.59661
G1 X182.933 Y153.239 E10.61488
G1 X182.927 Y153.273 E10.61608
G1 X182.755 Y154.022 E10.64292
G1 X182.612 Y154.466 E10.65921
G1 X180.335 Y160.869 E10.89654
G1 X179.982 Y161.699 E10.92804
G1 X179.969 Y161.725 E10.92906
G1 X179.412 Y162.66 E10.96706
G1 X175.121 Y168.79 E11.22838
G1 X174.458 Y169.607 E11.26513
G1 X174.443 Y169.623 E11.26589
G1 X174.1 Y169.965 E11.28281
G1 X171.515 Y172.384 E11.40645
G1 X171.275 Y172.599 E11.4177
G1 X171.268 Y172.605 E11.41802
G1 X171.095 Y172.745 E11.42579
G1 X171.081 Y172.883 E11.43064
G1 X170.965 Y173.643 E11.45749
G1 X170.77 Y174.387 E11.48435
G1 X170.499 Y175.107 E11.51121
G1 X170.155 Y175.795 E11.53808
G1 X169.824 Y176.326 E11.55993
G1 X169.225 Y177.211 E11.59725
G1 X168.906 Y177.673 E11.61686
G1 X168.655 Y178.026 E11.63198
G1 X168.459 Y178.285 E11.64333
G1 X167.982 Y178.964 E11.67231
G1 X167.823 Y179.208 E11.68248
G1 X167.534 Y179.62 E11.70005
G1 X167.395 Y179.805 E11.70813
G1 X167.277 Y179.985 E11.71565
G1 X166.863 Y180.557 E11.74031
G1 X166.74 Y180.711 E11.74719
G1 X166.408 Y181.175 E11.76712
G1 X165.929 Y181.776 E11.79396
G1 X165.39 Y182.325 E11.82083
G1 X164.796 Y182.814 E11.84769
G1 X164.155 Y183.239 E11.87455
G1 X163.474 Y183.596 E11.90141
G1 X162.759 Y183.88 E11.92827
G1 X162.421 Y183.975 E11.94054
G1 X162.191 Y184.27 E11.9536
G1 X161.657 Y184.824 E11.98047
G1 X161.069 Y185.32 E12.00734
G1 X160.432 Y185.752 E12.03422
G1 X159.755 Y186.115 E12.06104
G1 X159.043 Y186.407 E12.08792
G1 X158.304 Y186.622 E12.1148
G1 X157.548 Y186.76 E12.14163
G1 X156.601 Y186.821 E12.17477
G1 X143.352 Y186.821 E12.63747
G1 X142.584 Y186.781 E12.66433
G1 X141.824 Y186.662 E12.69119
G1 X141.081 Y186.464 E12.71805
G1 X140.362 Y186.19 E12.74492
G1 X139.676 Y185.843 E12.77177
G1 X139.029 Y185.427 E12.79863
G1 X138.429 Y184.946 E12.82549
G1 X137.882 Y184.405 E12.85235
G1 X137.585 Y184.043 E12.86871
G1 X137.342 Y183.978 E12.87749
G1 X136.623 Y183.704 E12.90436
G1 X135.937 Y183.357 E12.93121
G1 X135.29 Y182.941 E12.95807
G1 X134.69 Y182.46 E12.98493
G1 X134.143 Y181.919 E13.0118
G1 X133.487 Y181.087 E13.0488
G1 X133.125 Y180.553 E13.07133
G1 X133.043 Y180.443 E13.07612
G1 X132.83 Y180.143 E13.08897
G1 X132.429 Y179.546 E13.11408
G1 X131.791 Y178.665 E13.15207
G1 X131.527 Y178.278 E13.16843
G1 X130.759 Y177.172 E13.21546
G1 X130.574 Y176.925 E13.22623
G1 X130.386 Y176.663 E13.2375
G1 X130.174 Y176.354 E13.25058
G1 X129.772 Y175.698 E13.27745
G1 X129.441 Y175.004 E13.3043
G1 X129.184 Y174.28 E13.33113
G1 X129.056 Y173.794 E13.34868
G1 X128.881 Y172.73 E13.38634
G1 X128.881 Y172.725 E13.38652
G1 X128.732 Y172.605 E13.3932
G1 X128.725 Y172.599 E13.39352
G1 X128.485 Y172.384 E13.40477
G1 X125.9 Y169.965 E13.52841
G1 X125.557 Y169.623 E13.54533
G1 X125.542 Y169.607 E13.54609
G1 X124.879 Y168.79 E13.58284
G1 X120.588 Y162.66 E13.84415
G1 X120.031 Y161.725 E13.88216
G1 X120.018 Y161.699 E13.88318
G1 X119.667 Y160.877 E13.91439
G1 X117.382 Y154.474 E14.15182
G1 X117.162 Y153.737 E14.17868
G1 X117.065 Y153.273 E14.19523
G1 X117.059 Y153.239 E14.19644
G1 X116.964 Y152.476 E14.22329
G1 X116.946 Y151.953 E14.24157
G1 X116.946 Y143.257 E14.54526
G1 X116.986 Y142.489 E14.57212
G1 X117.059 Y141.971 E14.59038
G1 X117.065 Y141.937 E14.59159
G1 X117.237 Y141.188 E14.61843
G1 X117.383 Y140.735 E14.63505
G1 X119.668 Y134.333 E14.87244
G1 X120.018 Y133.512 E14.90361
G1 X120.031 Y133.486 E14.90463
G1 X120.587 Y132.552 E14.94259
G1 X124.878 Y126.421 E15.20393
G1 X125.051 Y126.208 E15.21351
G0 F1080 X125.542 Y125.603
G0 X125.557 Y125.587
G0 F6000 X125.849 Y125.86
G1 F1200 X126.173 Y125.537 E15.22949
G1 X128.758 Y123.118 E15.35313
G1 X128.985 Y122.914 E15.36379
G1 X128.992 Y122.908 E15.36411
G1 X129.318 Y122.646 E15.37872
G1 X132.356 Y120.342 E15.51187
G1 X132.801 Y120.031 E15.53083
G1 X132.815 Y120.022 E15.53141
G1 X133.427 Y119.671 E15.55605
G1 X136.29 Y118.215 E15.66823
G1 X136.566 Y118.081 E15.67894
G1 X136.577 Y118.076 E15.67936
G1 X137.029 Y117.89 E15.69643
G1 X140.761 Y116.499 E15.83552
G1 X141.195 Y116.353 E15.85151
G1 X141.215 Y116.347 E15.85224
G1 X142.29 Y116.115 E15.89065
G1 X149.052 Y115.203 E16.12894
G1 X149.988 Y115.14 E16.1617
G1 X150.01 Y115.14 E16.16247
G1 X150.945 Y115.203 E16.1952
G1 X157.708 Y116.115 E16.43352
G1 X158.443 Y116.254 E16.45964
G1 X159.217 Y116.492 E16.48792
G1 X162.983 Y117.895 E16.62827
G1 X163.712 Y118.216 E16.65609
G1 X166.571 Y119.67 E16.76811
G1 X167.108 Y119.973 E16.78964
G1 X167.124 Y119.983 E16.7903
G1 X167.644 Y120.342 E16.81237
G1 X170.682 Y122.646 E16.94552
G1 X171.008 Y122.908 E16.96013
G1 X171.015 Y122.914 E16.96045
G1 X171.242 Y123.118 E16.97111
G1 X173.827 Y125.537 E17.09475
G1 X174.151 Y125.86 E17.11073
G1 X174.166 Y125.876 E17.11149
G1 X174.794 Y126.65 E17.1463
G1 X179.085 Y132.781 E17.40765
G1 X179.611 Y133.665 E17.44357
G1 X179.623 Y133.689 E17.44451
G1 X179.957 Y134.473 E17.47427
G1 X182.234 Y140.874 E17.71153
G1 X182.517 Y141.919 E17.74934
G1 X182.524 Y141.956 E17.75066
G1 X182.624 Y142.697 E17.77677
G1 X182.646 Y143.257 E17.79634
G1 X182.646 Y151.953 E18.10003
G1 X182.606 Y152.7 E18.12616
G1 X182.539 Y153.169 E18.1427
G1 X182.533 Y153.203 E18.14391
G1 X182.364 Y153.932 E18.17004
G1 X182.235 Y154.332 E18.18472
G1 X179.958 Y160.735 E18.42205
G1 X179.624 Y161.52 E18.45185
G1 X179.611 Y161.546 E18.45286
G1 X179.085 Y162.43 E18.48878
G1 X174.794 Y168.56 E18.7501
G1 X174.166 Y169.334 E18.78491
G1 X174.151 Y169.35 E18.78568
G1 X173.827 Y169.673 E18.80165
G1 X171.242 Y172.092 E18.92529
G1 X171.015 Y172.296 E18.93595
G1 X171.008 Y172.302 E18.93627
G1 X170.714 Y172.538 E18.94944
G1 X170.683 Y172.843 E18.96014
G1 X170.569 Y173.582 E18.98626
G1 X170.376 Y174.305 E19.01239
G1 X170.108 Y175.003 E19.0385
G1 X169.766 Y175.669 E19.06465
G1 X169.494 Y176.1 E19.08245
G1 X169.159 Y176.589 E19.10315
G1 X168.898 Y176.981 E19.1196
G1 X168.573 Y177.451 E19.13955
G1 X168.336 Y177.784 E19.15383
G1 X168.146 Y178.035 E19.16482
G1 X167.644 Y178.75 E19.19533
G1 X167.488 Y178.989 E19.2053
G1 X167.214 Y179.379 E19.22194
G1 X167.075 Y179.564 E19.23002
G1 X166.942 Y179.767 E19.2385
G1 X166.551 Y180.308 E19.26181
G1 X166.413 Y180.481 E19.26954
G1 X166.083 Y180.942 E19.28934
G1 X165.616 Y181.526 E19.31545
G1 X165.089 Y182.057 E19.34158
G1 X164.509 Y182.529 E19.36769
G1 X163.881 Y182.936 E19.39383
G1 X163.214 Y183.274 E19.41994
G1 X162.514 Y183.539 E19.44608
G1 X162.189 Y183.624 E19.45781
G1 X161.848 Y184.055 E19.47701
G1 X161.323 Y184.588 E19.50313
G1 X160.745 Y185.062 E19.52924
G1 X160.119 Y185.473 E19.55539
G1 X159.454 Y185.813 E19.58148
G1 X158.755 Y186.081 E19.60762
G1 X158.032 Y186.273 E19.63374
G1 X157.293 Y186.387 E19.65986
G1 X156.601 Y186.421 E19.68405
G1 X143.352 Y186.421 E20.14675
G1 X142.605 Y186.381 E20.17287
G1 X141.867 Y186.262 E20.19898
G1 X141.145 Y186.064 E20.22513
G1 X140.449 Y185.791 E20.25124
G1 X139.786 Y185.444 E20.27737
G1 X139.163 Y185.029 E20.30351
G1 X138.589 Y184.55 E20.32962
G1 X138.068 Y184.013 E20.35575
G1 X137.817 Y183.691 E20.37001
G1 X137.406 Y183.578 E20.38489
G1 X136.71 Y183.305 E20.411
G1 X136.047 Y182.958 E20.43714
G1 X135.424 Y182.543 E20.46328
G1 X134.85 Y182.064 E20.48939
G1 X134.329 Y181.527 E20.51552
G1 X133.818 Y180.862 E20.54481
G1 X133.462 Y180.336 E20.56699
G1 X133.363 Y180.204 E20.57275
G1 X133.162 Y179.92 E20.5849
G1 X132.752 Y179.31 E20.61057
G1 X132.115 Y178.43 E20.64851
G1 X131.87 Y178.072 E20.66366
G1 X131.073 Y176.923 E20.71249
G1 X130.894 Y176.685 E20.72289
G1 X130.716 Y176.437 E20.73355
G1 X130.504 Y176.128 E20.74664
G1 X130.114 Y175.49 E20.77276
G1 X129.795 Y174.813 E20.79889
G1 X129.47 Y173.804 E20.83591
G1 X129.445 Y173.7 E20.83965
G1 X129.279 Y172.694 E20.87526
G1 X129.263 Y172.521 E20.88132
G1 X128.992 Y172.302 E20.89349
G1 X128.985 Y172.296 E20.89381
G1 X128.758 Y172.092 E20.90447
G1 X126.173 Y169.673 E21.02811
G1 X125.849 Y169.35 E21.04409
G1 X125.834 Y169.334 E21.04485
G1 X125.206 Y168.56 E21.07966
G1 X120.915 Y162.43 E21.34098
G1 X120.389 Y161.546 E21.3769
G1 X120.376 Y161.52 E21.37792
G1 X120.044 Y160.743 E21.40743
G1 X117.759 Y154.34 E21.64485
G1 X117.546 Y153.623 E21.67097
G1 X117.459 Y153.203 E21.68595
G1 X117.453 Y153.169 E21.68716
G1 X117.362 Y152.427 E21.71326
G1 X117.346 Y151.953 E21.72983
G1 X117.346 Y143.257 E22.03352
G1 X117.386 Y142.51 E22.05964
G1 X117.453 Y142.041 E22.07619
G1 X117.459 Y142.007 E22.07739
G1 X117.628 Y141.278 E22.10353
G1 X117.759 Y140.87 E22.11849
G1 X120.044 Y134.468 E22.35589
G1 X120.376 Y133.691 E22.38539
G1 X120.389 Y133.665 E22.38641
G1 X120.915 Y132.781 E22.42233
G1 X125.206 Y126.65 E22.68368
G1 X125.343 Y126.481 E22.69128
G0 F1080 X125.834 Y125.876
G0 X125.849 Y125.86
G0 F6000 X126.141 Y126.134
