;FLAVOR:Marlin
M117 Time Left 0h21m29s
;Filament used: 0.473705m
;Layer height: 0.2
;MINX:122.827
;MINY:134.452
;MINZ:0.2
;MAXX:177.173
;MAXY:165.555
;MAXZ:11.2
;POSTPROCESSED
;Generated with Cura_SteamEngine 4.6.0
M140 S58
M105
M190 S58
M104 S195
M105
M109 S195
M82 ;absolute extrusion mode
M201 X500.00 Y500.00 Z100.00 E5000.00 ;Setup machine max acceleration
M203 X500.00 Y500.00 Z10.00 E50.00 ;Setup machine max feedrate
M204 P500.00 R1000.00 T500.00 ;Setup Print/Retract/Travel acceleration
M205 X8.00 Y8.00 Z0.40 E5.00 ;Setup Jerk
M220 S100 ;Reset Feedrate
M221 S100 ;Reset Flowrate

G28 ;Home

G92 E0 ;Reset Extruder
G1 Z2.0 F3000 ;Move Z Axis up
G1 X10.1 Y20 Z0.28 F5000.0 ;Move to start position
G1 X10.1 Y200.0 Z0.28 F1500.0 E15 ;Draw the first line
G1 X10.4 Y200.0 Z0.28 F5000.0 ;Move to side a little
G1 X10.4 Y20 Z0.28 F1500.0 E30 ;Draw the second line
G92 E0 ;Reset Extruder
G1 Z2.0 F3000 ;Move Z Axis up

G92 E0
G92 E0
G1 F1500 E-5.5
;LAYER_COUNT:56
;LAYER:0
M107
G0 F6000 X142.723 Y164.755 Z0.2
;TYPE:SKIRT
G1 F1500 E0
G1 F1200 X141.676 Y164.752 E0.03656
G1 X139 Y164.755 E0.13002
G1 X137.958 Y164.752 E0.16641
G1 X134.388 Y164.751 E0.29108
G1 X133.69 Y164.741 E0.31546
G1 X132.788 Y164.688 E0.34702
G1 X131.895 Y164.556 E0.37854
G1 X131.017 Y164.345 E0.41008
G1 X130.161 Y164.057 E0.44162
G1 X129.334 Y163.695 E0.47315
G1 X128.542 Y163.26 E0.5047
G1 X127.791 Y162.758 E0.53625
G1 X127.088 Y162.191 E0.56779
G1 X126.438 Y161.564 E0.59933
G1 X125.846 Y160.882 E0.63087
G1 X125.316 Y160.151 E0.6624
G1 X124.854 Y159.375 E0.69394
G1 X124.461 Y158.562 E0.72548
G1 X124.143 Y157.717 E0.75701
G1 X123.9 Y156.847 E0.78856
G1 X123.735 Y155.959 E0.8201
G1 X123.64 Y154.818 E0.86008
G1 X123.627 Y154.21 E0.88132
G1 X123.628 Y145.988 E1.16846
G1 X123.637 Y145.324 E1.19165
G1 X123.689 Y144.422 E1.2232
G1 X123.821 Y143.529 E1.25473
G1 X124.031 Y142.65 E1.28629
G1 X124.318 Y141.794 E1.31782
G1 X124.68 Y140.967 E1.34935
G1 X125.114 Y140.174 E1.38092
G1 X125.615 Y139.424 E1.41242
G1 X126.182 Y138.72 E1.44398
G1 X126.808 Y138.07 E1.4755
G1 X127.49 Y137.477 E1.50706
G1 X128.221 Y136.947 E1.53859
G1 X128.996 Y136.484 E1.57012
G1 X129.809 Y136.091 E1.60166
G1 X130.654 Y135.771 E1.63321
G1 X131.523 Y135.528 E1.66473
G1 X132.411 Y135.362 E1.69627
G1 X133.484 Y135.268 E1.73389
G1 X133.856 Y135.258 E1.74689
G1 X134.39 Y135.252 E1.76554
G1 X146.634 Y135.253 E2.19314
G1 X148.855 Y135.287 E2.27071
G1 X151.434 Y135.287 E2.36078
G1 X152.816 Y135.257 E2.40905
G1 X152.845 Y135.256 E2.41006
G1 X153.145 Y135.252 E2.42054
G1 X165.613 Y135.253 E2.85596
G1 X166.302 Y135.263 E2.88003
G1 X167.204 Y135.316 E2.91158
G1 X168.097 Y135.449 E2.94311
G1 X168.975 Y135.66 E2.97465
G1 X169.831 Y135.948 E3.00619
G1 X170.658 Y136.31 E3.03772
G1 X171.45 Y136.745 E3.06927
G1 X172.2 Y137.247 E3.10079
G1 X172.903 Y137.814 E3.13233
G1 X173.553 Y138.441 E3.16387
G1 X174.145 Y139.123 E3.19541
G1 X174.675 Y139.855 E3.22697
G1 X175.137 Y140.631 E3.25851
G1 X175.529 Y141.444 E3.29003
G1 X175.848 Y142.289 E3.32158
G1 X176.091 Y143.159 E3.35312
G1 X176.255 Y144.047 E3.38466
G1 X176.35 Y145.183 E3.42447
G1 X176.373 Y146.156 E3.45846
G1 X176.372 Y153.942 E3.73037
G1 X176.363 Y154.669 E3.75576
G1 X176.312 Y155.571 E3.78731
G1 X176.181 Y156.465 E3.81887
G1 X175.972 Y157.343 E3.85039
G1 X175.686 Y158.2 E3.88194
G1 X175.325 Y159.028 E3.91348
G1 X174.893 Y159.82 E3.94499
G1 X174.392 Y160.572 E3.97655
G1 X173.826 Y161.276 E4.00809
G1 X173.201 Y161.927 E4.03961
G1 X172.52 Y162.521 E4.07117
G1 X171.789 Y163.052 E4.10272
G1 X171.015 Y163.516 E4.13424
G1 X170.202 Y163.91 E4.16579
G1 X169.358 Y164.23 E4.19731
G1 X168.488 Y164.475 E4.22888
G1 X167.601 Y164.641 E4.26039
G1 X166.45 Y164.739 E4.30073
G1 X165.845 Y164.752 E4.32187
G1 X153.352 Y164.751 E4.75816
G1 X151.09 Y164.716 E4.83717
G1 X143.523 Y164.752 E5.10143
G0 F1080 X142.723 Y164.755
G0 F6000 X142.722 Y165.155
G1 F1200 X141.679 Y165.152 E5.13786
G1 X138.999 Y165.155 E5.23145
G1 X137.961 Y165.152 E5.2677
G1 X134.382 Y165.151 E5.39269
G1 X133.684 Y165.141 E5.41707
G1 X132.765 Y165.088 E5.44922
G1 X131.854 Y164.955 E5.48137
G1 X130.958 Y164.744 E5.51352
G1 X130.084 Y164.456 E5.54566
G1 X129.237 Y164.093 E5.57784
G1 X128.426 Y163.658 E5.60998
G1 X127.656 Y163.154 E5.64212
G1 X126.932 Y162.585 E5.67427
G1 X126.26 Y161.955 E5.70644
G1 X125.645 Y161.27 E5.73859
G1 X125.092 Y160.534 E5.77074
G1 X124.605 Y159.753 E5.80289
G1 X124.188 Y158.932 E5.83504
G1 X123.843 Y158.078 E5.86721
G1 X123.574 Y157.198 E5.89935
G1 X123.382 Y156.297 E5.93152
G1 X123.269 Y155.384 E5.96365
G1 X123.24 Y154.829 E5.98306
G1 X123.227 Y154.21 E6.00468
G1 X123.228 Y145.982 E6.29203
G1 X123.237 Y145.318 E6.31522
G1 X123.289 Y144.399 E6.34736
G1 X123.421 Y143.488 E6.37951
G1 X123.632 Y142.592 E6.41166
G1 X123.92 Y141.717 E6.44383
G1 X124.282 Y140.871 E6.47596
G1 X124.716 Y140.059 E6.50812
G1 X125.22 Y139.288 E6.54029
G1 X125.788 Y138.564 E6.57242
G1 X126.417 Y137.891 E6.60459
G1 X127.102 Y137.276 E6.63674
G1 X127.837 Y136.723 E6.66886
G1 X128.618 Y136.235 E6.70103
G1 X129.439 Y135.817 E6.7332
G1 X130.292 Y135.472 E6.76533
G1 X131.172 Y135.202 E6.79748
G1 X132.073 Y135.01 E6.82965
G1 X132.986 Y134.896 E6.86179
G1 X133.616 Y134.863 E6.88382
G1 X134.39 Y134.852 E6.91085
G1 X146.64 Y134.853 E7.33866
G1 X148.865 Y134.887 E7.41637
G1 X151.471 Y134.887 E7.50738
G1 X152.796 Y134.858 E7.55367
G1 X153.145 Y134.852 E7.56586
G1 X165.619 Y134.853 E8.00149
G1 X166.308 Y134.863 E8.02555
G1 X167.227 Y134.916 E8.0577
G1 X168.138 Y135.049 E8.08985
G1 X169.034 Y135.261 E8.12201
G1 X169.908 Y135.549 E8.15414
G1 X170.754 Y135.912 E8.18629
G1 X171.566 Y136.347 E8.21846
G1 X172.336 Y136.851 E8.2506
G1 X173.06 Y137.42 E8.28276
G1 X173.732 Y138.05 E8.31493
G1 X174.346 Y138.735 E8.34706
G1 X174.899 Y139.472 E8.37923
G1 X175.386 Y140.253 E8.41138
G1 X175.803 Y141.074 E8.44354
G1 X176.147 Y141.928 E8.47569
G1 X176.416 Y142.808 E8.50783
G1 X176.608 Y143.709 E8.54
G1 X176.721 Y144.622 E8.57213
G1 X176.75 Y145.172 E8.59136
G1 X176.773 Y146.156 E8.62573
G1 X176.772 Y153.947 E8.89782
G1 X176.763 Y154.674 E8.92321
G1 X176.712 Y155.593 E8.95535
G1 X176.581 Y156.505 E8.98753
G1 X176.371 Y157.401 E9.01967
G1 X176.085 Y158.276 E9.05182
G1 X175.724 Y159.123 E9.08397
G1 X175.29 Y159.935 E9.11613
G1 X174.788 Y160.707 E9.14829
G1 X174.22 Y161.432 E9.18045
G1 X173.592 Y162.105 E9.2126
G1 X172.908 Y162.721 E9.24474
G1 X172.173 Y163.275 E9.27689
G1 X171.393 Y163.764 E9.30904
G1 X170.573 Y164.183 E9.3412
G1 X169.72 Y164.529 E9.37334
G1 X168.84 Y164.8 E9.4055
G1 X167.94 Y164.993 E9.43765
G1 X167.026 Y165.108 E9.46982
G1 X166.461 Y165.139 E9.48958
G1 X165.846 Y165.152 E9.51106
G1 X161.763 Y165.153 E9.65365
G1 X161.719 Y165.155 E9.65519
G1 X160.676 Y165.152 E9.69162
G1 X157.996 Y165.155 E9.78521
G1 X156.958 Y165.152 E9.82146
G1 X153.346 Y165.151 E9.9476
G1 X151.088 Y165.116 E10.02647
G1 X143.522 Y165.152 E10.2907
G0 F1080 X142.722 Y165.155
G0 F6000 X142.72 Y165.555
G1 F1200 X141.682 Y165.552 E10.32695
G1 X138.997 Y165.555 E10.42072
G1 X137.964 Y165.552 E10.45679
G1 X134.376 Y165.551 E10.5821
G1 X133.678 Y165.541 E10.60648
G1 X132.742 Y165.487 E10.63922
G1 X131.814 Y165.355 E10.67196
G1 X130.9 Y165.143 E10.70472
G1 X130.008 Y164.854 E10.73747
G1 X129.143 Y164.491 E10.77023
G1 X128.313 Y164.055 E10.80297
G1 X127.522 Y163.55 E10.83574
G1 X126.778 Y162.979 E10.8685
G1 X126.085 Y162.347 E10.90125
G1 X125.448 Y161.659 E10.934
G1 X124.873 Y160.918 E10.96675
G1 X124.362 Y160.132 E10.99949
G1 X123.92 Y159.304 E11.03227
G1 X123.551 Y158.442 E11.06502
G1 X123.256 Y157.552 E11.09776
G1 X123.038 Y156.64 E11.13051
G1 X122.898 Y155.712 E11.16328
G1 X122.84 Y154.84 E11.1938
G1 X122.827 Y154.21 E11.21581
G1 X122.828 Y145.977 E11.50333
G1 X122.837 Y145.313 E11.52652
G1 X122.89 Y144.377 E11.55926
G1 X123.022 Y143.448 E11.59203
G1 X123.233 Y142.534 E11.62479
G1 X123.521 Y141.642 E11.65753
G1 X123.884 Y140.777 E11.69029
G1 X124.319 Y139.946 E11.72305
G1 X124.823 Y139.155 E11.7558
G1 X125.393 Y138.411 E11.78853
G1 X126.025 Y137.717 E11.82131
G1 X126.713 Y137.08 E11.85406
G1 X127.453 Y136.504 E11.88681
G1 X128.239 Y135.992 E11.91957
G1 X129.066 Y135.55 E11.95231
G1 X129.928 Y135.18 E11.98507
G1 X130.818 Y134.884 E12.01783
G1 X131.73 Y134.666 E12.05058
G1 X132.657 Y134.525 E12.08332
G1 X133.457 Y134.469 E12.11133
G1 X133.847 Y134.458 E12.12495
G1 X134.39 Y134.452 E12.14392
G1 X146.646 Y134.453 E12.57194
G1 X148.876 Y134.487 E12.64983
G1 X151.462 Y134.487 E12.74014
G1 X152.779 Y134.458 E12.78614
G1 X153.145 Y134.452 E12.79892
G1 X165.625 Y134.453 E13.23477
G1 X166.314 Y134.463 E13.25883
G1 X167.25 Y134.517 E13.29157
G1 X168.178 Y134.65 E13.32431
G1 X169.092 Y134.862 E13.35708
G1 X169.984 Y135.15 E13.38981
G1 X170.849 Y135.514 E13.42259
G1 X171.679 Y135.95 E13.45533
G1 X172.469 Y136.455 E13.48808
G1 X173.213 Y137.026 E13.52083
G1 X173.906 Y137.658 E13.55358
G1 X174.543 Y138.347 E13.58635
G1 X175.119 Y139.087 E13.6191
G1 X175.629 Y139.874 E13.65185
G1 X176.071 Y140.702 E13.68463
G1 X176.44 Y141.564 E13.71738
G1 X176.735 Y142.454 E13.75012
G1 X176.953 Y143.366 E13.78287
G1 X177.092 Y144.294 E13.81564
G1 X177.15 Y145.161 E13.84599
G1 X177.173 Y146.156 E13.88074
G1 X177.172 Y153.952 E14.153
G1 X177.163 Y154.679 E14.1784
G1 X177.112 Y155.616 E14.21117
G1 X176.98 Y156.544 E14.2439
G1 X176.771 Y157.458 E14.27665
G1 X176.484 Y158.351 E14.3094
G1 X176.122 Y159.217 E14.34218
G1 X175.688 Y160.048 E14.37492
G1 X175.184 Y160.839 E14.40768
G1 X174.615 Y161.584 E14.44042
G1 X173.984 Y162.279 E14.4732
G1 X173.297 Y162.917 E14.50594
G1 X172.558 Y163.494 E14.53868
G1 X171.772 Y164.006 E14.57144
G1 X170.946 Y164.449 E14.60418
G1 X170.084 Y164.821 E14.63696
G1 X169.195 Y165.117 E14.66969
G1 X168.283 Y165.337 E14.70245
G1 X167.356 Y165.478 E14.7352
G1 X166.472 Y165.539 E14.76614
G1 X165.846 Y165.552 E14.78801
G1 X161.763 Y165.553 E14.9306
G1 X161.717 Y165.555 E14.93221
G1 X160.679 Y165.552 E14.96846
G1 X157.994 Y165.555 E15.06223
G1 X156.961 Y165.552 E15.0983
G1 X153.34 Y165.551 E15.22476
G1 X151.085 Y165.516 E15.30352
G1 X143.52 Y165.552 E15.56772
G0 F1080 X142.72 Y165.555
G0 F6000 X140.44 Y149.446
G1 F1200 X140.563 Y149.446 E15.57201
G1 X140.563 Y153.152 E15.70144
G1 X140.44 Y153.152 E15.70573
G1 X140.44 Y150.004 E15.81567
G0 F1080 X140.44 Y149.446
G0 F6000 X140.04 Y149.046
G1 F1200 X140.963 Y149.046 E15.84791
G1 X140.963 Y153.552 E16.00527
G1 X140.04 Y153.552 E16.0375
G1 X140.04 Y149.781 E16.1692
G0 F1080 X140.04 Y149.046
G0 F6000 X139.64 Y148.646
G1 F1200 X141.363 Y148.646 E16.22937
G1 X141.363 Y153.952 E16.41467
G1 X139.64 Y153.952 E16.47485
G1 X139.64 Y149.446 E16.63221
G0 F1080 X139.64 Y148.646
G0 F6000 X139.24 Y148.246
G1 F1200 X141.763 Y148.246 E16.72032
G1 X141.763 Y154.352 E16.93356
G1 X139.24 Y154.352 E17.02167
G1 X139.24 Y149.046 E17.20697
G0 F1080 X139.24 Y148.246
G1 F1500 E11.70697
G0 F6000 X142.102 Y154.709
G0 X142.606 Y155.213
G0 X157.394 Y155.213
G0 X157.898 Y154.709
G0 X158.237 Y148.246
G1 F1500 E17.20697
G1 F1200 X160.76 Y148.246 E17.29509
G1 X160.76 Y154.352 E17.50833
G1 X158.237 Y154.352 E17.59644
G1 X158.237 Y149.046 E17.78174
G0 F1080 X158.237 Y148.246
G0 F6000 X158.637 Y148.646
G1 F1200 X160.36 Y148.646 E17.84191
G1 X160.36 Y153.952 E18.02721
G1 X158.637 Y153.952 E18.08739
G1 X158.637 Y149.446 E18.24475
G0 F1080 X158.637 Y148.646
G0 F6000 X159.037 Y149.046
G1 F1200 X159.96 Y149.046 E18.27698
G1 X159.96 Y153.552 E18.43435
G1 X159.037 Y153.552 E18.46658
G1 X159.037 Y149.781 E18.59828
G0 F1080 X159.037 Y149.046
G0 F6000 X159.437 Y149.446
G1 F1200 X159.56 Y149.446 E18.60257
G1 X159.56 Y153.152 E18.732
G1 X159.437 Y153.152 E18.73629
G1 X159.437 Y150.004 E18.84623
G0 F1080 X159.437 Y149.446
G1 F1500 E13.34623
;MESH:12-cockpit-inside-1.stl
G0 F6000 X156.817 Y149.446
G0 X156.237 Y153.552
;TYPE:WALL-INNER
G1 F1500 E18.84623
G1 F1200 X154.002 Y153.552 E18.92057
G1 X153.803 Y153.552 E18.92719
G1 X153.803 Y153.353 E18.93147
G1 X153.804 Y146.452 E19.161
G1 X156.237 Y146.452 E19.24192
G1 X156.237 Y152.846 E19.45458
G0 F1080 X156.237 Y153.552
G0 F6000 X156.637 Y153.952
G1 F1200 X153.602 Y153.952 E19.55553
G1 X153.403 Y153.952 E19.56215
G1 X153.403 Y153.753 E19.56643
G1 X153.404 Y146.052 E19.82257
G1 X165.573 Y146.052 E20.22731
G1 X165.573 Y153.952 E20.49006
G1 X162.36 Y153.952 E20.59693
G1 X162.36 Y146.646 E20.83993
G1 X156.637 Y146.646 E21.03028
G1 X156.637 Y153.152 E21.24667
G0 F1080 X156.637 Y153.952
G0 F6000 X156.809 Y146.818
G0 X162.188 Y146.818
G0 X162.76 Y153.552
G1 F1200 X162.76 Y146.452 E21.48281
G1 X165.173 Y146.452 E21.56307
G1 X165.173 Y153.552 E21.79922
G1 X163.56 Y153.552 E21.85287
G0 F1080 X162.76 Y153.552
G1 F1500 E16.35287
G0 F6000 X165.703 Y154.082
G0 X165.973 Y154.352
;TYPE:WALL-OUTER
G1 F1500 E21.85287
G1 F1200 X161.96 Y154.352 E21.98634
G1 X161.96 Y147.046 E22.22934
G1 X157.037 Y147.046 E22.39308
G1 X157.037 Y154.352 E22.63607
G1 X153.003 Y154.352 E22.77025
G1 X153.004 Y145.652 E23.05961
G1 X165.973 Y145.652 E23.49096
G1 X165.973 Y153.552 E23.75372
G0 F1080 X165.973 Y154.352
G0 F6000 X165.573 Y154.352
G0 X165.533 Y153.912
G0 X165.063 Y153.162
G0 X164.783 Y153.162
;TYPE:SKIN
G1 F1200 X163.15 Y153.162 E23.80803
G1 X163.15 Y146.842 E24.01823
G1 X164.783 Y146.842 E24.07255
G1 X164.783 Y152.362 E24.25614
G0 F1080 X164.783 Y153.162
G0 F6000 X165.063 Y153.162
G0 X164.999 Y153.349
G0 X163.749 Y153.442
G0 X163.749 Y153.001
G1 F1200 X163.309 Y152.561 E24.27684
G0 F6000 X163.309 Y151.995
G1 F1200 X164.315 Y153.001 E24.32416
G0 F6000 X164.622 Y152.742
G1 F1200 X163.309 Y151.429 E24.38592
G0 F6000 X163.309 Y150.864
G1 F1200 X164.622 Y152.177 E24.44768
G0 F6000 X164.622 Y151.611
G1 F1200 X163.309 Y150.298 E24.50944
G0 F6000 X163.309 Y149.732
G1 F1200 X164.622 Y151.045 E24.5712
G0 F6000 X164.622 Y150.48
G1 F1200 X163.309 Y149.167 E24.63296
G0 F6000 X163.309 Y148.601
G1 F1200 X164.622 Y149.914 E24.69472
G0 F6000 X164.622 Y149.348
G1 F1200 X163.309 Y148.035 E24.75647
G0 F6000 X163.309 Y147.469
G1 F1200 X164.622 Y148.783 E24.81826
G0 F6000 X164.622 Y148.217
G1 F1200 X163.407 Y147.002 E24.87541
G0 F6000 X163.973 Y147.002
G1 F1200 X164.622 Y147.651 E24.90593
G0 F6000 X164.622 Y147.085
G1 F1200 X164.538 Y147.002 E24.90986
G0 F6000 X164.538 Y146.562
G0 X155.847 Y146.562
G0 X155.847 Y146.842
G1 F1200 X155.847 Y153.162 E25.12007
G1 X154.193 Y153.162 E25.17508
G1 X154.194 Y146.842 E25.38528
G1 X155.134 Y146.842 E25.41655
G0 F1080 X155.847 Y146.842
G0 F6000 X155.686 Y147.201
G1 F1200 X155.487 Y147.001 E25.42593
G0 F6000 X154.921 Y147.001
G1 F1200 X155.686 Y147.766 E25.46191
G0 F6000 X155.686 Y148.332
G1 F1200 X154.355 Y147.001 E25.52452
G0 F6000 X154.352 Y147.563
G1 F1200 X155.686 Y148.898 E25.58729
G0 F6000 X155.686 Y149.463
G1 F1200 X154.352 Y148.129 E25.65004
G0 F6000 X154.352 Y148.695
G1 F1200 X155.686 Y150.029 E25.71279
G0 F6000 X155.686 Y150.595
G1 F1200 X154.352 Y149.261 E25.77553
G0 F6000 X154.352 Y149.826
G1 F1200 X155.686 Y151.161 E25.8383
G0 F6000 X155.686 Y151.726
G1 F1200 X154.352 Y150.392 E25.90105
G0 F6000 X154.352 Y150.958
G1 F1200 X155.686 Y152.292 E25.9638
G0 F6000 X155.686 Y152.858
G1 F1200 X154.352 Y151.523 E26.02657
G0 F6000 X154.352 Y152.089
G1 F1200 X155.264 Y153.001 E26.06947
G0 F6000 X154.698 Y153.001
G1 F1200 X154.352 Y152.655 E26.08574
G0 F6000 X153.914 Y152.654
G0 X153.985 Y153.37
G0 X156.055 Y153.37
G0 X156.653 Y146.471
G0 X156.531 Y146.348
;TYPE:SKIN
G1 F1200 X156.814 Y146.348 E26.09169
G1 X162.052 Y146.348 E26.20179
G0 F1080 X162.47 Y146.348
G0 F6000 X162.593 Y146.471
G1 F1500 E20.70179
G0 F6000 X156.809 Y146.818
G0 X156.055 Y153.37
G0 X153.223 Y153.555
G0 X152.138 Y153.555
G0 X147.861 Y153.554
G0 X146.796 Y153.555
G0 X143.191 Y154.124
G0 X143.122 Y153.552
G0 X137.24 Y153.552
;TYPE:WALL-INNER
G1 F1500 E26.20179
G1 F1200 X134.827 Y153.552 E26.28204
G1 X134.827 Y146.452 E26.51819
G1 X137.24 Y146.452 E26.59845
G1 X137.24 Y152.752 E26.80799
G0 F1080 X137.24 Y153.552
G0 F6000 X137.64 Y153.952
G1 F1200 X134.427 Y153.952 E26.91485
G1 X134.427 Y146.052 E27.17761
G1 X146.596 Y146.052 E27.58235
G1 X146.597 Y153.753 E27.83849
G1 X146.597 Y153.952 E27.8451
G1 X146.398 Y153.952 E27.84939
G1 X143.363 Y153.952 E27.95033
