;FLAVOR:Marlin
M117 Time Left 0h08m30s
;Filament used: 0.12136m
;Layer height: 0.2
;MINX:134.91
;MINY:139.573
;MINZ:0.2
;MAXX:165.092
;MAXY:160.429
;MAXZ:9.2
;POSTPROCESSED
;Generated with Cura_SteamEngine 4.6.0
M140 S58
M105
M190 S58
M104 S195
M105
M109 S195
M82 ;absolute extrusion mode
M201 X500.00 Y500.00 Z100.00 E5000.00 ;Setup machine max acceleration
M203 X500.00 Y500.00 Z10.00 E50.00 ;Setup machine max feedrate
M204 P500.00 R1000.00 T500.00 ;Setup Print/Retract/Travel acceleration
M205 X8.00 Y8.00 Z0.40 E5.00 ;Setup Jerk
M220 S100 ;Reset Feedrate
M221 S100 ;Reset Flowrate

G28 ;Home

G92 E0 ;Reset Extruder
G1 Z2.0 F3000 ;Move Z Axis up
G1 X10.1 Y20 Z0.28 F5000.0 ;Move to start position
G1 X10.1 Y200.0 Z0.28 F1500.0 E15 ;Draw the first line
G1 X10.4 Y200.0 Z0.28 F5000.0 ;Move to side a little
G1 X10.4 Y20 Z0.28 F1500.0 E30 ;Draw the second line
G92 E0 ;Reset Extruder
G1 Z2.0 F3000 ;Move Z Axis up

G92 E0
G92 E0
G1 F1500 E-5.5
;LAYER_COUNT:46
;LAYER:0
M107
G0 F6000 X137.806 Y142.785 Z0.2
;TYPE:SKIRT
G1 F1500 E0
G1 F1200 X138.378 Y142.241 E0.02757
G1 X139.002 Y141.757 E0.05515
G1 X139.671 Y141.339 E0.0827
G1 X140.329 Y141.012 E0.10836
G1 X142.116 Y140.228 E0.17651
G1 X142.855 Y139.948 E0.2041
G1 X143.617 Y139.744 E0.23165
G1 X144.397 Y139.618 E0.25925
G1 X145.075 Y139.573 E0.28298
G1 X145.865 Y139.588 E0.31057
G1 X146.649 Y139.684 E0.33815
G1 X147.419 Y139.858 E0.36572
G1 X148.19 Y140.118 E0.39414
G1 X148.205 Y140.124 E0.3947
G1 X149.96 Y140.808 E0.46048
G1 X149.995 Y140.824 E0.46183
G1 X150.043 Y140.802 E0.46367
G1 X151.849 Y140.1 E0.53134
G1 X152.599 Y139.851 E0.55894
G1 X153.37 Y139.68 E0.58652
G1 X154.154 Y139.587 E0.61409
G1 X154.972 Y139.575 E0.64266
G1 X155.759 Y139.639 E0.67024
G1 X156.536 Y139.781 E0.69782
G1 X157.295 Y140.001 E0.72542
G1 X157.849 Y140.217 E0.74618
G1 X159.639 Y140.994 E0.81433
G1 X160.346 Y141.345 E0.8419
G1 X161.015 Y141.765 E0.86948
G1 X161.637 Y142.251 E0.89705
G1 X162.197 Y142.786 E0.9241
G1 X162.717 Y143.38 E0.95167
G1 X163.175 Y144.024 E0.97927
G1 X163.564 Y144.711 E1.00684
G1 X163.862 Y145.38 E1.03241
G1 X164.561 Y147.173 E1.09962
G1 X164.81 Y147.922 E1.12719
G1 X164.983 Y148.693 E1.15478
G1 X165.076 Y149.477 E1.18235
G1 X165.092 Y150.183 E1.20702
G1 X165.043 Y150.971 E1.23459
G1 X164.915 Y151.75 E1.26216
G1 X164.708 Y152.512 E1.28973
G1 X164.435 Y153.226 E1.31643
G1 X163.655 Y155.003 E1.3842
G1 X163.302 Y155.709 E1.41177
G1 X162.878 Y156.376 E1.43937
G1 X162.39 Y156.996 E1.46693
G1 X161.833 Y157.573 E1.49493
G1 X161.235 Y158.089 E1.52252
G1 X160.587 Y158.541 E1.55011
G1 X159.898 Y158.926 E1.57767
G1 X159.288 Y159.195 E1.60096
G1 X157.501 Y159.894 E1.66797
G1 X156.752 Y160.144 E1.69554
G1 X155.982 Y160.317 E1.72311
G1 X155.198 Y160.411 E1.75068
G1 X154.483 Y160.429 E1.77566
G1 X153.695 Y160.38 E1.80323
G1 X152.916 Y160.252 E1.8308
G1 X152.153 Y160.046 E1.8584
G1 X151.427 Y159.77 E1.88553
G1 X149.999 Y159.142 E1.94001
G1 X148.57 Y159.77 E1.99452
G1 X147.832 Y160.051 E2.0221
G1 X147.069 Y160.255 E2.04968
G1 X146.29 Y160.382 E2.07724
G1 X145.438 Y160.429 E2.10704
G1 X144.649 Y160.399 E2.13462
G1 X143.867 Y160.288 E2.1622
G1 X143.1 Y160.099 E2.18979
G1 X142.515 Y159.898 E2.21139
G1 X140.711 Y159.195 E2.27901
G1 X139.991 Y158.871 E2.30658
G1 X139.307 Y158.476 E2.33416
G1 X138.666 Y158.014 E2.36176
G1 X137.93 Y157.343 E2.39654
G1 X137.875 Y157.286 E2.39931
G1 X137.356 Y156.691 E2.42688
G1 X136.9 Y156.046 E2.45447
G1 X136.512 Y155.359 E2.48202
G1 X136.339 Y154.99 E2.49625
G1 X135.559 Y153.203 E2.56435
G1 X135.28 Y152.464 E2.59193
G1 X135.078 Y151.701 E2.6195
G1 X134.953 Y150.921 E2.64708
G1 X134.91 Y150.258 E2.67029
G1 X134.925 Y149.468 E2.69788
G1 X135.021 Y148.684 E2.72547
G1 X135.195 Y147.914 E2.75303
G1 X135.436 Y147.193 E2.77958
G1 X136.137 Y145.389 E2.84717
G1 X136.46 Y144.668 E2.87477
G1 X136.854 Y143.984 E2.90233
G1 X137.282 Y143.389 E2.92793
G0 F1080 X137.315 Y143.343
G0 X137.806 Y142.785
G0 F6000 X138.096 Y143.061
G1 F1200 X138.654 Y142.531 E2.95481
G1 X139.263 Y142.062 E2.98165
G1 X139.918 Y141.659 E3.00851
G1 X140.49 Y141.378 E3.03076
G1 X142.277 Y140.594 E3.09891
G1 X142.996 Y140.322 E3.12576
G1 X143.74 Y140.127 E3.15262
G1 X144.5 Y140.009 E3.17948
G1 X145.087 Y139.973 E3.20002
G1 X145.856 Y139.989 E3.22688
G1 X146.62 Y140.085 E3.25377
G1 X147.369 Y140.26 E3.28063
G1 X148.098 Y140.512 E3.30757
G1 X149.815 Y141.181 E3.37192
G1 X149.994 Y141.262 E3.37879
G1 X150.188 Y141.175 E3.38621
G1 X151.994 Y140.473 E3.45388
G1 X152.724 Y140.232 E3.48073
G1 X153.476 Y140.068 E3.50761
G1 X154.24 Y139.983 E3.53445
G1 X154.961 Y139.975 E3.55963
G1 X155.727 Y140.038 E3.58647
G1 X156.483 Y140.18 E3.61334
G1 X157.22 Y140.399 E3.64019
G1 X157.69 Y140.584 E3.65783
G1 X159.48 Y141.361 E3.72598
G1 X160.168 Y141.703 E3.75281
G1 X160.818 Y142.116 E3.7797
G1 X161.421 Y142.593 E3.80655
G1 X161.91 Y143.064 E3.83026
G1 X162.416 Y143.644 E3.85714
G1 X162.859 Y144.272 E3.88398
G1 X163.234 Y144.944 E3.91086
G1 X163.49 Y145.525 E3.93303
G1 X164.189 Y147.318 E4.00024
G1 X164.43 Y148.048 E4.02709
G1 X164.595 Y148.8 E4.05397
G1 X164.681 Y149.564 E4.08082
G1 X164.692 Y150.178 E4.10227
G1 X164.643 Y150.946 E4.12914
G1 X164.515 Y151.704 E4.15599
G1 X164.309 Y152.445 E4.18285
G1 X164.069 Y153.065 E4.20607
G1 X163.289 Y154.842 E4.27384
G1 X162.944 Y155.53 E4.30072
G1 X162.529 Y156.177 E4.32756
G1 X162.049 Y156.778 E4.35443
G1 X161.557 Y157.284 E4.37907
G1 X160.973 Y157.785 E4.40595
G1 X160.341 Y158.223 E4.4328
G1 X159.667 Y158.594 E4.45967
G1 X159.143 Y158.823 E4.47964
G1 X157.356 Y159.522 E4.54665
G1 X156.626 Y159.764 E4.57351
G1 X155.875 Y159.93 E4.60037
G1 X155.11 Y160.016 E4.62725
G1 X154.487 Y160.029 E4.64902
G1 X153.72 Y159.98 E4.67586
G1 X152.961 Y159.853 E4.70273
G1 X152.22 Y159.647 E4.72959
G1 X151.588 Y159.403 E4.75325
G1 X150 Y158.705 E4.81383
G1 X148.409 Y159.404 E4.87452
G1 X147.69 Y159.676 E4.90136
G1 X146.946 Y159.873 E4.92824
G1 X146.186 Y159.991 E4.9551
G1 X145.433 Y160.029 E4.98143
G1 X144.665 Y159.998 E5.00828
G1 X143.903 Y159.888 E5.03516
G1 X143.158 Y159.699 E5.062
G1 X142.66 Y159.525 E5.08043
G1 X140.856 Y158.822 E5.14804
G1 X140.155 Y158.506 E5.1749
G1 X139.49 Y158.119 E5.20177
G1 X138.87 Y157.664 E5.22862
G1 X138.163 Y157.008 E5.26231
G1 X137.658 Y156.428 E5.28916
G1 X137.217 Y155.798 E5.31602
G1 X136.706 Y154.83 E5.35425
G1 X135.926 Y153.043 E5.42234
G1 X135.655 Y152.323 E5.44921
G1 X135.461 Y151.579 E5.47606
G1 X135.345 Y150.819 E5.50291
G1 X135.31 Y150.246 E5.52296
G1 X135.326 Y149.477 E5.54982
G1 X135.422 Y148.713 E5.57671
G1 X135.597 Y147.964 E5.60357
G1 X135.808 Y147.338 E5.62664
G1 X136.509 Y145.534 E5.69423
G1 X136.825 Y144.832 E5.72112
G1 X137.211 Y144.167 E5.74797
G1 X137.576 Y143.668 E5.76956
G0 F1080 X137.665 Y143.546
G0 X138.096 Y143.061
G0 F6000 X138.386 Y143.336
G1 F1200 X138.929 Y142.822 E5.79567
G1 X139.524 Y142.368 E5.82181
G1 X140.164 Y141.981 E5.84793
G1 X140.651 Y141.745 E5.86683
G1 X142.438 Y140.961 E5.93498
G1 X143.138 Y140.697 E5.96111
G1 X143.862 Y140.51 E5.98722
G1 X144.602 Y140.401 E6.01334
G1 X145.1 Y140.372 E6.03076
G1 X145.848 Y140.389 E6.05689
G1 X146.589 Y140.486 E6.08299
G1 X147.317 Y140.661 E6.10914
G1 X147.895 Y140.862 E6.13051
G1 X147.915 Y140.87 E6.13126
G1 X149.67 Y141.554 E6.19704
G1 X149.991 Y141.699 E6.20934
G1 X150.333 Y141.548 E6.2224
G1 X152.139 Y140.846 E6.29007
G1 X152.85 Y140.612 E6.31621
G1 X153.581 Y140.456 E6.34231
G1 X154.325 Y140.379 E6.36843
G1 X154.949 Y140.375 E6.39023
G1 X155.694 Y140.437 E6.41633
G1 X156.429 Y140.578 E6.44247
G1 X157.144 Y140.797 E6.46859
G1 X157.53 Y140.951 E6.4831
G1 X159.32 Y141.728 E6.55125
G1 X159.99 Y142.062 E6.57739
G1 X160.619 Y142.466 E6.6035
G1 X161.203 Y142.934 E6.62964
G1 X161.623 Y143.342 E6.65008
G1 X162.114 Y143.907 E6.67623
G1 X162.542 Y144.52 E6.70234
G1 X162.902 Y145.176 E6.72847
G1 X163.117 Y145.67 E6.74728
G1 X163.816 Y147.463 E6.81449
G1 X164.05 Y148.174 E6.84063
G1 X164.207 Y148.905 E6.86674
G1 X164.285 Y149.649 E6.89287
G1 X164.293 Y150.173 E6.91117
G1 X164.244 Y150.92 E6.93731
G1 X164.116 Y151.657 E6.96344
G1 X163.91 Y152.376 E6.98956
G1 X163.703 Y152.904 E7.00936
G1 X162.923 Y154.681 E7.07714
G1 X162.586 Y155.349 E7.10327
G1 X162.18 Y155.978 E7.12941
G1 X161.709 Y156.559 E7.15553
G1 X161.28 Y156.994 E7.17687
G1 X160.712 Y157.481 E7.203
G1 X160.096 Y157.905 E7.22911
G1 X159.437 Y158.26 E7.25525
G1 X158.997 Y158.45 E7.27199
G1 X157.21 Y159.149 E7.339
G1 X156.5 Y159.384 E7.36512
G1 X155.769 Y159.542 E7.39124
G1 X155.025 Y159.62 E7.41737
G1 X154.492 Y159.629 E7.43598
G1 X153.745 Y159.581 E7.46212
G1 X153.008 Y159.453 E7.48825
G1 X152.288 Y159.248 E7.51439
G1 X151.749 Y159.037 E7.53461
G1 X150 Y158.268 E7.60133
G1 X148.248 Y159.038 E7.66816
G1 X147.548 Y159.302 E7.69429
G1 X146.824 Y159.489 E7.7204
G1 X146.084 Y159.599 E7.74653
G1 X145.428 Y159.63 E7.76947
G1 X144.681 Y159.598 E7.79558
G1 X143.941 Y159.487 E7.82171
G1 X143.217 Y159.298 E7.84784
G1 X142.805 Y159.152 E7.86311
G1 X141.001 Y158.449 E7.93072
G1 X140.32 Y158.141 E7.95683
G1 X139.675 Y157.761 E7.98297
G1 X139.075 Y157.315 E8.00908
G1 X138.451 Y156.731 E8.03893
G1 X137.961 Y156.165 E8.06507
G1 X137.534 Y155.551 E8.09119
G1 X137.073 Y154.67 E8.12591
G1 X136.293 Y152.883 E8.19401
G1 X136.03 Y152.183 E8.22012
G1 X135.844 Y151.458 E8.24626
G1 X135.737 Y150.718 E8.27237
G1 X135.709 Y150.233 E8.28934
G1 X135.726 Y149.485 E8.31547
G1 X135.823 Y148.744 E8.34157
G1 X135.998 Y148.016 E8.36771
G1 X136.181 Y147.483 E8.3874
G1 X136.882 Y145.679 E8.45499
G1 X137.19 Y144.997 E8.48112
G1 X137.569 Y144.352 E8.50725
G1 X137.87 Y143.946 E8.5249
G0 F1080 X138.014 Y143.751
G0 X138.386 Y143.336
G0 F6000 X138.676 Y143.611
G1 F1200 X139.204 Y143.113 E8.55024
G1 X139.784 Y142.675 E8.57563
G1 X140.409 Y142.304 E8.60101
G1 X140.811 Y142.111 E8.61658
G1 X142.598 Y141.327 E8.68473
G1 X143.279 Y141.072 E8.71013
G1 X143.983 Y140.894 E8.73549
G1 X145.047 Y140.774 E8.77288
G1 X145.112 Y140.772 E8.77515
G1 X145.838 Y140.79 E8.80051
G1 X146.558 Y140.887 E8.82589
G1 X147.263 Y141.063 E8.85126
G1 X147.806 Y141.257 E8.8714
G1 X149.525 Y141.927 E8.93583
G1 X149.986 Y142.136 E8.95351
G1 X150.478 Y141.92 E8.97227
G1 X152.284 Y141.218 E9.03994
G1 X152.974 Y140.993 E9.06529
G1 X153.685 Y140.845 E9.09065
G1 X154.408 Y140.775 E9.11602
G1 X154.937 Y140.775 E9.13449
G1 X155.661 Y140.836 E9.15987
G1 X156.373 Y140.977 E9.18521
G1 X157.371 Y141.318 E9.22205
G1 X159.161 Y142.095 E9.29019
G1 X159.81 Y142.42 E9.31554
G1 X160.42 Y142.815 E9.34092
G1 X160.983 Y143.275 E9.36631
G1 X161.335 Y143.621 E9.38355
G1 X161.811 Y144.169 E9.4089
G1 X162.224 Y144.767 E9.43428
G1 X162.569 Y145.407 E9.45967
G1 X162.744 Y145.816 E9.47521
G1 X163.443 Y147.609 E9.54241
G1 X163.669 Y148.299 E9.56777
G1 X163.818 Y149.01 E9.59314
G1 X163.894 Y150.084 E9.63074
G1 X163.893 Y150.169 E9.63371
G1 X163.844 Y150.893 E9.65905
G1 X163.716 Y151.608 E9.68442
G1 X163.511 Y152.305 E9.70979
G1 X163.336 Y152.744 E9.7263
G1 X162.556 Y154.521 E9.79407
G1 X162.228 Y155.169 E9.81943
G1 X161.831 Y155.777 E9.84479
G1 X161.369 Y156.338 E9.87017
G1 X161.004 Y156.705 E9.88825
G1 X160.452 Y157.177 E9.91361
G1 X159.851 Y157.585 E9.93898
G1 X159.209 Y157.925 E9.96435
G1 X158.851 Y158.078 E9.97795
G1 X157.064 Y158.777 E10.04496
G1 X156.374 Y159.003 E10.07032
G1 X155.664 Y159.153 E10.09566
G1 X154.59 Y159.23 E10.13326
G1 X154.496 Y159.229 E10.13655
G1 X153.771 Y159.181 E10.16192
G1 X153.056 Y159.054 E10.18728
G1 X152.359 Y158.849 E10.21265
G1 X151.91 Y158.671 E10.22952
G1 X150.14 Y157.893 E10.29704
G1 X149.997 Y157.821 E10.30264
G1 X149.859 Y157.894 E10.30809
G1 X148.088 Y158.672 E10.37564
G1 X147.407 Y158.927 E10.40104
G1 X146.703 Y159.106 E10.4264
G1 X145.984 Y159.206 E10.45176
G1 X145.424 Y159.23 E10.47133
G1 X144.698 Y159.198 E10.49671
G1 X143.98 Y159.087 E10.52208
G1 X142.951 Y158.78 E10.55958
G1 X141.147 Y158.077 E10.6272
G1 X140.485 Y157.776 E10.6526
G1 X139.861 Y157.405 E10.67795
G1 X139.281 Y156.967 E10.70333
G1 X138.739 Y156.453 E10.72942
G1 X138.264 Y155.903 E10.7548
G1 X137.852 Y155.305 E10.78016
G1 X137.439 Y154.51 E10.81144
G1 X136.659 Y152.723 E10.87954
G1 X136.406 Y152.043 E10.90488
G1 X136.228 Y151.338 E10.93027
G1 X136.111 Y150.286 E10.96724
G1 X136.109 Y150.221 E10.96951
G1 X136.127 Y149.495 E10.99487
G1 X136.224 Y148.775 E11.02024
G1 X136.4 Y148.07 E11.04562
G1 X136.554 Y147.628 E11.06196
G1 X137.255 Y145.824 E11.12955
G1 X137.555 Y145.162 E11.15494
G1 X137.926 Y144.537 E11.18032
G1 X138.162 Y144.223 E11.19404
G0 F1080 X138.363 Y143.957
G0 X138.676 Y143.611
G0 F6000 X138.966 Y143.887
G1 F1200 X139.479 Y143.404 E11.21864
G1 X140.043 Y142.983 E11.24322
G1 X140.651 Y142.629 E11.26779
G1 X140.972 Y142.477 E11.2802
G1 X142.759 Y141.693 E11.34835
G1 X143.419 Y141.448 E11.37293
G1 X144.102 Y141.278 E11.39751
G1 X145.059 Y141.174 E11.43113
G1 X145.124 Y141.172 E11.4334
G1 X145.828 Y141.19 E11.458
G1 X146.525 Y141.288 E11.48258
G1 X147.207 Y141.465 E11.50718
G1 X147.6 Y141.606 E11.52176
G1 X147.624 Y141.615 E11.52266
G1 X149.379 Y142.299 E11.58844
G1 X150.003 Y142.584 E11.6124
G1 X150.203 Y142.475 E11.62035
G1 X150.623 Y142.293 E11.63634
G1 X152.429 Y141.591 E11.70401
G1 X153.098 Y141.374 E11.72857
G1 X153.788 Y141.234 E11.75316
G1 X154.49 Y141.173 E11.77776
G1 X154.925 Y141.175 E11.79296
G1 X155.627 Y141.235 E11.81756
G1 X156.317 Y141.375 E11.84215
G1 X157.212 Y141.685 E11.87523
G1 X159.002 Y142.462 E11.94338
G1 X159.631 Y142.778 E11.96796
G1 X160.219 Y143.164 E11.99252
G1 X160.986 Y143.835 E12.02811
G1 X161.048 Y143.899 E12.03122
G1 X161.508 Y144.432 E12.05581
G1 X161.905 Y145.013 E12.08039
G1 X162.234 Y145.636 E12.10499
G1 X162.372 Y145.961 E12.11732
G1 X163.071 Y147.754 E12.18453
G1 X163.289 Y148.423 E12.2091
G1 X163.429 Y149.113 E12.23369
G1 X163.494 Y150.079 E12.2675
G1 X163.493 Y150.164 E12.27047
G1 X163.444 Y150.866 E12.29505
G1 X163.317 Y151.559 E12.31965
G1 X163.112 Y152.232 E12.34422
G1 X162.97 Y152.583 E12.35744
G1 X162.19 Y154.36 E12.42522
G1 X161.871 Y154.987 E12.44979
G1 X161.483 Y155.575 E12.47439
G1 X160.794 Y156.353 E12.51068
G1 X160.728 Y156.416 E12.51387
G1 X160.192 Y156.872 E12.53844
G1 X159.608 Y157.265 E12.56303
G1 X158.706 Y157.705 E12.59808
G1 X156.919 Y158.404 E12.66509
G1 X156.249 Y158.623 E12.6897
G1 X155.56 Y158.764 E12.71427
G1 X154.594 Y158.83 E12.74808
G1 X154.5 Y158.829 E12.75136
G1 X153.798 Y158.781 E12.77594
G1 X153.105 Y158.654 E12.80054
G1 X152.432 Y158.45 E12.8251
G1 X152.071 Y158.305 E12.83869
G1 X150.301 Y157.527 E12.90621
G1 X149.994 Y157.371 E12.91823
G1 X149.698 Y157.527 E12.92992
G1 X147.927 Y158.305 E12.99747
G1 X147.267 Y158.552 E13.02208
G1 X146.584 Y158.721 E13.04666
G1 X145.886 Y158.812 E13.07124
G1 X145.419 Y158.83 E13.08756
G1 X144.716 Y158.798 E13.11214
G1 X144.021 Y158.686 E13.13672
G1 X143.096 Y158.407 E13.17046
G1 X141.292 Y157.704 E13.23808
G1 X140.651 Y157.411 E13.26269
G1 X140.048 Y157.048 E13.28727
G1 X139.49 Y156.619 E13.31185
G1 X139.026 Y156.175 E13.33428
G1 X138.567 Y155.642 E13.35884
G1 X138.171 Y155.059 E13.38346
G1 X137.806 Y154.35 E13.41131
G1 X137.026 Y152.563 E13.4794
G1 X136.781 Y151.903 E13.50399
G1 X136.613 Y151.219 E13.52858
G1 X136.509 Y150.209 E13.56404
G1 X136.527 Y149.505 E13.58864
G1 X136.625 Y148.808 E13.61322
G1 X136.802 Y148.126 E13.63782
G1 X136.927 Y147.772 E13.65093
G1 X137.628 Y145.968 E13.71853
G1 X137.92 Y145.328 E13.74309
G1 X138.282 Y144.724 E13.76768
G1 X138.459 Y144.505 E13.77752
G0 F1080 X138.91 Y143.946
G0 X138.966 Y143.887
G0 F6000 X139.256 Y144.162
G1 F1200 X139.753 Y143.697 E13.80129
G1 X140.301 Y143.293 E13.82506
G1 X141.133 Y142.844 E13.85808
G1 X142.92 Y142.06 E13.92623
G1 X143.558 Y141.823 E13.95
G1 X144.22 Y141.663 E13.97378
G1 X145.137 Y141.572 E14.00597
G1 X145.817 Y141.591 E14.02972
G1 X146.491 Y141.689 E14.05351
G1 X147.453 Y141.977 E14.08858
G1 X147.511 Y142 E14.09076
G1 X149.234 Y142.672 E14.15534
G1 X149.853 Y142.956 E14.17913
G1 X149.995 Y143.043 E14.18494
G1 X150.435 Y142.807 E14.20238
G1 X150.768 Y142.666 E14.21501
G1 X152.574 Y141.964 E14.28268
G1 X153.222 Y141.755 E14.30646
G1 X153.89 Y141.623 E14.33024
G1 X154.846 Y141.573 E14.36367
G1 X154.914 Y141.575 E14.36604
G1 X155.592 Y141.634 E14.38981
