;FLAVOR:Marlin
M117 Time Left 0h14m21s
;Filament used: 0.28242m
;Layer height: 0.2
;MINX:137.181
;MINY:142.689
;MINZ:0.2
;MAXX:162.835
;MAXY:157.312
;MAXZ:12.6
;POSTPROCESSED
;Generated with Cura_SteamEngine 4.6.0
M140 S58
M105
M190 S58
M104 S195
M105
M109 S195
M82 ;absolute extrusion mode
M201 X500.00 Y500.00 Z100.00 E5000.00 ;Setup machine max acceleration
M203 X500.00 Y500.00 Z10.00 E50.00 ;Setup machine max feedrate
M204 P500.00 R1000.00 T500.00 ;Setup Print/Retract/Travel acceleration
M205 X8.00 Y8.00 Z0.40 E5.00 ;Setup Jerk
M220 S100 ;Reset Feedrate
M221 S100 ;Reset Flowrate

G28 ;Home

G92 E0 ;Reset Extruder
G1 Z2.0 F3000 ;Move Z Axis up
G1 X10.1 Y20 Z0.28 F5000.0 ;Move to start position
G1 X10.1 Y200.0 Z0.28 F1500.0 E15 ;Draw the first line
G1 X10.4 Y200.0 Z0.28 F5000.0 ;Move to side a little
G1 X10.4 Y20 Z0.28 F1500.0 E30 ;Draw the second line
G92 E0 ;Reset Extruder
G1 Z2.0 F3000 ;Move Z Axis up

G92 E0
G92 E0
G1 F1500 E-5.5
;LAYER_COUNT:63
;LAYER:0
M107
G0 F6000 X139.718 Y144.405 Z0.2
;TYPE:SKIRT
G1 F1500 E0
G1 F1200 X139.727 Y144.397 E0.00042
G1 X139.975 Y144.195 E0.01159
G1 X140.333 Y143.927 E0.02721
G1 X140.502 Y143.807 E0.03445
G1 X140.514 Y143.799 E0.03495
G1 X140.813 Y143.619 E0.04714
G1 X141.103 Y143.462 E0.05866
G1 X141.491 Y143.287 E0.07352
G1 X141.566 Y143.246 E0.07651
G1 X141.935 Y143.099 E0.09038
G1 X142.239 Y142.996 E0.10159
G1 X142.758 Y142.86 E0.12032
G1 X143.201 Y142.777 E0.13606
G1 X143.61 Y142.723 E0.15047
G1 X143.733 Y142.715 E0.15478
G1 X144.195 Y142.693 E0.17093
G1 X144.672 Y142.701 E0.18759
G1 X145.107 Y142.735 E0.20283
G1 X145.436 Y142.775 E0.2144
G1 X145.56 Y142.797 E0.2188
G1 X146.175 Y142.923 E0.24072
G1 X146.187 Y142.926 E0.24116
G1 X146.448 Y143.002 E0.25065
G1 X146.857 Y143.136 E0.26568
G1 X147.266 Y143.297 E0.28103
G1 X147.333 Y143.328 E0.28361
G1 X147.718 Y143.513 E0.29853
G1 X148.164 Y143.766 E0.31643
G1 X148.526 Y144.003 E0.33154
G1 X148.819 Y144.215 E0.34417
G1 X148.945 Y144.319 E0.34988
G1 X149.321 Y144.646 E0.36728
G1 X149.331 Y144.655 E0.36775
G1 X149.643 Y144.971 E0.38326
G1 X149.941 Y145.31 E0.39902
G1 X149.965 Y145.341 E0.40039
G1 X150.208 Y145.045 E0.41377
G1 X150.216 Y145.036 E0.41419
G1 X150.399 Y144.845 E0.42342
G1 X150.854 Y144.405 E0.44553
G1 X150.863 Y144.397 E0.44595
G1 X151.111 Y144.195 E0.45712
G1 X151.469 Y143.927 E0.47274
G1 X151.754 Y143.733 E0.48478
G1 X151.767 Y143.725 E0.48531
G1 X151.94 Y143.625 E0.49229
G1 X152.228 Y143.468 E0.50374
G1 X152.632 Y143.284 E0.51925
G1 X152.702 Y143.246 E0.52203
G1 X153.074 Y143.098 E0.53601
G1 X153.379 Y142.995 E0.54725
G1 X153.894 Y142.86 E0.56585
G1 X154.336 Y142.777 E0.58155
G1 X154.746 Y142.723 E0.59599
G1 X155.501 Y142.689 E0.62239
G1 X155.512 Y142.689 E0.62277
G1 X155.808 Y142.701 E0.63312
G1 X156.243 Y142.735 E0.64836
G1 X156.572 Y142.775 E0.65993
G1 X156.696 Y142.797 E0.66433
G1 X157.311 Y142.923 E0.68625
G1 X157.323 Y142.926 E0.68668
G1 X157.584 Y143.002 E0.69618
G1 X157.993 Y143.136 E0.71121
G1 X158.402 Y143.297 E0.72656
G1 X158.469 Y143.328 E0.72914
G1 X158.854 Y143.513 E0.74405
G1 X159.298 Y143.764 E0.76187
G1 X159.759 Y144.068 E0.78115
G1 X159.769 Y144.075 E0.78158
G1 X160.076 Y144.314 E0.79516
G1 X160.402 Y144.596 E0.81022
G1 X160.603 Y144.783 E0.81981
G1 X160.613 Y144.793 E0.8203
G1 X160.78 Y144.971 E0.82882
G1 X161.078 Y145.31 E0.84459
G1 X161.345 Y145.651 E0.85971
G1 X161.602 Y146.021 E0.87544
G1 X161.828 Y146.433 E0.89186
G1 X161.845 Y146.424 E0.89253
G1 X162.095 Y146.899 E0.91127
G1 X162.1 Y146.909 E0.91166
G1 X162.249 Y147.248 E0.9246
G1 X162.408 Y147.663 E0.94012
G1 X162.54 Y148.076 E0.95526
G1 X162.656 Y148.527 E0.97152
G1 X162.653 Y148.528 E0.97163
G1 X162.75 Y149.016 E0.98901
G1 X162.823 Y149.636 E1.01081
G1 X162.824 Y149.649 E1.01126
G1 X162.835 Y149.976 E1.02269
G1 X162.831 Y150.403 E1.0376
G1 X162.82 Y150.658 E1.04652
G1 X162.819 Y150.671 E1.04697
G1 X162.787 Y150.953 E1.05688
G1 X162.721 Y151.386 E1.07218
G1 X162.651 Y151.735 E1.08461
G1 X162.605 Y151.904 E1.09073
G1 X162.48 Y152.326 E1.1061
G1 X162.296 Y152.809 E1.12415
G1 X162.299 Y152.81 E1.12426
G1 X162.125 Y153.2 E1.13917
G1 X162.109 Y153.235 E1.14052
G1 X161.899 Y153.634 E1.15626
G1 X161.666 Y154.018 E1.17195
G1 X161.457 Y154.327 E1.18498
G1 X161.373 Y154.436 E1.18978
G1 X161.07 Y154.814 E1.2067
G1 X160.766 Y155.15 E1.22253
G1 X160.457 Y155.453 E1.23764
G1 X160.17 Y155.707 E1.25102
G1 X160.048 Y155.802 E1.25642
G1 X159.702 Y156.06 E1.2715
G1 X159.422 Y156.25 E1.28331
G1 X159.409 Y156.258 E1.28385
G1 X159.236 Y156.358 E1.29083
G1 X158.97 Y156.503 E1.30141
G1 X158.569 Y156.685 E1.31679
G1 X158.473 Y156.738 E1.32061
G1 X158.137 Y156.874 E1.33327
G1 X157.839 Y156.978 E1.3443
G1 X157.509 Y157.077 E1.35633
G1 X157.322 Y157.119 E1.36302
G1 X156.883 Y157.207 E1.37866
G1 X156.673 Y157.243 E1.3861
G1 X156.659 Y157.245 E1.38659
G1 X156.362 Y157.275 E1.39702
G1 X155.903 Y157.304 E1.41308
G1 X155.663 Y157.312 E1.42147
G1 X155.65 Y157.312 E1.42192
G1 X155.388 Y157.303 E1.43108
G1 X154.794 Y157.26 E1.45187
G1 X154.784 Y157.259 E1.45222
G1 X154.451 Y157.211 E1.46397
G1 X154.036 Y157.132 E1.47873
G1 X153.747 Y157.065 E1.48909
G1 X153.598 Y157.022 E1.4945
G1 X153.168 Y156.887 E1.51024
G1 X152.679 Y156.695 E1.52859
G1 X152.279 Y156.507 E1.54403
G1 X151.855 Y156.274 E1.56092
G1 X151.441 Y156.003 E1.5782
G1 X151.442 Y156.002 E1.57825
G1 X150.999 Y155.668 E1.59763
G1 X150.673 Y155.381 E1.61279
G1 X150.497 Y155.216 E1.62122
G1 X150.487 Y155.206 E1.62171
G1 X150.293 Y154.997 E1.63167
G1 X150.033 Y154.695 E1.64559
G1 X149.97 Y154.774 E1.64912
G1 X149.816 Y154.956 E1.65744
G1 X149.807 Y154.966 E1.65791
G1 X149.64 Y155.14 E1.66634
G1 X149.313 Y155.46 E1.68232
G1 X149.061 Y155.685 E1.69411
G1 X148.921 Y155.795 E1.70033
G1 X148.571 Y156.057 E1.7156
G1 X148.136 Y156.339 E1.7337
G1 X147.86 Y156.492 E1.74472
G1 X147.348 Y156.733 E1.76449
G1 X147.001 Y156.874 E1.77757
G1 X146.703 Y156.978 E1.78859
G1 X146.373 Y157.077 E1.80062
G1 X146.186 Y157.119 E1.80732
G1 X145.747 Y157.207 E1.82295
G1 X145.537 Y157.243 E1.83039
G1 X145.523 Y157.245 E1.83089
G1 X145.225 Y157.275 E1.84135
G1 X144.765 Y157.304 E1.85744
G1 X144.526 Y157.312 E1.86579
G1 X144.513 Y157.312 E1.86625
G1 X144.251 Y157.303 E1.8754
G1 X143.657 Y157.26 E1.8962
G1 X143.647 Y157.259 E1.89655
G1 X143.313 Y157.211 E1.90834
G1 X142.899 Y157.132 E1.92306
G1 X142.611 Y157.065 E1.93338
G1 X142.462 Y157.022 E1.9388
G1 X142.032 Y156.887 E1.95454
G1 X141.543 Y156.695 E1.97288
G1 X141.143 Y156.507 E1.98832
G1 X140.719 Y156.274 E2.00522
G1 X140.305 Y156.003 E2.0225
G1 X140.306 Y156.002 E2.02255
G1 X139.863 Y155.668 E2.04192
G1 X139.537 Y155.381 E2.05709
G1 X139.361 Y155.216 E2.06551
G1 X139.351 Y155.206 E2.06601
G1 X139.157 Y154.997 E2.07597
G1 X138.862 Y154.654 E2.09177
G1 X138.571 Y154.269 E2.10862
G1 X138.233 Y153.749 E2.13028
G1 X138.227 Y153.739 E2.13069
G1 X138.079 Y153.47 E2.14141
G1 X137.88 Y153.068 E2.15707
G1 X137.758 Y152.793 E2.16758
G1 X137.699 Y152.638 E2.17337
G1 X137.49 Y152.034 E2.19569
G1 X137.487 Y152.024 E2.19606
G1 X137.425 Y151.788 E2.20458
G1 X137.324 Y151.351 E2.22024
G1 X137.25 Y150.861 E2.23755
G1 X137.244 Y150.862 E2.23776
G1 X137.2 Y150.425 E2.2531
G1 X137.181 Y150.044 E2.26642
G1 X137.183 Y149.918 E2.27082
G1 X137.196 Y149.476 E2.28627
G1 X137.232 Y149.051 E2.30116
G1 X137.247 Y148.951 E2.30469
G1 X137.317 Y148.53 E2.3196
G1 X137.379 Y148.231 E2.33026
G1 X137.382 Y148.219 E2.33069
G1 X137.443 Y148.005 E2.33847
G1 X137.573 Y147.59 E2.35365
G1 X137.769 Y147.091 E2.37238
G1 X137.803 Y147.019 E2.37516
G1 X137.92 Y146.759 E2.38511
G1 X138.189 Y146.263 E2.40482
G1 X138.228 Y146.202 E2.40735
G1 X138.383 Y145.948 E2.41774
G1 X138.628 Y145.593 E2.4328
G1 X138.947 Y145.194 E2.45064
G1 X138.949 Y145.196 E2.45074
G1 X139.151 Y144.97 E2.46133
G0 F1080 X139.263 Y144.845
G0 X139.718 Y144.405
G0 F6000 X139.984 Y144.704
G1 F1200 X139.993 Y144.696 E2.46175
G1 X140.214 Y144.515 E2.47172
G1 X140.572 Y144.247 E2.48734
G1 X140.724 Y144.14 E2.49383
G1 X140.736 Y144.132 E2.49434
G1 X141.003 Y143.971 E2.50523
G1 X141.293 Y143.814 E2.51674
G1 X141.769 Y143.602 E2.53494
G1 X141.808 Y143.591 E2.53636
G1 X142.063 Y143.478 E2.5461
G1 X142.367 Y143.375 E2.55731
G1 X142.832 Y143.253 E2.57409
G1 X143.275 Y143.17 E2.58983
G1 X143.64 Y143.122 E2.60269
G1 X143.752 Y143.115 E2.60661
G1 X144.214 Y143.093 E2.62276
G1 X144.641 Y143.099 E2.63768
G1 X145.076 Y143.133 E2.65291
G1 X145.37 Y143.169 E2.66326
G1 X146.078 Y143.312 E2.68848
G1 X146.09 Y143.315 E2.68892
G1 X146.324 Y143.382 E2.69742
G1 X146.733 Y143.516 E2.71245
G1 X147.099 Y143.66 E2.72618
G1 X147.16 Y143.688 E2.72853
G1 X147.545 Y143.873 E2.74344
G1 X147.945 Y144.1 E2.75951
G1 X148.307 Y144.337 E2.77462
G1 X148.569 Y144.527 E2.78592
G1 X148.683 Y144.621 E2.79108
G1 X149.053 Y144.944 E2.80823
G1 X149.063 Y144.953 E2.8087
G1 X149.343 Y145.235 E2.82258
G1 X149.641 Y145.574 E2.83834
G1 X149.879 Y145.879 E2.85185
G1 X149.964 Y146.001 E2.85705
G1 X150.013 Y145.927 E2.86015
G1 X150.117 Y145.791 E2.86612
G1 X150.507 Y145.311 E2.88772
G1 X150.515 Y145.302 E2.88814
G1 X150.678 Y145.131 E2.89639
G1 X151.12 Y144.704 E2.91786
G1 X151.129 Y144.696 E2.91828
G1 X151.35 Y144.515 E2.92825
G1 X151.708 Y144.247 E2.94387
G1 X151.964 Y144.073 E2.95468
G1 X151.977 Y144.065 E2.95521
G1 X152.132 Y143.976 E2.96146
G1 X152.42 Y143.819 E2.97291
G1 X152.895 Y143.605 E2.99111
G1 X152.944 Y143.591 E2.99288
G1 X153.202 Y143.477 E3.00274
G1 X153.507 Y143.374 E3.01398
G1 X153.968 Y143.253 E3.03062
G1 X154.41 Y143.17 E3.04633
G1 X154.776 Y143.122 E3.05922
G1 X154.884 Y143.115 E3.063
G1 X155.501 Y143.089 E3.08457
G1 X155.512 Y143.089 E3.08495
G1 X155.777 Y143.099 E3.09421
G1 X156.212 Y143.133 E3.10945
G1 X156.506 Y143.169 E3.11979
G1 X157.214 Y143.312 E3.14502
G1 X157.226 Y143.315 E3.14545
G1 X157.46 Y143.382 E3.15395
G1 X157.869 Y143.516 E3.16898
G1 X158.235 Y143.66 E3.18272
G1 X158.296 Y143.688 E3.18506
G1 X158.681 Y143.873 E3.19998
G1 X159.079 Y144.099 E3.21596
G1 X159.53 Y144.396 E3.23482
G1 X159.54 Y144.403 E3.23525
G1 X159.814 Y144.617 E3.24739
G1 X160.14 Y144.899 E3.26244
G1 X160.32 Y145.066 E3.27102
G1 X160.33 Y145.076 E3.27151
G1 X160.48 Y145.235 E3.27915
G1 X160.778 Y145.574 E3.29491
G1 X161.016 Y145.879 E3.30842
G1 X161.273 Y146.249 E3.32415
G1 X161.476 Y146.619 E3.33889
G1 X161.491 Y146.611 E3.33948
G1 X161.737 Y147.077 E3.35789
G1 X161.742 Y147.087 E3.35828
G1 X161.876 Y147.392 E3.36991
G1 X162.035 Y147.807 E3.38543
G1 X162.153 Y148.176 E3.39896
G1 X162.269 Y148.627 E3.41522
G1 X162.266 Y148.628 E3.41533
G1 X162.353 Y149.065 E3.4309
G1 X162.424 Y149.666 E3.45203
G1 X162.425 Y149.679 E3.45249
G1 X162.435 Y149.972 E3.46272
G1 X162.431 Y150.399 E3.47764
G1 X162.421 Y150.628 E3.48564
G1 X162.42 Y150.641 E3.4861
G1 X162.391 Y150.892 E3.49492
G1 X162.325 Y151.325 E3.51022
G1 X162.262 Y151.638 E3.52137
G1 X162.221 Y151.791 E3.5269
G1 X162.096 Y152.213 E3.54227
G1 X161.91 Y152.7 E3.56048
G1 X161.76 Y153.037 E3.57336
G1 X161.745 Y153.07 E3.57462
G1 X161.557 Y153.427 E3.58871
G1 X161.324 Y153.811 E3.6044
G1 X161.137 Y154.087 E3.61604
G1 X161.061 Y154.186 E3.6204
G1 X160.758 Y154.564 E3.63732
G1 X160.485 Y154.865 E3.65151
G1 X160.176 Y155.168 E3.66663
G1 X159.92 Y155.395 E3.67857
G1 X159.808 Y155.482 E3.68353
G1 X159.462 Y155.74 E3.6986
G1 X159.212 Y155.91 E3.70916
G1 X159.199 Y155.918 E3.70969
G1 X159.044 Y156.007 E3.71593
G1 X158.778 Y156.152 E3.72651
G1 X158.303 Y156.366 E3.74471
G1 X158.28 Y156.372 E3.74554
G1 X158.005 Y156.496 E3.75607
G1 X157.707 Y156.6 E3.7671
G1 X157.412 Y156.688 E3.77785
G1 X157.243 Y156.727 E3.7839
G1 X156.804 Y156.815 E3.79954
G1 X156.617 Y156.847 E3.80617
G1 X156.603 Y156.849 E3.80666
G1 X156.336 Y156.876 E3.81603
G1 X155.877 Y156.905 E3.83209
G1 X155.663 Y156.912 E3.83957
G1 X155.65 Y156.912 E3.84002
G1 X155.416 Y156.904 E3.8482
G1 X154.834 Y156.862 E3.86858
G1 X154.824 Y156.861 E3.86893
G1 X154.526 Y156.818 E3.87945
G1 X154.111 Y156.739 E3.8942
G1 X153.852 Y156.679 E3.90348
G1 X153.718 Y156.64 E3.90836
G1 X153.288 Y156.505 E3.9241
G1 X152.849 Y156.333 E3.94056
G1 X152.449 Y156.145 E3.956
G1 X152.02 Y155.904 E3.97318
G1 X151.685 Y155.685 E3.98716
G1 X151.671 Y155.676 E3.98774
G1 X151.263 Y155.368 E4.00559
G1 X150.937 Y155.081 E4.02076
G1 X150.78 Y154.933 E4.0283
G1 X150.77 Y154.923 E4.02879
G1 X150.596 Y154.736 E4.03771
G1 X150.301 Y154.393 E4.05351
G1 X150.041 Y154.048 E4.0686
G1 X150.023 Y154.058 E4.06932
G1 X149.938 Y154.169 E4.0742
G1 X149.656 Y154.525 E4.09006
G1 X149.518 Y154.688 E4.09752
G1 X149.509 Y154.698 E4.09799
G1 X149.36 Y154.854 E4.10552
G1 X149.033 Y155.174 E4.1215
G1 X148.808 Y155.375 E4.13204
G1 X148.682 Y155.475 E4.13766
G1 X148.332 Y155.737 E4.15292
G1 X147.942 Y155.989 E4.16914
G1 X147.666 Y156.142 E4.18016
G1 X147.193 Y156.359 E4.19833
G1 X147.139 Y156.374 E4.20029
G1 X146.869 Y156.496 E4.21064
G1 X146.571 Y156.6 E4.22166
G1 X146.276 Y156.688 E4.23241
G1 X146.107 Y156.727 E4.23847
G1 X145.668 Y156.815 E4.25411
G1 X145.481 Y156.847 E4.26073
G1 X145.467 Y156.849 E4.26123
G1 X145.2 Y156.876 E4.2706
G1 X144.74 Y156.905 E4.28669
G1 X144.526 Y156.912 E4.29417
G1 X144.513 Y156.912 E4.29463
G1 X144.279 Y156.904 E4.3028
G1 X143.697 Y156.862 E4.32318
G1 X143.687 Y156.861 E4.32353
G1 X143.388 Y156.818 E4.33408
G1 X142.974 Y156.739 E4.3488
G1 X142.716 Y156.679 E4.35805
G1 X142.582 Y156.64 E4.36292
G1 X142.152 Y156.505 E4.37866
G1 X141.713 Y156.333 E4.39513
G1 X141.313 Y156.145 E4.41056
G1 X140.884 Y155.904 E4.42775
G1 X140.549 Y155.685 E4.44173
G1 X140.535 Y155.676 E4.44231
G1 X140.127 Y155.368 E4.46016
G1 X139.801 Y155.081 E4.47533
G1 X139.644 Y154.933 E4.48286
G1 X139.634 Y154.923 E4.48336
G1 X139.46 Y154.736 E4.49228
G1 X139.165 Y154.393 E4.50808
G1 X138.905 Y154.048 E4.52316
G1 X138.576 Y153.543 E4.54421
G1 X138.57 Y153.533 E4.54462
G1 X138.438 Y153.292 E4.55422
G1 X138.239 Y152.89 E4.56988
G1 X138.129 Y152.645 E4.57926
G1 X138.076 Y152.505 E4.58449
G1 X137.873 Y151.919 E4.60615
G1 X137.87 Y151.909 E4.60651
G1 X137.814 Y151.698 E4.61414
G1 X137.713 Y151.261 E4.6298
G1 X137.648 Y150.821 E4.64533
G1 X137.642 Y150.822 E4.64554
G1 X137.598 Y150.385 E4.66088
G1 X137.581 Y150.044 E4.67281
G1 X137.582 Y149.93 E4.67679
G1 X137.595 Y149.488 E4.69223
G1 X137.628 Y149.107 E4.70559
G1 X137.642 Y149.016 E4.7088
G1 X137.712 Y148.595 E4.72371
G1 X137.768 Y148.328 E4.73323
G1 X137.771 Y148.316 E4.73367
G1 X137.824 Y148.125 E4.74059
G1 X137.954 Y147.71 E4.75578
G1 X138.13 Y147.263 E4.77255
G1 X138.285 Y146.923 E4.7856
G1 X138.525 Y146.479 E4.80323
G1 X138.593 Y146.373 E4.80763
G1 X138.725 Y146.156 E4.8165
G1 X138.982 Y145.791 E4.83209
G1 X139.26 Y145.444 E4.84761
G1 X139.262 Y145.445 E4.84769
G1 X139.418 Y145.27 E4.85588
G0 F1080 X139.542 Y145.131
G0 X139.984 Y144.704
G0 F6000 X140.25 Y145.003
G1 F1200 X140.259 Y144.995 E4.8563
G1 X140.454 Y144.835 E4.86511
G1 X140.812 Y144.567 E4.88073
G1 X140.946 Y144.473 E4.88644
G1 X140.958 Y144.465 E4.88695
G1 X141.194 Y144.323 E4.89657
G1 X141.484 Y144.166 E4.90808
G1 X141.819 Y144.019 E4.92086
G1 X141.902 Y143.972 E4.92419
G1 X142.191 Y143.857 E4.93505
G1 X142.495 Y143.754 E4.94626
G1 X142.906 Y143.646 E4.9611
G1 X143.349 Y143.563 E4.97684
G1 X143.671 Y143.521 E4.98818
G1 X143.771 Y143.514 E4.99168
G1 X144.233 Y143.492 E5.00784
G1 X144.61 Y143.498 E5.021
G1 X145.045 Y143.532 E5.03624
G1 X145.304 Y143.564 E5.04536
G1 X145.405 Y143.582 E5.04894
G1 X145.981 Y143.7 E5.06947
G1 X145.993 Y143.703 E5.0699
G1 X146.199 Y143.762 E5.07739
G1 X146.608 Y143.896 E5.09242
G1 X146.986 Y144.049 E5.10666
G1 X147.371 Y144.234 E5.12158
G1 X147.726 Y144.435 E5.13582
G1 X148.088 Y144.672 E5.15093
G1 X148.319 Y144.839 E5.16089
G1 X148.421 Y144.924 E5.16553
G1 X148.786 Y145.241 E5.18241
G1 X148.796 Y145.25 E5.18288
G1 X149.042 Y145.499 E5.1951
G1 X149.34 Y145.838 E5.21087
G1 X149.551 Y146.108 E5.22283
G1 X149.808 Y146.478 E5.23857
G1 X149.961 Y146.757 E5.24968
G1 X149.968 Y146.744 E5.25019
G1 X150.209 Y146.353 E5.26623
G1 X150.337 Y146.162 E5.27426
G1 X150.429 Y146.041 E5.27957
G1 X150.806 Y145.577 E5.30045
G1 X150.814 Y145.568 E5.30087
G1 X150.958 Y145.417 E5.30816
G1 X151.386 Y145.003 E5.32895
G1 X151.395 Y144.995 E5.32937
