;FLAVOR:Marlin
M117 Time Left 1h07m58s
;Filament used: 1.94791m
;Layer height: 0.2
;MINX:117.12
;MINY:134.376
;MINZ:0.2
;MAXX:181.542
;MAXY:165.624
;MAXZ:38.4
;POSTPROCESSED
;Generated with Cura_SteamEngine 4.6.0
M140 S58
M105
M190 S58
M104 S195
M105
M109 S195
M82 ;absolute extrusion mode
M201 X500.00 Y500.00 Z100.00 E5000.00 ;Setup machine max acceleration
M203 X500.00 Y500.00 Z10.00 E50.00 ;Setup machine max feedrate
M204 P500.00 R1000.00 T500.00 ;Setup Print/Retract/Travel acceleration
M205 X8.00 Y8.00 Z0.40 E5.00 ;Setup Jerk
M220 S100 ;Reset Feedrate
M221 S100 ;Reset Flowrate

G28 ;Home

G92 E0 ;Reset Extruder
G1 Z2.0 F3000 ;Move Z Axis up
G1 X10.1 Y20 Z0.28 F5000.0 ;Move to start position
G1 X10.1 Y200.0 Z0.28 F1500.0 E15 ;Draw the first line
G1 X10.4 Y200.0 Z0.28 F5000.0 ;Move to side a little
G1 X10.4 Y20 Z0.28 F1500.0 E30 ;Draw the second line
G92 E0 ;Reset Extruder
G1 Z2.0 F3000 ;Move Z Axis up

G92 E0
G92 E0
G1 F1500 E-5.5
;LAYER_COUNT:194
;LAYER:0
M107
G0 F6000 X120.107 Y137.952 Z0.2
;TYPE:SKIRT
G1 F1500 E0
G1 F1200 X120.269 Y137.817 E0.00736
G1 X120.9 Y137.343 E0.03493
G1 X121.576 Y136.935 E0.0625
G1 X122.29 Y136.597 E0.09009
G1 X122.679 Y136.449 E0.10462
G1 X123.044 Y136.321 E0.11813
G1 X123.698 Y136.009 E0.14344
G1 X124.441 Y135.744 E0.17099
G1 X125.208 Y135.555 E0.19857
G1 X125.99 Y135.444 E0.22616
G1 X126.697 Y135.413 E0.25087
G1 X128.944 Y135.415 E0.32934
G1 X129.212 Y135.258 E0.34019
G1 X129.93 Y134.929 E0.36777
G1 X130.678 Y134.674 E0.39537
G1 X131.447 Y134.497 E0.42293
G1 X132.231 Y134.398 E0.45053
G1 X132.815 Y134.376 E0.47094
G1 X136.26 Y134.376 E0.59125
G1 X137.049 Y134.416 E0.61884
G1 X137.829 Y134.535 E0.64639
G1 X138.594 Y134.733 E0.67399
G1 X139.334 Y135.007 E0.70155
G1 X139.618 Y135.146 E0.71259
G1 X139.806 Y135.146 E0.71915
G1 X141.25 Y135.129 E0.76959
G1 X141.299 Y135.131 E0.7713
G1 X141.749 Y135.127 E0.78702
G1 X141.941 Y135.135 E0.79373
G1 X142.61 Y135.13 E0.81709
G1 X143.243 Y135.151 E0.83921
G1 X143.541 Y135.173 E0.84964
G1 X144.018 Y135.238 E0.86646
G1 X144.149 Y135.211 E0.87113
G1 X144.935 Y135.131 E0.89872
G1 X145.346 Y135.121 E0.91308
G1 X145.839 Y135.122 E0.93029
G1 X153.683 Y135.12 E1.20423
G1 X158.734 Y135.121 E1.38063
G1 X158.774 Y135.118 E1.38203
G1 X159.136 Y135.118 E1.39467
G1 X159.925 Y135.158 E1.42226
G1 X160.705 Y135.277 E1.44982
G1 X161.47 Y135.475 E1.47741
G1 X161.621 Y135.531 E1.48304
G1 X162.217 Y135.455 E1.50402
G1 X162.807 Y135.433 E1.52464
G1 X163.102 Y135.433 E1.53494
G1 X163.427 Y135.424 E1.5463
G1 X166.09 Y135.452 E1.6393
G1 X166.878 Y135.501 E1.66687
G1 X167.658 Y135.628 E1.69447
G1 X168.357 Y135.817 E1.71976
G1 X170.108 Y135.812 E1.78091
G1 X173.281 Y135.812 E1.89172
G1 X174.07 Y135.852 E1.91931
G1 X174.85 Y135.971 E1.94687
G1 X175.615 Y136.169 E1.97446
G1 X176.355 Y136.443 E2.00202
G1 X177.064 Y136.791 E2.0296
G1 X177.759 Y137.225 E2.05822
G1 X178.224 Y137.551 E2.07805
G1 X178.846 Y138.037 E2.10562
G1 X179.417 Y138.583 E2.13321
G1 X179.929 Y139.183 E2.16075
G1 X180.378 Y139.833 E2.18834
G1 X180.76 Y140.525 E2.21595
G1 X181.069 Y141.251 E2.2435
G1 X181.303 Y142.006 E2.27111
G1 X181.459 Y142.78 E2.29868
G1 X181.537 Y143.565 E2.32623
G1 X181.542 Y144.202 E2.34848
G1 X181.536 Y144.379 E2.35466
G1 X181.469 Y145.166 E2.38225
G1 X181.323 Y145.942 E2.40982
G1 X181.099 Y146.7 E2.43743
G1 X180.8 Y147.43 E2.46498
G1 X180.429 Y148.127 E2.49255
G1 X179.989 Y148.783 E2.52014
G1 X179.485 Y149.391 E2.54772
G1 X178.922 Y149.945 E2.5753
G1 X178.306 Y150.439 E2.60288
G1 X177.643 Y150.868 E2.63046
G1 X176.94 Y151.228 E2.65804
G1 X176.205 Y151.515 E2.68559
G1 X175.444 Y151.727 E2.71318
G1 X174.665 Y151.86 E2.74078
G1 X174.142 Y151.905 E2.75911
G1 X173.353 Y151.917 E2.78667
G1 X172.797 Y151.869 E2.80616
G1 X172.322 Y151.887 E2.82276
G1 X172.282 Y151.884 E2.82416
G1 X172.233 Y151.904 E2.82601
G1 X171.474 Y152.122 E2.85359
G1 X171.129 Y152.185 E2.86584
G1 X170.828 Y152.485 E2.88068
G1 X170.216 Y152.984 E2.90825
G1 X169.557 Y153.419 E2.93583
G1 X168.857 Y153.785 E2.96342
G1 X168.385 Y153.983 E2.98129
G1 X167.637 Y154.236 E3.00887
G1 X166.867 Y154.412 E3.03645
G1 X166.349 Y154.486 E3.05473
G1 X165.397 Y154.544 E3.08804
G1 X162.386 Y154.544 E3.19319
G1 X162.387 Y157.596 E3.29977
G1 X162.347 Y158.385 E3.32736
G1 X162.228 Y159.166 E3.35495
G1 X162.03 Y159.93 E3.38252
G1 X161.756 Y160.671 E3.41011
G1 X161.409 Y161.38 E3.43767
G1 X160.991 Y162.05 E3.46525
G1 X160.632 Y162.527 E3.4861
G1 X160.495 Y162.695 E3.49367
G1 X159.965 Y163.281 E3.52127
G1 X159.38 Y163.811 E3.54883
G1 X158.743 Y164.278 E3.57642
G1 X158.063 Y164.679 E3.60399
G1 X157.223 Y165.057 E3.63616
G1 X156.474 Y165.307 E3.66373
G1 X155.704 Y165.48 E3.69129
G1 X154.92 Y165.574 E3.71887
G1 X154.385 Y165.593 E3.73756
G1 X152.472 Y165.594 E3.80437
G1 X152.254 Y165.583 E3.812
G1 X151.953 Y165.614 E3.82256
G1 X151.544 Y165.624 E3.83685
G1 X150.497 Y165.623 E3.87342
G1 X150.062 Y165.603 E3.88862
G1 X149.986 Y165.608 E3.89128
G1 X149.455 Y165.623 E3.90983
G1 X148.401 Y165.617 E3.94664
G1 X147.798 Y165.583 E3.96774
G1 X147.528 Y165.593 E3.97717
G1 X145.606 Y165.593 E4.04429
G1 X144.817 Y165.553 E4.07188
G1 X144.037 Y165.434 E4.09944
G1 X143.272 Y165.236 E4.12704
G1 X142.532 Y164.962 E4.15459
G1 X141.823 Y164.614 E4.18218
G1 X141.195 Y164.226 E4.20796
G1 X141.02 Y164.106 E4.21537
G1 X140.392 Y163.627 E4.24295
G1 X139.816 Y163.087 E4.27052
G1 X139.297 Y162.491 E4.29812
G1 X138.841 Y161.846 E4.32571
G1 X138.296 Y160.824 E4.36616
G1 X138.262 Y160.747 E4.3691
G1 X137.98 Y160.009 E4.39669
G1 X137.774 Y159.247 E4.42426
G1 X137.646 Y158.467 E4.45186
G1 X137.597 Y157.59 E4.48253
G1 X137.599 Y154.544 E4.58891
G1 X135.096 Y154.544 E4.67632
G1 X135.068 Y154.543 E4.6773
G1 X134.644 Y154.543 E4.69211
G1 X133.855 Y154.503 E4.7197
G1 X132.868 Y154.338 E4.75465
G1 X132.637 Y154.284 E4.76293
G1 X131.879 Y154.066 E4.79048
G1 X131.146 Y153.772 E4.81806
G1 X130.446 Y153.405 E4.84566
G1 X129.788 Y152.97 E4.87321
G1 X129.189 Y152.48 E4.90023
G1 X128.937 Y152.464 E4.90905
G1 X128.703 Y152.434 E4.91729
G1 X127.926 Y152.294 E4.94486
G1 X127.233 Y152.095 E4.97004
G1 X126.555 Y152.095 E4.99372
G1 X126.204 Y152.14 E5.00608
G1 X125.515 Y152.193 E5.03021
G1 X124.726 Y152.214 E5.05778
G1 X123.938 Y152.154 E5.08537
G1 X123.161 Y152.016 E5.11293
G1 X122.402 Y151.799 E5.1405
G1 X121.668 Y151.507 E5.16809
G1 X120.968 Y151.142 E5.19566
G1 X120.308 Y150.708 E5.22325
G1 X119.695 Y150.21 E5.25083
G1 X119.136 Y149.652 E5.27841
G1 X118.636 Y149.041 E5.30598
G1 X118.201 Y148.382 E5.33356
G1 X117.834 Y147.683 E5.36113
G1 X117.54 Y146.95 E5.38871
G1 X117.322 Y146.191 E5.41629
G1 X117.181 Y145.414 E5.44387
G1 X117.12 Y144.627 E5.47144
G1 X117.139 Y143.837 E5.49903
G1 X117.237 Y143.054 E5.52659
G1 X117.414 Y142.284 E5.55418
G1 X117.668 Y141.536 E5.58177
G1 X117.76 Y141.335 E5.58949
G1 X117.886 Y140.978 E5.60271
G1 X118.223 Y140.264 E5.63029
G1 X118.63 Y139.587 E5.65787
G1 X119.104 Y138.955 E5.68546
G1 X119.524 Y138.499 E5.70711
G0 F1080 X119.639 Y138.375
G0 X120.107 Y137.952
G0 F6000 X120.363 Y138.259
G1 F1200 X120.525 Y138.124 E5.71448
G1 X121.14 Y137.663 E5.74132
G1 X121.801 Y137.269 E5.76819
G1 X122.811 Y136.827 E5.8067
G1 X123.186 Y136.696 E5.82057
G1 X123.869 Y136.371 E5.84698
G1 X124.595 Y136.115 E5.87387
G1 X125.343 Y135.936 E5.90073
G1 X126.105 Y135.836 E5.92757
G1 X126.696 Y135.813 E5.94822
G1 X129.052 Y135.815 E6.0305
G1 X129.45 Y135.585 E6.04655
G1 X130.153 Y135.271 E6.07344
G1 X130.884 Y135.032 E6.1003
G1 X131.636 Y134.871 E6.12716
G1 X132.4 Y134.788 E6.154
G1 X132.815 Y134.776 E6.1685
G1 X136.26 Y134.776 E6.28881
G1 X137.028 Y134.816 E6.31566
G1 X137.788 Y134.935 E6.34253
G1 X138.531 Y135.133 E6.36938
G1 X139.25 Y135.407 E6.39625
G1 X139.526 Y135.546 E6.40705
G1 X139.806 Y135.546 E6.41682
G1 X141.255 Y135.529 E6.46743
G1 X141.302 Y135.531 E6.46907
G1 X141.752 Y135.527 E6.48479
G1 X141.94 Y135.535 E6.49136
G1 X142.613 Y135.53 E6.51487
G1 X143.214 Y135.55 E6.53587
G1 X143.512 Y135.572 E6.5463
G1 X144.035 Y135.644 E6.56474
G1 X144.269 Y135.597 E6.57307
G1 X145.345 Y135.521 E6.61074
G1 X145.838 Y135.522 E6.62796
G1 X153.683 Y135.52 E6.90193
G1 X158.734 Y135.521 E7.07833
G1 X158.774 Y135.518 E7.07973
G1 X159.136 Y135.518 E7.09237
G1 X159.904 Y135.558 E7.11923
G1 X160.664 Y135.677 E7.1461
G1 X161.407 Y135.875 E7.17295
G1 X161.574 Y135.939 E7.1792
G1 X162.287 Y135.851 E7.20428
G1 X162.807 Y135.833 E7.22246
G1 X163.071 Y135.833 E7.23167
G1 X163.423 Y135.824 E7.24397
G1 X166.086 Y135.852 E7.33698
G1 X166.853 Y135.9 E7.36382
G1 X167.612 Y136.028 E7.3907
G1 X168.295 Y136.217 E7.41545
G1 X170.108 Y136.212 E7.47876
G1 X173.281 Y136.212 E7.58957
G1 X174.049 Y136.252 E7.61643
G1 X174.809 Y136.371 E7.64329
G1 X175.552 Y136.569 E7.67015
G1 X176.271 Y136.843 E7.69702
G1 X176.957 Y137.19 E7.72387
G1 X177.529 Y137.553 E7.74753
G1 X177.994 Y137.879 E7.76736
G1 X178.6 Y138.352 E7.79421
G1 X179.154 Y138.886 E7.82108
G1 X179.649 Y139.475 E7.84795
G1 X180.08 Y140.112 E7.87481
G1 X180.443 Y140.79 E7.90166
G1 X180.734 Y141.502 E7.92853
G1 X180.949 Y142.241 E7.95541
G1 X181.086 Y142.997 E7.98224
G1 X181.144 Y143.764 E8.0091
G1 X181.142 Y144.189 E8.02394
G1 X181.136 Y144.366 E8.03013
G1 X181.07 Y145.132 E8.05698
G1 X180.925 Y145.887 E8.08383
G1 X180.702 Y146.624 E8.11072
G1 X180.404 Y147.333 E8.13758
G1 X180.034 Y148.007 E8.16443
G1 X179.596 Y148.639 E8.19128
G1 X179.095 Y149.223 E8.21815
G1 X178.536 Y149.751 E8.24501
G1 X177.925 Y150.218 E8.27186
G1 X177.269 Y150.62 E8.29873
G1 X176.574 Y150.951 E8.32562
G1 X175.849 Y151.208 E8.35248
G1 X175.102 Y151.389 E8.37932
G1 X174.223 Y151.499 E8.41026
G1 X174.116 Y151.506 E8.414
G1 X173.347 Y151.516 E8.44086
G1 X172.818 Y151.468 E8.45941
G1 X172.307 Y151.487 E8.47727
G1 X172.215 Y151.479 E8.48049
G1 X172.046 Y151.545 E8.48683
G1 X171.305 Y151.75 E8.51368
G1 X170.937 Y151.812 E8.52671
G1 X170.53 Y152.215 E8.54672
G1 X169.931 Y152.697 E8.57357
G1 X169.285 Y153.114 E8.60042
G1 X168.319 Y153.579 E8.63786
G1 X168.238 Y153.611 E8.6409
G1 X167.509 Y153.856 E8.66776
G1 X166.422 Y154.074 E8.70648
G1 X166.3 Y154.089 E8.71077
G1 X165.397 Y154.144 E8.74236
G1 X161.986 Y154.144 E8.86149
G1 X161.987 Y157.596 E8.98204
G1 X161.947 Y158.364 E9.0089
G1 X161.828 Y159.124 E9.03576
G1 X161.63 Y159.868 E9.06265
G1 X161.357 Y160.586 E9.08948
G1 X161.01 Y161.273 E9.11636
G1 X160.594 Y161.92 E9.14322
G1 X160.322 Y162.275 E9.15884
G1 X160.185 Y162.443 E9.16641
G1 X159.668 Y163.013 E9.19328
G1 X159.096 Y163.526 E9.22012
G1 X158.473 Y163.977 E9.24698
G1 X157.806 Y164.361 E9.27385
G1 X157.078 Y164.684 E9.30167
G1 X156.348 Y164.927 E9.32854
G1 X155.597 Y165.092 E9.35539
G1 X154.832 Y165.179 E9.38228
G1 X154.385 Y165.193 E9.3979
G1 X152.472 Y165.194 E9.4647
G1 X152.261 Y165.183 E9.47208
G1 X151.544 Y165.224 E9.49716
G1 X150.497 Y165.223 E9.53373
G1 X150.054 Y165.203 E9.54922
G1 X149.961 Y165.209 E9.55247
G1 X149.457 Y165.223 E9.57008
G1 X148.403 Y165.217 E9.60689
G1 X147.834 Y165.184 E9.62679
G1 X147.528 Y165.193 E9.63748
G1 X145.606 Y165.193 E9.70461
G1 X144.838 Y165.153 E9.73146
G1 X144.078 Y165.034 E9.75833
G1 X143.335 Y164.836 E9.78518
G1 X142.616 Y164.562 E9.81205
G1 X141.93 Y164.215 E9.8389
G1 X141.421 Y163.896 E9.85988
G1 X141.246 Y163.776 E9.86729
G1 X140.635 Y163.309 E9.89415
G1 X140.076 Y162.78 E9.92102
G1 X139.575 Y162.197 E9.94787
G1 X139.137 Y161.565 E9.97472
G1 X138.662 Y160.662 E10.01036
G1 X138.628 Y160.585 E10.0133
G1 X138.354 Y159.866 E10.04017
G1 X138.156 Y159.123 E10.06702
G1 X138.037 Y158.363 E10.09388
G1 X137.997 Y157.59 E10.12092
G1 X138 Y154.144 E10.24126
G1 X135.096 Y154.144 E10.34268
G1 X135.068 Y154.143 E10.34366
G1 X134.644 Y154.143 E10.35846
G1 X133.876 Y154.103 E10.38532
G1 X132.96 Y153.949 E10.41776
G1 X132.729 Y153.895 E10.42604
G1 X131.99 Y153.681 E10.45291
G1 X131.277 Y153.392 E10.47978
G1 X130.598 Y153.03 E10.50665
G1 X129.961 Y152.6 E10.53349
G1 X129.371 Y152.106 E10.56037
G1 X129.363 Y152.098 E10.56076
G1 X128.988 Y152.067 E10.5739
G1 X128.754 Y152.037 E10.58214
G1 X127.997 Y151.9 E10.60901
G1 X127.297 Y151.695 E10.63448
G1 X126.561 Y151.695 E10.66018
G1 X126.174 Y151.741 E10.6738
G1 X125.485 Y151.794 E10.69793
G1 X124.716 Y151.813 E10.72479
G1 X123.949 Y151.752 E10.75166
G1 X123.193 Y151.612 E10.77851
G1 X122.455 Y151.394 E10.80539
G1 X121.744 Y151.101 E10.83224
G1 X121.067 Y150.736 E10.8591
G1 X120.432 Y150.302 E10.88597
G1 X119.845 Y149.805 E10.91283
G1 X119.313 Y149.249 E10.9397
G1 X118.842 Y148.641 E10.96656
G1 X118.436 Y147.988 E10.99341
G1 X118.1 Y147.296 E11.02028
G1 X117.838 Y146.573 E11.04713
G1 X117.653 Y145.826 E11.07401
G1 X117.545 Y145.065 E11.10085
G1 X117.518 Y144.296 E11.12772
G1 X117.57 Y143.529 E11.15457
G1 X117.702 Y142.771 E11.18144
G1 X117.912 Y142.031 E11.20831
G1 X118.139 Y141.462 E11.2297
G1 X118.271 Y141.093 E11.24339
G1 X118.604 Y140.4 E11.27024
G1 X119.007 Y139.744 E11.29712
G1 X119.476 Y139.135 E11.32397
G1 X119.784 Y138.81 E11.33961
G0 F1080 X120.005 Y138.577
G0 X120.363 Y138.259
G0 F6000 X120.619 Y138.566
G1 F1200 X120.781 Y138.431 E11.34697
G1 X121.38 Y137.984 E11.37307
G1 X122.024 Y137.603 E11.3992
G1 X122.943 Y137.204 E11.43419
G1 X123.347 Y137.062 E11.44915
G1 X123.364 Y137.053 E11.44982
G1 X124.041 Y136.733 E11.47597
G1 X124.747 Y136.488 E11.50207
G1 X125.476 Y136.319 E11.5282
G1 X126.219 Y136.229 E11.55434
G1 X126.696 Y136.213 E11.57101
G1 X129.156 Y136.215 E11.65692
G1 X129.687 Y135.914 E11.67824
G1 X130.373 Y135.616 E11.70436
G1 X131.087 Y135.393 E11.73048
G1 X131.821 Y135.247 E11.75661
G1 X132.815 Y135.176 E11.79142
G1 X136.26 Y135.176 E11.91173
G1 X137.007 Y135.216 E11.93785
G1 X137.745 Y135.335 E11.96396
G1 X138.467 Y135.533 E11.9901
G1 X139.163 Y135.806 E12.01621
G1 X139.432 Y135.947 E12.02682
G1 X139.734 Y135.946 E12.03737
G1 X141.756 Y135.927 E12.10798
G1 X141.934 Y135.935 E12.11421
G1 X142.616 Y135.93 E12.13802
G1 X143.184 Y135.949 E12.15787
G1 X143.482 Y135.971 E12.16831
G1 X144.053 Y136.049 E12.18843
G1 X144.387 Y135.985 E12.20031
G1 X145.344 Y135.921 E12.23381
G1 X145.837 Y135.922 E12.25102
G1 X153.683 Y135.92 E12.52503
G1 X158.734 Y135.921 E12.70143
G1 X158.774 Y135.918 E12.70283
G1 X159.136 Y135.918 E12.71547
G1 X159.883 Y135.958 E12.7416
G1 X160.621 Y136.077 E12.7677
G1 X161.343 Y136.275 E12.79385
G1 X161.541 Y136.352 E12.80127
G1 X161.613 Y136.336 E12.80384
G1 X162.356 Y136.248 E12.82997
G1 X162.807 Y136.233 E12.84573
G1 X163.022 Y136.233 E12.85324
G1 X163.419 Y136.224 E12.86711
G1 X166.082 Y136.252 E12.96011
G1 X166.828 Y136.3 E12.98622
G1 X167.565 Y136.427 E13.01234
G1 X168.229 Y136.617 E13.03646
G1 X170.108 Y136.612 E13.10208
G1 X173.281 Y136.612 E13.21289
G1 X174.028 Y136.652 E13.23901
G1 X174.766 Y136.771 E13.26512
G1 X175.488 Y136.969 E13.29126
G1 X176.184 Y137.242 E13.31737
G1 X176.847 Y137.589 E13.34351
G1 X177.299 Y137.88 E13.36228
G1 X177.764 Y138.206 E13.38211
G1 X178.353 Y138.668 E13.40826
G1 X178.889 Y139.19 E13.43439
G1 X179.367 Y139.766 E13.46053
G1 X179.78 Y140.389 E13.48663
G1 X180.124 Y141.053 E13.51275
G1 X180.395 Y141.75 E13.53886
G1 X180.591 Y142.472 E13.56499
G1 X180.708 Y143.211 E13.59112
G1 X180.742 Y144.175 E13.62481
G1 X180.736 Y144.352 E13.63099
G1 X180.671 Y145.097 E13.65711
G1 X180.526 Y145.831 E13.68324
G1 X180.304 Y146.546 E13.70938
G1 X180.008 Y147.232 E13.73547
G1 X179.639 Y147.883 E13.76161
G1 X179.203 Y148.491 E13.78774
G1 X178.705 Y149.049 E13.81386
G1 X178.15 Y149.551 E13.83999
G1 X177.545 Y149.991 E13.86612
G1 X176.896 Y150.363 E13.89224
G1 X176.211 Y150.664 E13.91837
G1 X175.498 Y150.891 E13.9445
G1 X174.765 Y151.04 E13.97062
G1 X174.09 Y151.107 E13.99431
G1 X173.342 Y151.116 E14.02044
G1 X172.916 Y151.064 E14.03543
G1 X172.293 Y151.087 E14.0572
G1 X172.149 Y151.074 E14.06225
G1 X171.86 Y151.185 E14.07306
G1 X171.138 Y151.377 E14.09915
G1 X170.749 Y151.437 E14.11289
G1 X170.233 Y151.944 E14.13816
G1 X169.647 Y152.409 E14.16428
G1 X169.014 Y152.808 E14.19041
G1 X168.172 Y153.207 E14.22295
G1 X168.091 Y153.239 E14.226
G1 X167.382 Y153.477 E14.25211
G1 X166.373 Y153.677 E14.28804
G1 X166.251 Y153.692 E14.29233
G1 X165.397 Y153.744 E14.32221
G1 X161.586 Y153.744 E14.4553
G1 X161.587 Y157.596 E14.58983
G1 X161.547 Y158.343 E14.61595
