;FLAVOR:Marlin
M117 Time Left 0h52m37s
;Filament used: 1.73565m
;Layer height: 0.2
;MINX:112.543
;MINY:112.55
;MINZ:0.2
;MAXX:187.45
;MAXY:187.45
;MAXZ:9.6
;POSTPROCESSED
;Generated with Cura_SteamEngine 4.6.0
M140 S58
M105
M190 S58
M104 S195
M105
M109 S195
M82 ;absolute extrusion mode
M201 X500.00 Y500.00 Z100.00 E5000.00 ;Setup machine max acceleration
M203 X500.00 Y500.00 Z10.00 E50.00 ;Setup machine max feedrate
M204 P500.00 R1000.00 T500.00 ;Setup Print/Retract/Travel acceleration
M205 X8.00 Y8.00 Z0.40 E5.00 ;Setup Jerk
M220 S100 ;Reset Feedrate
M221 S100 ;Reset Flowrate

G28 ;Home

G92 E0 ;Reset Extruder
G1 Z2.0 F3000 ;Move Z Axis up
G1 X10.1 Y20 Z0.28 F5000.0 ;Move to start position
G1 X10.1 Y200.0 Z0.28 F1500.0 E15 ;Draw the first line
G1 X10.4 Y200.0 Z0.28 F5000.0 ;Move to side a little
G1 X10.4 Y20 Z0.28 F1500.0 E30 ;Draw the second line
G92 E0 ;Reset Extruder
G1 Z2.0 F3000 ;Move Z Axis up

G92 E0
G92 E0
G1 F1500 E-5.5
;LAYER_COUNT:48
;LAYER:0
M107
G0 F6000 X150.932 Y113.383 Z0.2
;TYPE:SKIRT
G1 F1500 E0
G1 F1200 X151.491 Y113.431 E0.01959
G1 X151.619 Y113.443 E0.02408
G1 X155.633 Y113.84 E0.16495
G1 X156.281 Y113.913 E0.18772
G1 X157.383 Y114.099 E0.22675
G1 X158.033 Y114.263 E0.25016
G1 X158.724 Y114.464 E0.2753
G1 X162.537 Y115.621 E0.41445
G1 X163.219 Y115.838 E0.43945
G1 X164.347 Y116.272 E0.48166
G1 X164.369 Y116.282 E0.4825
G1 X164.832 Y116.507 E0.50048
G1 X165.517 Y116.862 E0.52742
G1 X169.02 Y118.737 E0.66618
G1 X169.628 Y119.073 E0.69044
G1 X170.183 Y119.412 E0.71315
G1 X170.197 Y119.414 E0.71364
G1 X170.266 Y119.463 E0.7166
G1 X170.398 Y119.544 E0.72201
G1 X170.814 Y119.84 E0.73984
G1 X170.823 Y119.861 E0.74064
G1 X171.085 Y120.048 E0.75188
G1 X171.701 Y120.541 E0.77943
G1 X174.782 Y123.07 E0.91864
G1 X175.269 Y123.482 E0.94091
G1 X175.944 Y124.108 E0.97306
G1 X176.517 Y124.73 E1.0026
G1 X177.015 Y125.32 E1.02956
G1 X179.523 Y128.378 E1.16768
G1 X179.968 Y128.936 E1.19261
G1 X180.665 Y129.926 E1.23489
G1 X180.96 Y130.426 E1.25516
G1 X181.286 Y131.02 E1.27883
G1 X183.191 Y134.585 E1.41999
G1 X183.508 Y135.201 E1.44418
G1 X183.746 Y135.696 E1.46336
G1 X183.759 Y135.725 E1.46447
G1 X184.174 Y136.816 E1.50524
G1 X184.405 Y137.545 E1.53194
G1 X185.545 Y141.307 E1.66923
G1 X185.75 Y142.02 E1.69513
G1 X186.041 Y143.37 E1.74336
G1 X186.095 Y143.779 E1.75777
G1 X186.169 Y144.446 E1.78121
G1 X186.565 Y148.472 E1.92249
G1 X186.62 Y149.125 E1.94537
G1 X186.651 Y150.32 E1.98712
G1 X186.617 Y150.932 E2.00853
G1 X186.557 Y151.619 E2.03261
G1 X186.16 Y155.633 E2.17347
G1 X186.087 Y156.281 E2.19625
G1 X185.908 Y157.352 E2.23417
G1 X185.737 Y158.034 E2.25872
G1 X185.536 Y158.725 E2.28386
G1 X184.379 Y162.537 E2.42298
G1 X184.163 Y163.216 E2.44786
G1 X183.715 Y164.374 E2.49123
G1 X183.704 Y164.398 E2.49215
G1 X183.493 Y164.832 E2.509
G1 X183.138 Y165.517 E2.53594
G1 X181.263 Y169.021 E2.67473
G1 X180.928 Y169.627 E2.69892
G1 X180.441 Y170.419 E2.73138
G1 X180.422 Y170.447 E2.73257
G1 X179.951 Y171.086 E2.76029
G1 X179.459 Y171.701 E2.78779
G1 X176.93 Y174.782 E2.927
G1 X176.517 Y175.27 E2.94933
G1 X175.892 Y175.944 E2.98143
G1 X175.27 Y176.517 E3.01096
G1 X174.68 Y177.015 E3.03792
G1 X171.627 Y179.518 E3.1758
G1 X171.061 Y179.97 E3.20109
G1 X170.331 Y180.502 E3.23264
G1 X169.823 Y180.818 E3.25353
G1 X169.574 Y180.96 E3.26354
G1 X168.98 Y181.286 E3.28721
G1 X165.415 Y183.191 E3.42837
G1 X164.799 Y183.508 E3.45256
G1 X164.304 Y183.746 E3.47174
G1 X164.275 Y183.759 E3.47285
G1 X163.184 Y184.174 E3.51362
G1 X162.455 Y184.405 E3.54032
G1 X158.699 Y185.543 E3.67738
G1 X157.984 Y185.749 E3.70337
G1 X157.106 Y185.961 E3.73491
G1 X156.532 Y186.055 E3.75523
G1 X156.221 Y186.095 E3.76618
G1 X155.554 Y186.169 E3.78961
G1 X151.528 Y186.565 E3.93089
G1 X150.876 Y186.62 E3.95374
G1 X149.68 Y186.651 E3.99552
G1 X149.07 Y186.617 E4.01686
G1 X148.38 Y186.557 E4.04105
G1 X144.367 Y186.16 E4.18188
G1 X143.719 Y186.087 E4.20465
G1 X142.617 Y185.901 E4.24368
G1 X141.967 Y185.737 E4.26709
G1 X141.276 Y185.536 E4.29223
G1 X137.463 Y184.379 E4.43138
G1 X136.781 Y184.162 E4.45638
G1 X135.653 Y183.728 E4.49859
G1 X135.631 Y183.718 E4.49943
G1 X135.168 Y183.493 E4.51741
G1 X134.483 Y183.138 E4.54435
G1 X130.98 Y181.263 E4.68311
G1 X130.372 Y180.927 E4.70737
G1 X129.436 Y180.342 E4.74592
G1 X129.409 Y180.323 E4.74707
G1 X128.915 Y179.952 E4.76865
G1 X128.299 Y179.459 E4.7962
G1 X125.218 Y176.93 E4.9354
G1 X124.731 Y176.518 E4.95768
G1 X124.056 Y175.892 E4.98983
G1 X123.483 Y175.27 E5.01937
G1 X122.985 Y174.68 E5.04633
G1 X120.479 Y171.624 E5.18435
G1 X120.025 Y171.055 E5.20977
G1 X119.493 Y170.324 E5.24134
G1 X119.156 Y169.777 E5.26378
G1 X119.04 Y169.574 E5.27195
G1 X118.715 Y168.981 E5.29556
G1 X116.806 Y165.409 E5.43701
G1 X116.49 Y164.794 E5.46115
G1 X116.266 Y164.33 E5.47915
G1 X116.252 Y164.299 E5.48033
G1 X115.823 Y163.177 E5.52229
G1 X115.595 Y162.455 E5.54873
G1 X114.457 Y158.699 E5.68579
G1 X114.251 Y157.984 E5.71177
G1 X114.039 Y157.106 E5.74332
G1 X113.945 Y156.532 E5.76363
G1 X113.905 Y156.221 E5.77458
G1 X113.831 Y155.554 E5.79802
G1 X113.434 Y151.521 E5.93954
G1 X113.378 Y150.851 E5.96302
G1 X113.343 Y149.948 E5.99458
G1 X113.359 Y149.432 E6.01261
G1 X113.383 Y149.068 E6.02535
G1 X113.443 Y148.381 E6.04943
G1 X113.841 Y144.363 E6.19044
G1 X113.917 Y143.691 E6.21406
G1 X114.058 Y142.799 E6.2456
G1 X114.217 Y142.132 E6.26954
G1 X114.263 Y141.967 E6.27553
G1 X114.464 Y141.276 E6.30066
G1 X115.62 Y137.467 E6.43967
G1 X115.837 Y136.784 E6.4647
G1 X116.148 Y135.937 E6.49621
G1 X116.349 Y135.488 E6.51339
G1 X116.359 Y135.467 E6.5142
G1 X116.507 Y135.168 E6.52585
G1 X116.862 Y134.483 E6.5528
G1 X118.737 Y130.98 E6.69156
G1 X119.078 Y130.363 E6.71618
G1 X119.549 Y129.593 E6.7477
G1 X119.903 Y129.101 E6.76887
G1 X120.049 Y128.914 E6.77715
G1 X120.541 Y128.299 E6.80466
G1 X123.071 Y125.217 E6.94391
G1 X123.484 Y124.729 E6.96624
G1 X124.181 Y123.984 E7.00186
G1 X124.73 Y123.484 E7.0278
G1 X125.32 Y122.986 E7.05476
G1 X128.376 Y120.48 E7.19278
G1 X128.945 Y120.026 E7.2182
G1 X129.676 Y119.494 E7.24978
G1 X130.059 Y119.253 E7.26558
G1 X130.099 Y119.229 E7.26721
G1 X130.426 Y119.04 E7.2804
G1 X131.02 Y118.714 E7.30406
G1 X134.585 Y116.809 E7.44522
G1 X135.201 Y116.492 E7.46942
G1 X135.696 Y116.254 E7.4886
G1 X135.725 Y116.241 E7.48971
G1 X136.816 Y115.826 E7.53047
G1 X137.545 Y115.595 E7.55718
G1 X141.301 Y114.457 E7.69424
G1 X142.016 Y114.251 E7.72023
G1 X142.894 Y114.039 E7.75177
G1 X143.468 Y113.945 E7.77208
G1 X143.779 Y113.905 E7.78303
G1 X144.446 Y113.831 E7.80647
G1 X148.472 Y113.435 E7.94775
G1 X149.124 Y113.38 E7.9706
G1 X150.132 Y113.353 E8.00581
G0 F1080 X150.32 Y113.349
G0 X150.932 Y113.383
G0 F6000 X150.966 Y112.985
G1 F1200 X151.525 Y113.033 E8.02541
G1 X151.658 Y113.045 E8.03007
G1 X155.678 Y113.443 E8.17115
G1 X156.326 Y113.516 E8.19392
G1 X157.468 Y113.708 E8.23436
G1 X158.144 Y113.879 E8.25872
G1 X158.84 Y114.081 E8.28403
G1 X162.658 Y115.24 E8.42337
G1 X163.34 Y115.457 E8.44836
G1 X164.512 Y115.908 E8.49222
G1 X164.534 Y115.918 E8.49306
G1 X165.016 Y116.152 E8.51178
G1 X165.706 Y116.51 E8.53892
G1 X169.213 Y118.386 E8.67782
G1 X169.821 Y118.722 E8.70208
G1 X170.398 Y119.074 E8.72568
G1 X170.412 Y119.076 E8.72618
G1 X170.479 Y119.124 E8.72906
G1 X170.607 Y119.202 E8.73429
G1 X171.054 Y119.52 E8.75345
G1 X171.063 Y119.541 E8.75425
G1 X171.335 Y119.735 E8.76592
G1 X171.955 Y120.232 E8.79367
G1 X175.04 Y122.764 E8.93304
G1 X175.527 Y123.176 E8.95532
G1 X176.227 Y123.825 E8.98866
G1 X176.823 Y124.471 E9.01935
G1 X177.325 Y125.066 E9.04654
G1 X179.835 Y128.129 E9.18484
G1 X180.28 Y128.687 E9.20976
G1 X181.004 Y129.713 E9.25362
G1 X181.31 Y130.233 E9.27469
G1 X181.638 Y130.831 E9.29851
G1 X183.546 Y134.402 E9.4399
G1 X183.863 Y135.018 E9.4641
G1 X184.111 Y135.532 E9.48403
G1 X184.124 Y135.561 E9.48514
G1 X184.556 Y136.695 E9.52752
G1 X184.787 Y137.428 E9.55436
G1 X185.929 Y141.196 E9.69186
G1 X186.134 Y141.909 E9.71777
G1 X186.436 Y143.309 E9.76778
G1 X186.493 Y143.735 E9.78279
G1 X186.567 Y144.407 E9.8064
G1 X186.964 Y148.438 E9.94786
G1 X187.019 Y149.091 E9.97075
G1 X187.051 Y150.331 E10.01407
G1 X187.015 Y150.966 E10.03628
G1 X186.955 Y151.658 E10.06053
G1 X186.557 Y155.678 E10.20161
G1 X186.484 Y156.326 E10.22439
G1 X186.299 Y157.436 E10.26368
G1 X186.121 Y158.145 E10.28921
G1 X185.919 Y158.841 E10.31452
G1 X184.76 Y162.658 E10.45383
G1 X184.544 Y163.337 E10.47872
G1 X184.079 Y164.541 E10.52379
G1 X184.068 Y164.565 E10.52471
G1 X183.848 Y165.016 E10.54224
G1 X183.49 Y165.706 E10.56939
G1 X181.613 Y169.214 E10.70833
G1 X181.278 Y169.82 E10.73251
G1 X180.772 Y170.644 E10.76628
G1 X180.753 Y170.672 E10.76746
G1 X180.264 Y171.336 E10.79626
G1 X179.768 Y171.955 E10.82396
G1 X177.235 Y175.041 E10.96339
G1 X176.822 Y175.529 E10.98572
G1 X176.175 Y176.227 E11.01896
G1 X175.529 Y176.823 E11.04965
G1 X174.934 Y177.325 E11.07684
G1 X171.877 Y179.831 E11.21489
G1 X171.311 Y180.283 E11.24018
G1 X170.567 Y180.826 E11.27235
G1 X170.024 Y181.164 E11.29469
G1 X169.767 Y181.31 E11.30501
G1 X169.169 Y181.638 E11.32883
G1 X165.598 Y183.546 E11.47022
G1 X164.982 Y183.863 E11.49442
G1 X164.468 Y184.111 E11.51435
G1 X164.439 Y184.124 E11.51546
G1 X163.305 Y184.556 E11.55784
G1 X162.572 Y184.787 E11.58468
G1 X158.81 Y185.928 E11.72197
G1 X158.095 Y186.134 E11.74795
G1 X157.2 Y186.35 E11.78011
G1 X156.589 Y186.451 E11.80173
G1 X156.265 Y186.493 E11.81314
G1 X155.593 Y186.567 E11.83675
G1 X151.562 Y186.963 E11.97821
G1 X150.91 Y187.018 E12.00106
G1 X149.669 Y187.051 E12.04441
G1 X149.036 Y187.015 E12.06656
G1 X148.34 Y186.955 E12.09095
G1 X144.322 Y186.557 E12.23196
G1 X143.674 Y186.484 E12.25473
G1 X142.532 Y186.292 E12.29518
G1 X141.856 Y186.121 E12.31953
G1 X141.16 Y185.919 E12.34484
G1 X137.342 Y184.76 E12.48418
G1 X136.66 Y184.543 E12.50918
G1 X135.488 Y184.092 E12.55303
G1 X135.466 Y184.082 E12.55387
G1 X134.984 Y183.848 E12.57259
G1 X134.294 Y183.49 E12.59973
G1 X130.787 Y181.614 E12.73863
G1 X130.179 Y181.278 E12.76289
G1 X129.206 Y180.669 E12.80298
G1 X129.179 Y180.65 E12.80413
G1 X128.665 Y180.265 E12.82656
G1 X128.045 Y179.768 E12.85431
G1 X124.96 Y177.236 E12.99369
G1 X124.473 Y176.824 E13.01597
G1 X123.773 Y176.175 E13.0493
G1 X123.177 Y175.529 E13.08
G1 X122.675 Y174.934 E13.10718
G1 X120.166 Y171.873 E13.24541
G1 X119.712 Y171.304 E13.27083
G1 X119.17 Y170.56 E13.30297
G1 X118.809 Y169.977 E13.32692
G1 X118.69 Y169.767 E13.33535
G1 X118.362 Y169.17 E13.35914
G1 X116.45 Y165.591 E13.50085
G1 X116.134 Y164.976 E13.52499
G1 X115.901 Y164.495 E13.54366
G1 X115.887 Y164.464 E13.54485
G1 X115.442 Y163.298 E13.58843
G1 X115.213 Y162.572 E13.61502
G1 X114.072 Y158.81 E13.75231
G1 X113.866 Y158.095 E13.77829
G1 X113.65 Y157.2 E13.81045
G1 X113.549 Y156.589 E13.83208
G1 X113.507 Y156.265 E13.84349
G1 X113.433 Y155.593 E13.8671
G1 X113.036 Y151.554 E14.00883
G1 X112.98 Y150.884 E14.03231
G1 X112.943 Y149.964 E14.06447
G1 X112.959 Y149.412 E14.08375
G1 X112.985 Y149.034 E14.09698
G1 X113.045 Y148.342 E14.12124
G1 X113.443 Y144.318 E14.26246
G1 X113.519 Y143.646 E14.28608
G1 X113.662 Y142.736 E14.31825
G1 X113.831 Y142.026 E14.34373
G1 X114.081 Y141.16 E14.37521
G1 X115.239 Y137.346 E14.51441
G1 X115.456 Y136.663 E14.53944
G1 X115.772 Y135.799 E14.57157
G1 X115.988 Y135.316 E14.59005
G1 X115.998 Y135.295 E14.59086
G1 X116.152 Y134.984 E14.60298
G1 X116.51 Y134.294 E14.63013
G1 X118.387 Y130.787 E14.76904
G1 X118.728 Y130.17 E14.79366
G1 X119.208 Y129.384 E14.82582
G1 X119.585 Y128.858 E14.84842
G1 X119.736 Y128.664 E14.85701
G1 X120.232 Y128.045 E14.88471
G1 X122.766 Y124.958 E15.02419
G1 X123.179 Y124.47 E15.04651
G1 X123.901 Y123.698 E15.08343
G1 X124.471 Y123.178 E15.11037
G1 X125.066 Y122.676 E15.13756
G1 X128.127 Y120.167 E15.27578
G1 X128.696 Y119.713 E15.3012
G1 X129.44 Y119.171 E15.33335
G1 X129.853 Y118.91 E15.35041
G1 X129.893 Y118.886 E15.35204
G1 X130.233 Y118.69 E15.36575
G1 X130.831 Y118.362 E15.38957
G1 X134.402 Y116.454 E15.53096
G1 X135.018 Y116.137 E15.55516
G1 X135.532 Y115.889 E15.57509
G1 X135.561 Y115.876 E15.5762
G1 X136.695 Y115.444 E15.61857
G1 X137.428 Y115.213 E15.64541
G1 X141.19 Y114.072 E15.78271
G1 X141.905 Y113.866 E15.80869
G1 X142.8 Y113.65 E15.84084
G1 X143.411 Y113.549 E15.86247
G1 X143.735 Y113.507 E15.87388
G1 X144.407 Y113.433 E15.89749
G1 X148.438 Y113.037 E16.03895
G1 X149.09 Y112.982 E16.0618
G1 X150.167 Y112.953 E16.09942
G0 F1080 X150.331 Y112.949
G0 X150.966 Y112.985
G0 F6000 X151 Y112.586
G1 F1200 X151.559 Y112.634 E16.11902
G1 X151.698 Y112.647 E16.12389
G1 X155.722 Y113.045 E16.26511
G1 X156.37 Y113.118 E16.28788
G1 X157.554 Y113.317 E16.32981
G1 X158.255 Y113.495 E16.35507
G1 X158.956 Y113.698 E16.38055
G1 X162.779 Y114.859 E16.52009
G1 X163.461 Y115.076 E16.54508
G1 X164.678 Y115.544 E16.59062
G1 X164.7 Y115.554 E16.59146
G1 X165.2 Y115.797 E16.61088
G1 X165.894 Y116.157 E16.63818
G1 X169.407 Y118.036 E16.77731
G1 X170.015 Y118.372 E16.80157
G1 X170.613 Y118.737 E16.82604
G1 X170.627 Y118.739 E16.82653
G1 X170.695 Y118.788 E16.82946
G1 X170.815 Y118.861 E16.83436
G1 X171.294 Y119.2 E16.85486
G1 X171.303 Y119.222 E16.85569
G1 X171.584 Y119.423 E16.86775
G1 X172.209 Y119.923 E16.89571
G1 X175.299 Y122.459 E17.03531
G1 X175.786 Y122.871 E17.05759
G1 X176.51 Y123.542 E17.09206
G1 X177.128 Y124.213 E17.12392
G1 X177.634 Y124.813 E17.15133
G1 X180.148 Y127.88 E17.28982
G1 X180.593 Y128.438 E17.31475
G1 X181.343 Y129.501 E17.36018
G1 X181.66 Y130.041 E17.38205
G1 X181.991 Y130.643 E17.40604
G1 X183.902 Y134.219 E17.54764
G1 X184.219 Y134.835 E17.57183
G1 X184.476 Y135.368 E17.5925
G1 X184.489 Y135.397 E17.59361
G1 X184.937 Y136.574 E17.63759
G1 X185.17 Y137.312 E17.66462
G1 X186.314 Y141.085 E17.80231
G1 X186.519 Y141.798 E17.82821
G1 X186.739 Y142.71 E17.86098
G1 X186.832 Y143.249 E17.88008
G1 X186.89 Y143.691 E17.89565
G1 X186.965 Y144.367 E17.9194
G1 X187.362 Y148.405 E18.0611
G1 X187.417 Y149.058 E18.08399
G1 X187.45 Y150.341 E18.12881
G1 X187.414 Y151 E18.15186
G1 X187.353 Y151.698 E18.17632
G1 X186.955 Y155.722 E18.31754
G1 X186.882 Y156.37 E18.34031
G1 X186.69 Y157.52 E18.38103
G1 X186.505 Y158.256 E18.40754
G1 X186.302 Y158.957 E18.43302
G1 X185.141 Y162.78 E18.57255
G1 X184.925 Y163.459 E18.59744
G1 X184.443 Y164.707 E18.64416
G1 X184.432 Y164.731 E18.64508
G1 X184.203 Y165.2 E18.66331
G1 X183.843 Y165.894 E18.69061
G1 X181.963 Y169.408 E18.82979
G1 X181.628 Y170.014 E18.85397
G1 X181.103 Y170.869 E18.88901
G1 X181.084 Y170.897 E18.89019
G1 X180.576 Y171.586 E18.92009
G1 X180.078 Y172.209 E18.94794
G1 X177.541 Y175.299 E19.08757
G1 X177.128 Y175.787 E19.10989
G1 X176.458 Y176.51 E19.14432
G1 X175.787 Y177.128 E19.17618
G1 X175.187 Y177.634 E19.20359
G1 X172.126 Y180.143 E19.34181
G1 X171.56 Y180.595 E19.3671
G1 X170.803 Y181.149 E19.39986
G1 X170.225 Y181.51 E19.42366
G1 X169.959 Y181.66 E19.43433
G1 X169.357 Y181.991 E19.45832
G1 X165.781 Y183.902 E19.59992
G1 X165.165 Y184.219 E19.62411
G1 X164.632 Y184.476 E19.64478
G1 X164.603 Y184.489 E19.64589
G1 X163.426 Y184.937 E19.68987
G1 X162.688 Y185.17 E19.7169
G1 X158.92 Y186.312 E19.8544
G1 X158.205 Y186.518 E19.88038
G1 X157.294 Y186.739 E19.91312
G1 X156.646 Y186.847 E19.93606
G1 X156.309 Y186.89 E19.94793
G1 X155.632 Y186.965 E19.97172
G1 X151.596 Y187.362 E20.11335
G1 X150.944 Y187.417 E20.1362
G1 X149.659 Y187.45 E20.18109
G1 X149.002 Y187.414 E20.20407
G1 X148.301 Y187.353 E20.22864
G1 X144.278 Y186.955 E20.36982
G1 X143.63 Y186.882 E20.3926
G1 X142.446 Y186.683 E20.43453
G1 X141.745 Y186.505 E20.45978
G1 X141.044 Y186.302 E20.48527
G1 X137.221 Y185.141 E20.6248
G1 X136.539 Y184.924 E20.6498
G1 X135.322 Y184.456 E20.69533
G1 X135.3 Y184.446 E20.69618
G1 X134.8 Y184.203 E20.71559
G1 X134.106 Y183.843 E20.74289
G1 X130.593 Y181.964 E20.88203
G1 X129.985 Y181.628 E20.90629
G1 X128.976 Y180.996 E20.94786
G1 X128.949 Y180.977 E20.94902
G1 X128.416 Y180.577 E20.97229
G1 X127.791 Y180.077 E21.00024
G1 X124.701 Y177.541 E21.13985
G1 X124.214 Y177.129 E21.16212
G1 X123.49 Y176.458 E21.1966
G1 X122.872 Y175.787 E21.22845
G1 X122.366 Y175.187 E21.25586
G1 X119.854 Y172.123 E21.39423
G1 X119.4 Y171.554 E21.41966
