;FLAVOR:Marlin
M117 Time Left 0h22m13s
;Filament used: 0.541208m
;Layer height: 0.2
;MINX:126.784
;MINY:133.356
;MINZ:0.2
;MAXX:173.216
;MAXY:167.663
;MAXZ:13.2
;POSTPROCESSED
;Generated with Cura_SteamEngine 4.6.0
M140 S58
M105
M190 S58
M104 S195
M105
M109 S195
M82 ;absolute extrusion mode
M201 X500.00 Y500.00 Z100.00 E5000.00 ;Setup machine max acceleration
M203 X500.00 Y500.00 Z10.00 E50.00 ;Setup machine max feedrate
M204 P500.00 R1000.00 T500.00 ;Setup Print/Retract/Travel acceleration
M205 X8.00 Y8.00 Z0.40 E5.00 ;Setup Jerk
M220 S100 ;Reset Feedrate
M221 S100 ;Reset Flowrate

G28 ;Home

G92 E0 ;Reset Extruder
G1 Z2.0 F3000 ;Move Z Axis up
G1 X10.1 Y20 Z0.28 F5000.0 ;Move to start position
G1 X10.1 Y200.0 Z0.28 F1500.0 E15 ;Draw the first line
G1 X10.4 Y200.0 Z0.28 F5000.0 ;Move to side a little
G1 X10.4 Y20 Z0.28 F1500.0 E30 ;Draw the second line
G92 E0 ;Reset Extruder
G1 Z2.0 F3000 ;Move Z Axis up

G92 E0
G92 E0
G1 F1500 E-5.5
;LAYER_COUNT:67
;LAYER:0
M107
G0 F6000 X135.022 Y141.759 Z0.2
;TYPE:SKIRT
G1 F1500 E0
G1 F1200 X135.042 Y141.741 E0.00094
G1 X135.655 Y141.243 E0.02852
G1 X136.315 Y140.81 E0.05609
G1 X136.813 Y140.542 E0.07584
G1 X137.085 Y140.408 E0.08643
G1 X137.957 Y140.042 E0.11945
G1 X139.082 Y139.649 E0.16107
G1 X139.265 Y138.94 E0.18664
G1 X139.539 Y138.2 E0.2142
G1 X139.887 Y137.49 E0.24182
G1 X140.304 Y136.82 E0.26938
G1 X140.787 Y136.195 E0.29696
G1 X141.193 Y135.758 E0.31779
G1 X141.31 Y135.641 E0.32357
G1 X141.896 Y135.111 E0.35116
G1 X142.532 Y134.644 E0.37872
G1 X143.212 Y134.243 E0.40629
G1 X143.93 Y133.913 E0.43389
G1 X144.677 Y133.658 E0.46145
G1 X145.446 Y133.479 E0.48903
G1 X146.23 Y133.379 E0.51663
G1 X146.825 Y133.356 E0.53742
G1 X153.175 Y133.356 E0.75918
G1 X153.964 Y133.396 E0.78677
G1 X154.744 Y133.515 E0.81433
G1 X155.509 Y133.713 E0.84193
G1 X156.249 Y133.987 E0.86948
G1 X156.958 Y134.335 E0.89707
G1 X157.629 Y134.753 E0.92467
G1 X158.253 Y135.236 E0.95223
G1 X158.69 Y135.641 E0.97304
G1 X158.807 Y135.758 E0.97882
G1 X159.337 Y136.344 E1.00641
G1 X159.804 Y136.98 E1.03397
G1 X160.205 Y137.66 E1.06154
G1 X160.535 Y138.378 E1.08913
G1 X160.79 Y139.125 E1.1167
G1 X160.911 Y139.646 E1.13538
G1 X162.024 Y140.036 E1.17656
G1 X162.94 Y140.424 E1.21131
G1 X163.235 Y140.572 E1.22283
G1 X163.922 Y140.962 E1.25042
G1 X164.566 Y141.418 E1.27798
G1 X165.222 Y141.998 E1.30856
G1 X165.759 Y142.577 E1.33614
G1 X166.131 Y143.059 E1.3574
G1 X166.267 Y143.25 E1.36559
G1 X166.692 Y143.915 E1.39315
G1 X167.047 Y144.621 E1.42075
G1 X167.271 Y145.24 E1.44374
G1 X167.295 Y145.27 E1.44508
G1 X167.356 Y145.366 E1.44905
G1 X167.549 Y145.602 E1.4597
G1 X167.675 Y145.792 E1.46766
G1 X167.886 Y146.046 E1.47919
G1 X167.936 Y146.12 E1.48231
G1 X168.227 Y146.466 E1.4981
G1 X168.563 Y146.96 E1.51896
G1 X168.742 Y147.187 E1.52906
G1 X169.166 Y147.854 E1.55666
G1 X169.519 Y148.56 E1.58423
G1 X169.766 Y149.204 E1.60831
G1 X169.966 Y149.584 E1.62331
G1 X170.066 Y149.833 E1.63268
G1 X170.356 Y150.479 E1.65741
G1 X170.672 Y150.983 E1.67819
G1 X170.839 Y151.322 E1.69138
G1 X171.177 Y151.708 E1.7093
G1 X171.636 Y152.354 E1.73698
G1 X172.031 Y153.038 E1.76456
G1 X172.354 Y153.758 E1.79212
G1 X172.525 Y154.243 E1.81008
G1 X172.854 Y155.285 E1.84824
G1 X173.053 Y156.049 E1.87581
G1 X173.174 Y156.829 E1.90338
G1 X173.216 Y157.618 E1.93097
G1 X173.178 Y158.406 E1.95852
G1 X173.079 Y159.088 E1.98259
G1 X173.049 Y159.246 E1.98821
G1 X172.823 Y160.144 E2.02055
G1 X172.524 Y161.089 E2.05516
G1 X172.248 Y161.829 E2.08274
G1 X171.898 Y162.537 E2.11032
G1 X171.603 Y163.024 E2.13021
G1 X171.141 Y163.665 E2.1578
G1 X170.616 Y164.255 E2.18538
G1 X170.082 Y164.75 E2.21081
G1 X169.17 Y165.519 E2.25247
G1 X168.541 Y165.997 E2.28006
G1 X167.868 Y166.409 E2.30762
G1 X167.156 Y166.75 E2.33519
G1 X166.509 Y166.988 E2.35927
G1 X166.352 Y167.038 E2.36502
G1 X165.697 Y167.216 E2.38873
G1 X164.55 Y167.474 E2.42978
G1 X163.772 Y167.608 E2.45735
G1 X162.984 Y167.663 E2.48494
G1 X162.194 Y167.637 E2.51254
G1 X161.652 Y167.574 E2.5316
G1 X160.97 Y167.45 E2.55581
G1 X159.796 Y167.182 E2.59786
G1 X159.036 Y166.968 E2.62544
G1 X158.302 Y166.678 E2.653
G1 X157.6 Y166.315 E2.6806
G1 X156.882 Y165.841 E2.71064
G1 X156.75 Y165.743 E2.71639
G1 X156.365 Y165.437 E2.73356
G1 X155.544 Y164.743 E2.7711
G1 X154.967 Y164.203 E2.7987
G1 X154.448 Y163.608 E2.82628
G1 X154.036 Y163.033 E2.85098
G1 X153.635 Y162.352 E2.87858
G1 X153.305 Y161.635 E2.90614
G1 X153.11 Y161.091 E2.92633
G1 X152.78 Y160.049 E2.9645
G1 X152.58 Y159.285 E2.99208
G1 X152.458 Y158.505 E3.01965
G1 X152.416 Y157.632 E3.05017
G1 X152.433 Y157.3 E3.06178
G1 X150.52 Y157.426 E3.12873
G1 X150.007 Y157.443 E3.14666
G1 X149.993 Y157.443 E3.14715
G1 X149.481 Y157.426 E3.16504
G1 X147.567 Y157.3 E3.23203
G1 X147.584 Y157.695 E3.24583
G1 X147.544 Y158.484 E3.27342
G1 X147.425 Y159.264 E3.30098
G1 X147.22 Y160.05 E3.32935
G1 X146.89 Y161.092 E3.36752
G1 X146.614 Y161.832 E3.3951
G1 X146.264 Y162.54 E3.42268
G1 X145.97 Y163.025 E3.44249
G1 X145.508 Y163.666 E3.47008
G1 X144.983 Y164.256 E3.49766
G1 X144.452 Y164.748 E3.52294
G1 X143.541 Y165.517 E3.56458
G1 X142.913 Y165.996 E3.59216
G1 X141.998 Y166.534 E3.62923
G1 X141.954 Y166.556 E3.63095
G1 X141.231 Y166.872 E3.6585
G1 X140.194 Y167.185 E3.69633
G1 X139.023 Y167.451 E3.73827
G1 X138.331 Y167.577 E3.76283
G1 X137.546 Y167.656 E3.79039
G1 X136.756 Y167.654 E3.81798
G1 X135.971 Y167.573 E3.84554
G1 X135.438 Y167.472 E3.86448
G1 X134.177 Y167.186 E3.90964
G1 X133.416 Y166.972 E3.93725
G1 X132.414 Y166.556 E3.97514
G1 X132.37 Y166.534 E3.97685
G1 X131.682 Y166.145 E4.00446
G1 X130.83 Y165.52 E4.04136
G1 X129.918 Y164.751 E4.08302
G1 X129.341 Y164.212 E4.11059
G1 X128.821 Y163.618 E4.13816
G1 X128.364 Y162.974 E4.16574
G1 X127.969 Y162.29 E4.19333
G1 X127.646 Y161.57 E4.22088
G1 X127.475 Y161.085 E4.23884
G1 X127.146 Y160.043 E4.277
G1 X126.947 Y159.279 E4.30458
G1 X126.826 Y158.499 E4.33214
G1 X126.784 Y157.633 E4.36242
G1 X126.824 Y156.844 E4.39001
G1 X126.943 Y156.064 E4.41757
G1 X127.146 Y155.285 E4.44568
G1 X127.475 Y154.243 E4.48384
G1 X127.751 Y153.502 E4.51146
G1 X128.1 Y152.794 E4.53902
G1 X128.436 Y152.244 E4.56153
G1 X128.904 Y151.608 E4.58911
G1 X129.134 Y151.354 E4.60107
G1 X129.228 Y151.15 E4.60892
G1 X129.629 Y150.469 E4.63652
G1 X129.659 Y150.429 E4.63826
G1 X129.971 Y149.743 E4.66458
G1 X130.009 Y149.647 E4.66819
G1 X130.24 Y149.201 E4.68573
G1 X130.503 Y148.524 E4.71109
G1 X130.862 Y147.82 E4.73869
G1 X131.29 Y147.157 E4.76625
G1 X131.391 Y147.031 E4.77189
G1 X131.583 Y146.724 E4.78454
G1 X132.068 Y146.101 E4.81211
G1 X132.09 Y146.079 E4.8132
G1 X132.436 Y145.636 E4.83283
G1 X132.72 Y145.256 E4.84939
G1 X132.721 Y145.255 E4.84944
G1 X132.862 Y144.847 E4.86452
G1 X133.194 Y144.13 E4.89211
G1 X133.703 Y143.294 E4.92629
G1 X133.847 Y143.088 E4.93507
G1 X134.332 Y142.465 E4.96264
G1 X134.463 Y142.331 E4.96919
G0 F1080 X135.022 Y141.759
G0 F6000 X135.29 Y142.057
G1 F1200 X135.31 Y142.039 E4.97013
G1 X135.907 Y141.554 E4.99699
G1 X136.552 Y141.135 E5.02385
G1 X136.99 Y140.901 E5.04119
G1 X137.262 Y140.767 E5.05178
G1 X138.089 Y140.42 E5.0831
G1 X139.421 Y139.954 E5.13239
G1 X139.436 Y139.943 E5.13304
G1 X139.467 Y139.746 E5.14
G1 X139.665 Y139.003 E5.16685
G1 X139.939 Y138.284 E5.19372
G1 X140.285 Y137.597 E5.22059
G1 X140.702 Y136.951 E5.24744
G1 X141.183 Y136.35 E5.27432
G1 X141.592 Y135.923 E5.29497
G1 X142.164 Y135.409 E5.32183
G1 X142.786 Y134.956 E5.3487
G1 X143.451 Y134.57 E5.37555
G1 X144.153 Y134.255 E5.40243
G1 X144.884 Y134.015 E5.42929
G1 X145.635 Y133.852 E5.45613
G1 X146.4 Y133.768 E5.48301
G1 X146.825 Y133.756 E5.49786
G1 X153.175 Y133.756 E5.71962
G1 X153.943 Y133.796 E5.74648
G1 X154.703 Y133.915 E5.77334
G1 X155.446 Y134.113 E5.8002
G1 X156.165 Y134.387 E5.82707
G1 X156.851 Y134.734 E5.85391
G1 X157.498 Y135.15 E5.88078
G1 X158.098 Y135.631 E5.90763
G1 X158.525 Y136.04 E5.92828
G1 X159.039 Y136.612 E5.95514
G1 X159.492 Y137.234 E5.98201
G1 X159.878 Y137.899 E6.00886
G1 X160.193 Y138.601 E6.03574
G1 X160.433 Y139.332 E6.0626
G1 X160.567 Y139.949 E6.08465
G1 X161.891 Y140.413 E6.13365
G1 X162.76 Y140.782 E6.16662
G1 X163.055 Y140.93 E6.17815
G1 X163.724 Y141.31 E6.20502
G1 X164.35 Y141.757 E6.23188
G1 X164.943 Y142.285 E6.25961
G1 X165.465 Y142.849 E6.28645
G1 X165.805 Y143.291 E6.30592
G1 X165.941 Y143.482 E6.31411
G1 X166.354 Y144.131 E6.34098
G1 X166.697 Y144.819 E6.36782
G1 X166.922 Y145.444 E6.39102
G1 X166.991 Y145.533 E6.39495
G1 X167.04 Y145.612 E6.3982
G1 X167.251 Y145.872 E6.40989
G1 X167.358 Y146.037 E6.41676
G1 X167.59 Y146.318 E6.42949
G1 X167.628 Y146.375 E6.43188
G1 X167.932 Y146.739 E6.44844
G1 X168.232 Y147.185 E6.46721
G1 X168.439 Y147.451 E6.47899
G1 X168.847 Y148.103 E6.50585
G1 X169.185 Y148.794 E6.53271
G1 X169.402 Y149.371 E6.55424
G1 X169.62 Y149.789 E6.5707
G1 X169.704 Y150.002 E6.5787
G1 X170.001 Y150.661 E6.60394
G1 X170.351 Y151.23 E6.62727
G1 X170.502 Y151.543 E6.63941
G1 X170.888 Y151.988 E6.65998
G1 X171.3 Y152.571 E6.68491
G1 X171.684 Y153.238 E6.71179
G1 X171.996 Y153.94 E6.73862
G1 X172.144 Y154.363 E6.75427
G1 X172.473 Y155.405 E6.79243
G1 X172.666 Y156.149 E6.81927
G1 X172.781 Y156.91 E6.84615
G1 X172.816 Y157.678 E6.873
G1 X172.771 Y158.446 E6.89987
G1 X172.686 Y159.013 E6.91989
G1 X172.656 Y159.171 E6.92551
G1 X172.441 Y160.023 E6.95619
G1 X172.142 Y160.968 E6.99081
G1 X171.872 Y161.689 E7.0177
G1 X171.529 Y162.377 E7.04454
G1 X171.267 Y162.807 E7.06213
G1 X170.816 Y163.43 E7.08899
G1 X170.303 Y164.003 E7.11585
G1 X169.824 Y164.444 E7.13858
G1 X168.912 Y165.213 E7.18025
G1 X168.299 Y165.678 E7.20712
G1 X167.641 Y166.076 E7.23397
G1 X166.946 Y166.404 E7.26081
G1 X166.388 Y166.607 E7.28155
G1 X166.231 Y166.657 E7.2873
G1 X165.609 Y166.826 E7.30981
G1 X164.462 Y167.084 E7.35087
G1 X163.704 Y167.213 E7.37772
G1 X162.936 Y167.263 E7.4046
G1 X161.838 Y167.196 E7.44302
G1 X161.706 Y167.178 E7.44767
G1 X161.059 Y167.06 E7.47064
G1 X159.885 Y166.792 E7.51269
G1 X159.145 Y166.582 E7.53956
G1 X158.431 Y166.297 E7.5664
G1 X157.75 Y165.939 E7.59327
G1 X157.121 Y165.52 E7.61967
G1 X156.989 Y165.422 E7.62541
G1 X156.623 Y165.131 E7.64174
G1 X155.802 Y164.437 E7.67928
G1 X155.241 Y163.911 E7.70614
G1 X154.738 Y163.329 E7.733
G1 X154.37 Y162.812 E7.75516
G1 X153.98 Y162.149 E7.78203
G1 X153.661 Y161.449 E7.80889
G1 X153.491 Y160.97 E7.82664
G1 X153.161 Y159.928 E7.86481
G1 X152.968 Y159.184 E7.89166
G1 X152.852 Y158.423 E7.91854
G1 X152.816 Y157.632 E7.94619
G1 X152.856 Y156.871 E7.97281
G1 X150.493 Y157.027 E8.05551
G1 X150.007 Y157.043 E8.07249
G1 X149.993 Y157.043 E8.07298
G1 X149.507 Y157.027 E8.08996
G1 X147.143 Y156.871 E8.1727
G1 X147.148 Y156.904 E8.17386
G1 X147.184 Y157.695 E8.20152
G1 X147.144 Y158.463 E8.22837
G1 X147.025 Y159.223 E8.25524
G1 X146.839 Y159.929 E8.28074
G1 X146.509 Y160.971 E8.31891
G1 X146.239 Y161.691 E8.34576
G1 X145.895 Y162.38 E8.37266
G1 X145.634 Y162.808 E8.39016
G1 X145.183 Y163.431 E8.41702
G1 X144.67 Y164.004 E8.44388
G1 X144.194 Y164.443 E8.4665
G1 X143.283 Y165.212 E8.50813
G1 X142.671 Y165.677 E8.53497
G1 X141.819 Y166.176 E8.56946
G1 X141.775 Y166.198 E8.57117
G1 X141.07 Y166.506 E8.59804
G1 X140.105 Y166.795 E8.63322
G1 X138.934 Y167.061 E8.67516
G1 X138.272 Y167.181 E8.69865
G1 X137.506 Y167.257 E8.72554
G1 X136.737 Y167.253 E8.75239
G1 X135.972 Y167.169 E8.77927
G1 X135.526 Y167.082 E8.79514
G1 X134.265 Y166.796 E8.8403
G1 X133.525 Y166.587 E8.86715
G1 X132.593 Y166.198 E8.90242
G1 X132.549 Y166.176 E8.90414
G1 X131.879 Y165.796 E8.93104
G1 X131.088 Y165.214 E8.96533
G1 X130.176 Y164.445 E9.00699
G1 X129.614 Y163.92 E9.03385
G1 X129.11 Y163.338 E9.06074
G1 X128.7 Y162.757 E9.08557
G1 X128.316 Y162.09 E9.11245
G1 X128.004 Y161.388 E9.13928
G1 X127.856 Y160.965 E9.15493
G1 X127.527 Y159.923 E9.19309
G1 X127.334 Y159.179 E9.21993
G1 X127.219 Y158.418 E9.24681
G1 X127.184 Y157.633 E9.27425
G1 X127.224 Y156.865 E9.30111
G1 X127.343 Y156.105 E9.32798
G1 X127.527 Y155.405 E9.35325
G1 X127.856 Y154.363 E9.39141
G1 X128.126 Y153.643 E9.41827
G1 X128.468 Y152.954 E9.44513
G1 X128.77 Y152.465 E9.4652
G1 X129.226 Y151.846 E9.49205
G1 X129.459 Y151.591 E9.50412
G1 X129.788 Y150.969 E9.52869
G1 X129.989 Y150.67 E9.54127
G1 X130.39 Y149.776 E9.57549
G1 X130.603 Y149.372 E9.59144
G1 X130.876 Y148.669 E9.61778
G1 X131.228 Y147.985 E9.64464
G1 X131.65 Y147.342 E9.6715
G1 X131.729 Y147.246 E9.67584
G1 X131.946 Y146.904 E9.68999
G1 X132.316 Y146.436 E9.71082
G1 X132.329 Y146.416 E9.71166
G1 X132.639 Y146.028 E9.729
G1 X133.078 Y145.446 E9.75446
G1 X133.24 Y144.978 E9.77176
G1 X133.566 Y144.281 E9.79863
G1 X134.031 Y143.523 E9.82968
G1 X134.175 Y143.317 E9.83846
G1 X134.648 Y142.711 E9.86531
G1 X134.73 Y142.628 E9.86938
G0 F1080 X135.29 Y142.057
G0 F6000 X135.557 Y142.354
G1 F1200 X135.577 Y142.336 E9.87032
G1 X136.159 Y141.866 E9.89645
G1 X136.788 Y141.461 E9.92257
G1 X137.166 Y141.26 E9.93753
G1 X137.438 Y141.126 E9.94811
G1 X138.221 Y140.798 E9.97776
G1 X139.605 Y140.314 E10.02897
G1 X139.727 Y140.228 E10.03418
G1 X139.803 Y140.186 E10.03721
G1 X139.867 Y139.788 E10.05129
G1 X140.065 Y139.067 E10.0774
G1 X140.338 Y138.371 E10.10351
G1 X140.684 Y137.707 E10.12966
G1 X141.099 Y137.085 E10.15577
G1 X141.758 Y136.323 E10.19095
G1 X141.875 Y136.206 E10.19673
G1 X142.432 Y135.706 E10.22287
G1 X143.038 Y135.269 E10.24897
G1 X143.688 Y134.898 E10.2751
G1 X144.374 Y134.599 E10.30124
G1 X145.088 Y134.375 E10.32737
G1 X145.821 Y134.228 E10.35348
G1 X146.825 Y134.156 E10.38863
G1 X153.175 Y134.156 E10.61039
G1 X153.922 Y134.196 E10.63652
G1 X154.66 Y134.315 E10.66262
G1 X155.382 Y134.513 E10.68877
G1 X156.078 Y134.786 E10.71488
G1 X156.741 Y135.133 E10.74101
G1 X157.364 Y135.548 E10.76716
G1 X158.125 Y136.206 E10.80229
G1 X158.242 Y136.323 E10.80807
G1 X158.742 Y136.88 E10.83421
G1 X159.179 Y137.486 E10.8603
G1 X159.55 Y138.136 E10.88644
G1 X159.849 Y138.822 E10.91257
G1 X160.073 Y139.536 E10.9387
G1 X160.207 Y140.204 E10.9625
G1 X160.366 Y140.302 E10.96902
G1 X161.759 Y140.791 E11.02058
G1 X162.581 Y141.139 E11.05175
G1 X162.876 Y141.287 E11.06328
G1 X163.526 Y141.658 E11.08942
G1 X164.132 Y142.096 E11.11553
G1 X164.664 Y142.571 E11.14044
G1 X165.171 Y143.121 E11.16656
G1 X165.479 Y143.523 E11.18424
G1 X165.615 Y143.714 E11.19243
G1 X166.016 Y144.345 E11.21854
G1 X166.347 Y145.016 E11.24467
G1 X166.57 Y145.644 E11.26795
G1 X166.686 Y145.795 E11.2746
G1 X166.727 Y145.861 E11.27731
G1 X166.952 Y146.141 E11.28985
G1 X167.046 Y146.287 E11.29592
G1 X167.293 Y146.589 E11.30954
G1 X167.318 Y146.627 E11.31113
G1 X167.636 Y147.012 E11.32857
G1 X167.897 Y147.407 E11.3451
G1 X168.135 Y147.714 E11.35867
G1 X168.527 Y148.351 E11.38479
G1 X168.848 Y149.027 E11.41093
G1 X169.026 Y149.507 E11.4288
G1 X169.032 Y149.524 E11.42943
G1 X169.273 Y149.992 E11.44782
G1 X169.347 Y150.183 E11.45497
G1 X169.639 Y150.833 E11.47986
G1 X169.642 Y150.837 E11.48003
G1 X170.03 Y151.476 E11.50614
G1 X170.163 Y151.761 E11.51712
G1 X170.598 Y152.266 E11.5404
G1 X170.964 Y152.788 E11.56266
G1 X171.336 Y153.437 E11.58879
G1 X171.637 Y154.122 E11.61492
G1 X171.762 Y154.483 E11.62826
G1 X172.091 Y155.525 E11.66642
G1 X172.278 Y156.25 E11.69257
G1 X172.386 Y156.99 E11.71869
G1 X172.415 Y157.737 E11.74479
G1 X172.364 Y158.484 E11.77094
G1 X172.293 Y158.939 E11.78702
G1 X172.263 Y159.097 E11.79264
G1 X172.06 Y159.903 E11.82167
G1 X171.761 Y160.848 E11.85628
G1 X171.497 Y161.548 E11.88241
G1 X171.161 Y162.216 E11.90852
G1 X170.931 Y162.59 E11.92386
G1 X170.492 Y163.195 E11.94996
G1 X169.99 Y163.75 E11.9761
G1 X169.566 Y164.138 E11.99617
G1 X168.654 Y164.907 E12.03783
G1 X168.058 Y165.358 E12.06393
G1 X167.416 Y165.743 E12.09007
G1 X166.737 Y166.057 E12.1162
G1 X166.266 Y166.226 E12.13367
G1 X166.109 Y166.276 E12.13943
G1 X165.521 Y166.435 E12.1607
G1 X164.374 Y166.693 E12.20176
G1 X163.637 Y166.818 E12.22786
G1 X162.89 Y166.864 E12.254
G1 X161.892 Y166.8 E12.28893
G1 X161.76 Y166.782 E12.29358
G1 X161.148 Y166.67 E12.31531
G1 X159.974 Y166.402 E12.35736
G1 X159.255 Y166.197 E12.38347
G1 X158.561 Y165.916 E12.40962
G1 X157.902 Y165.563 E12.43573
G1 X157.359 Y165.198 E12.45858
G1 X157.227 Y165.1 E12.46432
