;FLAVOR:Marlin
M117 Time Left 0h06m40s
;Filament used: 0.102873m
;Layer height: 0.2
;MINX:135.587
;MINY:135.507
;MINZ:0.2
;MAXX:164.441
;MAXY:164.465
;MAXZ:11
;POSTPROCESSED
;Generated with Cura_SteamEngine 4.6.0
M140 S58
M105
M190 S58
M104 S195
M105
M109 S195
M82 ;absolute extrusion mode
M201 X500.00 Y500.00 Z100.00 E5000.00 ;Setup machine max acceleration
M203 X500.00 Y500.00 Z10.00 E50.00 ;Setup machine max feedrate
M204 P500.00 R1000.00 T500.00 ;Setup Print/Retract/Travel acceleration
M205 X8.00 Y8.00 Z0.40 E5.00 ;Setup Jerk
M220 S100 ;Reset Feedrate
M221 S100 ;Reset Flowrate

G28 ;Home

G92 E0 ;Reset Extruder
G1 Z2.0 F3000 ;Move Z Axis up
G1 X10.1 Y20 Z0.28 F5000.0 ;Move to start position
G1 X10.1 Y200.0 Z0.28 F1500.0 E15 ;Draw the first line
G1 X10.4 Y200.0 Z0.28 F5000.0 ;Move to side a little
G1 X10.4 Y20 Z0.28 F1500.0 E30 ;Draw the second line
G92 E0 ;Reset Extruder
G1 Z2.0 F3000 ;Move Z Axis up

G92 E0
G92 E0
G1 F1500 E-5.5
;LAYER_COUNT:55
;LAYER:0
M107
G0 F6000 X151.407 Y136.367 Z0.2
;TYPE:SKIRT
G1 F1500 E0
G1 F1200 X152.319 Y136.483 E0.03211
G1 X152.532 Y136.52 E0.03966
G1 X153.215 Y136.661 E0.06401
G1 X154.253 Y136.951 E0.10165
G1 X154.636 Y137.08 E0.11576
G1 X155.478 Y137.405 E0.14728
G1 X156.05 Y137.678 E0.16942
G1 X156.483 Y137.901 E0.18643
G1 X157.267 Y138.35 E0.21798
G1 X157.83 Y138.733 E0.24176
G1 X158.253 Y139.042 E0.26005
G1 X158.958 Y139.606 E0.29158
G1 X159.352 Y139.97 E0.31032
G1 X159.58 Y140.192 E0.32143
G1 X160.368 Y141.053 E0.36219
G1 X160.713 Y141.476 E0.38125
G1 X161.459 Y142.517 E0.42598
G1 X161.694 Y142.893 E0.44147
G1 X162.107 Y143.619 E0.47063
G1 X162.186 Y143.772 E0.47665
G1 X162.526 Y144.5 E0.50471
G1 X162.65 Y144.795 E0.51588
G1 X162.931 Y145.543 E0.54379
G1 X162.975 Y145.676 E0.54868
G1 X163.127 Y146.178 E0.567
G1 X163.202 Y146.451 E0.57689
G1 X163.383 Y147.232 E0.60488
G1 X163.411 Y147.378 E0.61008
G1 X163.5 Y147.916 E0.62912
G1 X163.536 Y148.179 E0.63839
G1 X163.611 Y148.929 E0.66471
G1 X163.641 Y149.764 E0.69389
G1 X163.639 Y150.114 E0.70612
G1 X163.572 Y151.224 E0.74495
G1 X163.544 Y151.467 E0.75349
G1 X163.466 Y152.025 E0.77317
G1 X163.302 Y152.865 E0.80306
G1 X163.239 Y153.129 E0.81254
G1 X163.066 Y153.765 E0.83556
G1 X162.964 Y154.096 E0.84765
G1 X162.689 Y154.873 E0.87644
G1 X162.602 Y155.091 E0.88463
G1 X162.238 Y155.901 E0.91565
G1 X162.048 Y156.278 E0.93039
G1 X161.604 Y157.068 E0.96204
G1 X161.45 Y157.316 E0.97223
G1 X161.023 Y157.951 E0.99896
G1 X160.492 Y158.637 E1.02925
G1 X160.156 Y159.035 E1.04744
G1 X159.544 Y159.7 E1.07901
G1 X159.131 Y160.089 E1.09882
G1 X158.673 Y160.492 E1.12012
G1 X158.647 Y160.514 E1.12131
G1 X157.892 Y161.094 E1.15456
G1 X157.479 Y161.382 E1.17215
G1 X156.784 Y161.826 E1.20095
G1 X156.772 Y161.833 E1.20143
G1 X156.143 Y162.171 E1.22637
G1 X155.584 Y162.439 E1.24802
G1 X154.788 Y162.761 E1.27801
G1 X154.283 Y162.941 E1.29673
G1 X153.054 Y163.294 E1.34139
G1 X152.605 Y163.393 E1.35744
G1 X151.603 Y163.562 E1.39293
G1 X151.374 Y163.589 E1.40098
G1 X150.669 Y163.647 E1.42569
G1 X150.419 Y163.659 E1.43443
G1 X149.596 Y163.666 E1.46317
G1 X149.26 Y163.655 E1.47491
G1 X148.364 Y163.586 E1.5063
G1 X148.117 Y163.556 E1.51498
G1 X147.711 Y163.498 E1.52931
G1 X147.428 Y163.452 E1.53932
G1 X146.112 Y163.148 E1.58649
G1 X145.842 Y163.064 E1.59636
G1 X145.224 Y162.858 E1.61911
G1 X145.196 Y162.848 E1.62015
G1 X144.36 Y162.507 E1.65168
G1 X143.843 Y162.25 E1.67185
G1 X143.489 Y162.062 E1.68585
G1 X143.492 Y162.056 E1.68608
G1 X142.914 Y161.734 E1.70919
G1 X142.166 Y161.225 E1.74078
G1 X141.721 Y160.893 E1.76017
G1 X140.882 Y160.195 E1.79829
G1 X140.785 Y160.105 E1.80291
G1 X140.342 Y159.668 E1.82464
G1 X140.115 Y159.43 E1.83613
G1 X139.586 Y158.83 E1.86406
G1 X139.459 Y158.674 E1.87109
G1 X139.111 Y158.226 E1.8909
G1 X138.558 Y157.426 E1.92486
G1 X138.405 Y157.179 E1.93501
G1 X138.228 Y156.883 E1.94705
G1 X137.816 Y156.124 E1.97721
G1 X137.597 Y155.657 E1.99523
G1 X137.462 Y155.349 E2.00697
G1 X137.095 Y154.381 E2.04312
G1 X137.009 Y154.114 E2.05292
G1 X136.833 Y153.503 E2.07513
G1 X136.68 Y152.822 E2.0995
G1 X136.578 Y152.284 E2.11862
G1 X136.449 Y151.39 E2.15017
G1 X136.407 Y150.786 E2.17131
G1 X136.387 Y150.072 E2.19626
G1 X136.44 Y148.893 E2.23747
G1 X136.468 Y148.623 E2.24695
G1 X136.55 Y148.017 E2.26831
G1 X136.606 Y147.677 E2.28034
G1 X136.785 Y146.82 E2.31092
G1 X136.857 Y146.537 E2.32112
G1 X137.083 Y145.776 E2.34884
G1 X137.141 Y145.605 E2.35515
G1 X137.354 Y145.026 E2.37669
G1 X137.479 Y144.714 E2.38843
G1 X137.495 Y144.676 E2.38987
G1 X137.725 Y144.17 E2.40928
G1 X137.854 Y143.905 E2.41957
G1 X138.087 Y143.453 E2.43733
G1 X138.489 Y142.769 E2.46504
G1 X138.744 Y142.371 E2.48155
G1 X139.292 Y141.597 E2.51467
G1 X139.406 Y141.451 E2.52114
G1 X139.877 Y140.891 E2.54669
G1 X140.101 Y140.643 E2.55836
G1 X140.755 Y139.981 E2.59086
G1 X141.128 Y139.645 E2.60839
G1 X141.371 Y139.437 E2.61956
G1 X142.437 Y138.639 E2.66607
G1 X142.827 Y138.385 E2.68232
G1 X143.932 Y137.76 E2.72666
G1 X144.154 Y137.652 E2.73528
G1 X144.797 Y137.366 E2.75985
G1 X145.062 Y137.259 E2.76984
G1 X145.426 Y137.12 E2.78344
G1 X145.451 Y137.111 E2.78437
G1 X145.906 Y136.959 E2.80112
G1 X146.205 Y136.867 E2.81205
G1 X146.999 Y136.657 E2.84073
G1 X147.148 Y136.624 E2.84606
G1 X147.641 Y136.528 E2.8636
G1 X147.864 Y136.49 E2.8715
G1 X148.767 Y136.377 E2.90328
G1 X149.219 Y136.341 E2.91912
G1 X149.939 Y136.309 E2.94429
G1 X150.166 Y136.307 E2.95222
G1 X150.608 Y136.324 E2.96766
G0 F1080 X151.09 Y136.341
G0 X151.407 Y136.367
G0 F6000 X151.439 Y135.968
G1 F1200 X152.387 Y136.089 E3.00104
G1 X152.6 Y136.126 E3.00859
G1 X153.302 Y136.271 E3.03362
G1 X154.38 Y136.571 E3.0727
G1 X154.763 Y136.7 E3.08681
G1 X155.622 Y137.032 E3.11898
G1 X156.233 Y137.322 E3.1426
G1 X156.666 Y137.545 E3.1596
G1 X157.466 Y138.002 E3.19178
G1 X158.066 Y138.41 E3.21712
G1 X158.489 Y138.719 E3.23541
G1 X159.208 Y139.293 E3.26754
G1 X159.631 Y139.683 E3.28764
G1 X159.859 Y139.905 E3.29875
G1 X160.678 Y140.8 E3.34112
G1 X161.023 Y141.223 E3.36018
G1 X161.798 Y142.305 E3.40666
G1 X162.033 Y142.681 E3.42215
G1 X162.463 Y143.436 E3.45249
G1 X162.542 Y143.589 E3.4585
G1 X162.895 Y144.345 E3.48764
G1 X163.019 Y144.64 E3.49882
G1 X163.311 Y145.418 E3.52784
G1 X163.355 Y145.551 E3.53273
G1 X163.512 Y146.072 E3.55173
G1 X163.587 Y146.345 E3.56162
G1 X163.776 Y147.157 E3.59074
G1 X163.804 Y147.303 E3.59593
G1 X163.896 Y147.861 E3.61568
G1 X163.932 Y148.124 E3.62495
G1 X164.01 Y148.899 E3.65215
G1 X164.041 Y149.767 E3.68248
G1 X164.039 Y150.117 E3.69471
G1 X163.969 Y151.269 E3.73501
G1 X163.941 Y151.512 E3.74355
G1 X163.861 Y152.085 E3.76376
G1 X163.691 Y152.957 E3.79479
G1 X163.628 Y153.221 E3.80426
G1 X163.448 Y153.883 E3.82822
G1 X163.346 Y154.214 E3.84032
G1 X163.061 Y155.021 E3.87021
G1 X162.974 Y155.239 E3.8784
G1 X162.595 Y156.081 E3.91065
G1 X162.405 Y156.458 E3.9254
G1 X161.944 Y157.279 E3.95828
G1 X161.79 Y157.527 E3.96847
G1 X161.35 Y158.182 E3.99603
G1 X160.797 Y158.895 E4.02754
G1 X160.573 Y159.16 E4.03966
G1 X160.574 Y159.16 E4.03969
G1 X160.462 Y159.293 E4.04577
G1 X159.839 Y159.971 E4.07792
G1 X159.396 Y160.388 E4.09917
G1 X158.931 Y160.797 E4.1208
G1 X158.905 Y160.819 E4.12199
G1 X158.121 Y161.422 E4.15653
G1 X157.708 Y161.71 E4.17411
G1 X156.986 Y162.171 E4.20403
G1 X156.974 Y162.178 E4.20451
G1 X156.32 Y162.529 E4.23043
G1 X155.749 Y162.803 E4.25255
G1 X154.922 Y163.138 E4.28371
G1 X154.417 Y163.318 E4.30244
G1 X153.14 Y163.684 E4.34883
G1 X152.691 Y163.783 E4.36489
G1 X151.65 Y163.959 E4.40176
G1 X151.421 Y163.986 E4.40981
G1 X150.688 Y164.047 E4.4355
G1 X150.438 Y164.059 E4.44424
G1 X149.583 Y164.065 E4.4741
G1 X149.247 Y164.054 E4.48584
G1 X148.316 Y163.983 E4.51845
G1 X148.069 Y163.953 E4.52714
G1 X147.646 Y163.893 E4.54206
G1 X147.363 Y163.847 E4.55207
G1 X145.999 Y163.531 E4.60097
G1 X145.718 Y163.444 E4.61124
G1 X145.09 Y163.234 E4.63436
G1 X145.062 Y163.224 E4.6354
G1 X144.209 Y162.877 E4.66756
G1 X143.655 Y162.604 E4.68913
G1 X143.301 Y162.416 E4.70313
G1 X143.305 Y162.409 E4.70341
G1 X142.72 Y162.084 E4.72678
G1 X141.926 Y161.546 E4.76028
G1 X141.481 Y161.214 E4.77967
G1 X140.61 Y160.488 E4.81927
G1 X140.513 Y160.398 E4.82389
G1 X140.053 Y159.944 E4.84646
G1 X139.826 Y159.706 E4.85794
G1 X139.276 Y159.082 E4.88699
G1 X138.945 Y158.668 E4.9055
G1 X138.793 Y158.469 E4.91425
G1 X138.22 Y157.641 E4.94941
G1 X138.061 Y157.384 E4.95997
G1 X137.884 Y157.088 E4.97201
G1 X137.458 Y156.302 E5.00323
G1 X137.231 Y155.817 E5.02194
G1 X137.096 Y155.509 E5.03368
G1 X136.714 Y154.504 E5.07123
G1 X136.628 Y154.237 E5.08102
G1 X136.446 Y153.604 E5.10403
G1 X136.287 Y152.896 E5.12937
G1 X136.185 Y152.358 E5.14849
G1 X136.052 Y151.447 E5.18064
G1 X136.007 Y150.802 E5.20322
G1 X135.987 Y150.077 E5.22855
G1 X136.043 Y148.852 E5.27138
G1 X136.071 Y148.582 E5.28086
G1 X136.155 Y147.952 E5.30305
G1 X136.211 Y147.612 E5.31509
G1 X136.397 Y146.721 E5.34687
G1 X136.469 Y146.438 E5.35707
G1 X136.704 Y145.647 E5.38589
G1 X136.762 Y145.476 E5.3922
G1 X136.98 Y144.883 E5.41426
G1 X137.111 Y144.559 E5.42647
G1 X137.127 Y144.521 E5.42791
G1 X137.365 Y143.995 E5.44807
G1 X137.494 Y143.73 E5.45836
G1 X137.735 Y143.264 E5.47668
G1 X138.152 Y142.554 E5.50544
G1 X138.407 Y142.156 E5.52195
G1 X138.977 Y141.35 E5.55642
G1 X139.091 Y141.204 E5.56289
G1 X139.58 Y140.623 E5.58941
G1 X139.804 Y140.375 E5.60108
G1 X140.389 Y139.776 E5.63032
G1 X140.48 Y139.69 E5.63469
G1 X140.868 Y139.341 E5.65292
G1 X141.111 Y139.133 E5.66409
G1 X141.836 Y138.565 E5.69625
G1 X142.219 Y138.304 E5.71244
G1 X142.609 Y138.05 E5.72869
G1 X143.757 Y137.4 E5.77477
G1 X143.979 Y137.292 E5.78339
G1 X144.647 Y136.995 E5.80892
G1 X144.912 Y136.888 E5.8189
G1 X145.291 Y136.744 E5.83306
G1 X145.316 Y136.735 E5.83399
G1 X145.789 Y136.577 E5.8514
G1 X146.088 Y136.485 E5.86233
G1 X146.913 Y136.267 E5.89213
G1 X147.062 Y136.234 E5.89746
G1 X147.573 Y136.134 E5.91564
G1 X147.796 Y136.096 E5.92354
G1 X148.735 Y135.978 E5.95659
G1 X149.187 Y135.942 E5.97243
G1 X149.936 Y135.909 E5.99861
G1 X150.163 Y135.907 E6.00654
G1 X150.64 Y135.925 E6.02321
G0 F1080 X151.122 Y135.942
G0 X151.439 Y135.968
G0 F6000 X159.662 Y160.687
G1 F1200 X159.392 Y160.927 E6.03582
G1 X159.189 Y161.102 E6.04518
G1 X159.163 Y161.124 E6.04637
G1 X158.35 Y161.75 E6.08221
G1 X157.937 Y162.038 E6.09979
G1 X157.188 Y162.517 E6.13084
G1 X157.176 Y162.524 E6.13133
G1 X156.497 Y162.888 E6.15823
G1 X156.282 Y162.994 E6.1666
G1 X155.915 Y163.167 E6.18077
G1 X155.056 Y163.514 E6.21313
G1 X154.551 Y163.694 E6.23185
G1 X153.226 Y164.075 E6.28
G1 X152.777 Y164.174 E6.29606
G1 X151.697 Y164.356 E6.3343
G1 X151.468 Y164.383 E6.34236
G1 X150.707 Y164.446 E6.36902
G1 X150.457 Y164.458 E6.37776
G1 X149.57 Y164.465 E6.40874
G1 X149.234 Y164.454 E6.42048
G1 X148.268 Y164.38 E6.45432
G1 X148.021 Y164.35 E6.46301
G1 X147.582 Y164.288 E6.47849
G1 X147.299 Y164.242 E6.4885
G1 X145.885 Y163.915 E6.53919
G1 X145.593 Y163.824 E6.54987
G1 X144.955 Y163.611 E6.57336
G1 X144.927 Y163.601 E6.5744
G1 X144.058 Y163.248 E6.60715
G1 X143.468 Y162.957 E6.63013
G1 X143.114 Y162.769 E6.64413
G1 X143.118 Y162.762 E6.64441
G1 X142.525 Y162.434 E6.66807
G1 X141.687 Y161.867 E6.70341
G1 X141.242 Y161.535 E6.7228
G1 X140.338 Y160.782 E6.76389
G1 X140.241 Y160.692 E6.76851
G1 X139.763 Y160.22 E6.79197
G1 X139.536 Y159.982 E6.80345
G1 X138.965 Y159.335 E6.83359
G1 X138.838 Y159.179 E6.84062
G1 X138.475 Y158.712 E6.86127
G1 X137.883 Y157.856 E6.89762
G1 X137.718 Y157.589 E6.90858
G1 X137.541 Y157.293 E6.92063
G1 X137.1 Y156.481 E6.9529
G1 X136.864 Y155.978 E6.9723
G1 X136.729 Y155.67 E6.98404
G1 X136.334 Y154.626 E7.02303
G1 X136.248 Y154.359 E7.03282
G1 X136.059 Y153.705 E7.0566
G1 X135.894 Y152.971 E7.08287
G1 X135.792 Y152.433 E7.10199
G1 X135.656 Y151.505 E7.13475
G1 X135.608 Y150.817 E7.15883
G1 X135.587 Y150.082 E7.18451
G1 X135.645 Y148.81 E7.22898
G1 X135.673 Y148.54 E7.23846
G1 X135.76 Y147.887 E7.26147
G1 X135.816 Y147.547 E7.2735
G1 X136.01 Y146.623 E7.30647
G1 X136.082 Y146.34 E7.31667
G1 X136.325 Y145.519 E7.34657
G1 X136.383 Y145.348 E7.35288
G1 X136.607 Y144.74 E7.37551
G1 X136.742 Y144.403 E7.38819
G1 X136.758 Y144.365 E7.38962
G1 X137.006 Y143.819 E7.41057
G1 X137.135 Y143.554 E7.42086
G1 X137.382 Y143.075 E7.43968
G1 X137.815 Y142.338 E7.46953
G1 X138.07 Y141.94 E7.48604
G1 X138.662 Y141.104 E7.52182
G1 X138.776 Y140.958 E7.52828
G1 X139.283 Y140.355 E7.5558
G1 X139.507 Y140.107 E7.56747
G1 X140.206 Y139.399 E7.60221
G1 X140.608 Y139.037 E7.62111
G1 X140.851 Y138.829 E7.63228
G1 X141.589 Y138.25 E7.66504
G1 X142.001 Y137.969 E7.68245
G1 X142.391 Y137.715 E7.69871
G1 X143.582 Y137.04 E7.74652
G1 X143.804 Y136.932 E7.75514
G1 X144.498 Y136.624 E7.78165
G1 X144.763 Y136.517 E7.79163
G1 X145.155 Y136.367 E7.80629
G1 X145.18 Y136.358 E7.80722
G1 X145.671 Y136.194 E7.8253
G1 X145.97 Y136.102 E7.83622
G1 X146.826 Y135.876 E7.86714
G1 X146.975 Y135.843 E7.87247
G1 X147.506 Y135.739 E7.89137
G1 X147.729 Y135.701 E7.89927
G1 X148.704 Y135.58 E7.93358
G1 X149.156 Y135.544 E7.94941
G1 X149.932 Y135.509 E7.97654
G1 X150.159 Y135.507 E7.98447
G1 X151.155 Y135.544 E8.01928
G1 X151.472 Y135.57 E8.03039
G1 X152.456 Y135.695 E8.06503
G1 X152.669 Y135.732 E8.07258
G1 X153.178 Y135.833 E8.0907
G1 X153.389 Y135.88 E8.09825
G1 X154.508 Y136.192 E8.13882
G1 X154.891 Y136.321 E8.15293
G1 X155.766 Y136.658 E8.18568
G1 X156.416 Y136.967 E8.21081
G1 X156.849 Y137.19 E8.22782
G1 X157.664 Y137.654 E8.26057
G1 X158.302 Y138.087 E8.2875
G1 X158.725 Y138.396 E8.3058
G1 X159.458 Y138.981 E8.33855
G1 X159.91 Y139.397 E8.36
G1 X160.138 Y139.619 E8.37111
G1 X160.988 Y140.548 E8.41509
G1 X161.333 Y140.971 E8.43415
G1 X162.137 Y142.093 E8.48236
G1 X162.372 Y142.469 E8.49784
G1 X162.818 Y143.252 E8.52931
G1 X162.897 Y143.405 E8.53532
G1 X163.264 Y144.19 E8.56559
G1 X163.388 Y144.485 E8.57676
G1 X163.69 Y145.292 E8.60685
G1 X163.734 Y145.425 E8.61175
G1 X163.898 Y145.966 E8.63149
G1 X163.973 Y146.239 E8.64138
G1 X164.169 Y147.081 E8.67157
G1 X164.197 Y147.227 E8.67676
G1 X164.292 Y147.807 E8.69729
G1 X164.328 Y148.07 E8.70656
G1 X164.409 Y148.868 E8.73457
G1 X164.441 Y149.769 E8.76605
G1 X164.439 Y150.119 E8.77828
G1 X164.367 Y151.315 E8.82012
G1 X164.339 Y151.558 E8.82866
G1 X164.257 Y152.145 E8.84936
G1 X164.081 Y153.05 E8.88156
G1 X164.018 Y153.314 E8.89104
G1 X163.83 Y154 E8.91588
G1 X163.728 Y154.331 E8.92797
G1 X163.432 Y155.169 E8.95901
G1 X163.345 Y155.387 E8.96721
G1 X162.952 Y156.261 E9.00068
G1 X162.762 Y156.638 E9.01542
G1 X162.284 Y157.49 E9.04954
G1 X162.13 Y157.738 E9.05973
G1 X161.676 Y158.413 E9.08814
G1 X161.103 Y159.154 E9.12085
G1 X160.768 Y159.55 E9.13897
G1 X160.236 Y160.13 E9.16645
G0 F1080 X160.134 Y160.241
G0 X159.662 Y160.687
G0 F6000 X150.584 Y148.471
G1 F1200 X150.797 Y148.272 E9.17663
G1 X150.8 Y148.334 E9.1788
G1 X150.787 Y148.597 E9.188
G1 X150.755 Y148.826 E9.19607
G1 X150.685 Y149.15 E9.20765
G1 X150.592 Y149.471 E9.21932
G1 X150.47 Y149.817 E9.23213
G1 X150.342 Y150.128 E9.24388
G1 X150.177 Y150.474 E9.25726
G1 X150.011 Y150.78 E9.26942
G1 X149.832 Y151.068 E9.28126
G1 X149.646 Y151.329 E9.29246
G1 X149.478 Y151.529 E9.30158
G1 X149.295 Y151.718 E9.31077
G1 X149.201 Y151.798 E9.31508
G1 X149.189 Y151.718 E9.3179
G1 X149.17 Y151.461 E9.3269
G1 X149.171 Y151.171 E9.33703
G1 X149.178 Y151.108 E9.33924
G1 X149.197 Y151.034 E9.34191
G1 X149.318 Y150.697 E9.35442
G1 X149.434 Y150.421 E9.36487
G1 X149.608 Y150.034 E9.37969
G1 X149.765 Y149.72 E9.39195
G1 X149.91 Y149.446 E9.40278
G1 X150.089 Y149.138 E9.41522
G1 X150.233 Y148.916 E9.42446
G0 F1080 X150.269 Y148.86
G0 X150.404 Y148.679
G0 X150.584 Y148.471
G1 F1500 E3.92446
;MESH:4-screw-1.stl
G0 F6000 X149.301 Y147.785
G0 X148.253 Y148.314
;TYPE:WALL-INNER
G1 F1500 E9.42446
G1 F1200 X148.183 Y148.443 E9.42934
G1 X148.175 Y148.458 E9.42991
G1 X148.016 Y148.749 E9.44093
G1 X147.983 Y148.81 E9.44324
G1 X147.874 Y149.03 E9.45141
G1 X147.796 Y149.186 E9.45721
G1 X147.724 Y149.347 E9.46307
G1 X147.648 Y149.517 E9.46927
G1 X147.693 Y149.334 E9.46958
G1 X147.753 Y149.171 E9.47009
G1 X147.816 Y149.002 E9.471
G1 X147.927 Y148.782 E9.47231
G1 X147.96 Y148.719
