;FLAVOR:Marlin
M117 Time Left 1h07m08s
;Filament used: 2.62573m
;Layer height: 0.2
;MINX:112.577
;MINY:112.568
;MINZ:0.2
;MAXX:187.423
;MAXY:186.472
;MAXZ:10.2
;POSTPROCESSED
;Generated with Cura_SteamEngine 4.6.0
M140 S58
M105
M190 S58
M104 S195
M105
M109 S195
M82 ;absolute extrusion mode
M201 X500.00 Y500.00 Z100.00 E5000.00 ;Setup machine max acceleration
M203 X500.00 Y500.00 Z10.00 E50.00 ;Setup machine max feedrate
M204 P500.00 R1000.00 T500.00 ;Setup Print/Retract/Travel acceleration
M205 X8.00 Y8.00 Z0.40 E5.00 ;Setup Jerk
M220 S100 ;Reset Feedrate
M221 S100 ;Reset Flowrate

G28 ;Home

G92 E0 ;Reset Extruder
G1 Z2.0 F3000 ;Move Z Axis up
G1 X10.1 Y20 Z0.28 F5000.0 ;Move to start position
G1 X10.1 Y200.0 Z0.28 F1500.0 E15 ;Draw the first line
G1 X10.4 Y200.0 Z0.28 F5000.0 ;Move to side a little
G1 X10.4 Y20 Z0.28 F1500.0 E30 ;Draw the second line
G92 E0 ;Reset Extruder
G1 Z2.0 F3000 ;Move Z Axis up

G92 E0
G92 E0
G1 F1500 E-5.5
;LAYER_COUNT:51
;LAYER:0
M107
G0 F6000 X152.049 Y113.521 Z0.2
;TYPE:SKIRT
G1 F1500 E0
G1 F1200 X155.32 Y113.914 E0.11506
G1 X156.662 Y114.101 E0.16237
G1 X158.117 Y114.342 E0.21388
G1 X158.845 Y114.472 E0.23971
G1 X160.19 Y114.807 E0.28811
G1 X160.577 Y114.938 E0.30238
G1 X161.224 Y115.171 E0.3264
G1 X163.968 Y116.197 E0.42871
G1 X164.65 Y116.463 E0.45427
G1 X165.427 Y116.804 E0.4839
G1 X166.029 Y117.102 E0.50736
G1 X168.12 Y118.193 E0.58973
G1 X168.707 Y118.509 E0.61301
G1 X169.061 Y118.709 E0.62721
G1 X169.083 Y118.722 E0.6281
G1 X169.726 Y119.134 E0.65477
G1 X170.362 Y119.589 E0.68208
G1 X172.789 Y121.397 E0.78777
G1 X173.524 Y121.967 E0.82026
G1 X173.562 Y121.998 E0.82197
G1 X173.981 Y122.36 E0.84131
G1 X174.553 Y122.882 E0.86835
G1 X176.356 Y124.571 E0.95463
G1 X176.79 Y124.99 E0.9757
G1 X177.264 Y125.478 E0.99946
G1 X178.064 Y126.451 E1.04345
G1 X178.614 Y127.214 E1.0763
G1 X182.27 Y132.439 E1.299
G1 X182.67 Y133.028 E1.32387
G1 X183.144 Y133.796 E1.35539
G1 X183.381 Y134.248 E1.37321
G1 X183.749 Y135.073 E1.40476
G1 X183.979 Y135.72 E1.42874
G1 X184.248 Y136.569 E1.45984
G1 X186.02 Y142.429 E1.67364
G1 X186.206 Y143.077 E1.69719
G1 X186.417 Y143.955 E1.72872
G1 X186.549 Y144.848 E1.76025
G1 X186.6 Y145.689 E1.78967
G1 X186.623 Y146.952 E1.83379
G1 X186.622 Y153.501 E2.0625
G1 X186.613 Y154.122 E2.08419
G1 X186.527 Y155.303 E2.12554
G1 X186.504 Y155.478 E2.1317
G1 X186.347 Y156.367 E2.16323
G1 X186.193 Y156.971 E2.185
G1 X185.983 Y157.697 E2.21139
G1 X184.179 Y163.653 E2.42873
G1 X183.981 Y164.275 E2.45152
G1 X183.732 Y164.969 E2.47727
G1 X183.72 Y164.999 E2.4784
G1 X183.348 Y165.822 E2.50994
G1 X182.699 Y166.925 E2.55464
G1 X182.136 Y167.756 E2.58969
G1 X178.456 Y173.011 E2.81374
G1 X178.107 Y173.494 E2.83455
G1 X177.728 Y173.987 E2.85626
G1 X176.84 Y174.961 E2.90229
G1 X176.175 Y175.599 E2.93448
G1 X174.199 Y177.443 E3.02887
G1 X173.767 Y177.827 E3.04905
G1 X173.358 Y178.164 E3.06756
G1 X172.693 Y178.682 E3.097
G1 X170.521 Y180.328 E3.19217
G1 X170.039 Y180.682 E3.21306
G1 X169.238 Y181.215 E3.24666
G1 X168.33 Y181.709 E3.28276
G1 X167.307 Y182.2 E3.32239
G1 X163.728 Y183.839 E3.45986
G1 X163.242 Y184.046 E3.47831
G1 X162.458 Y184.357 E3.50776
G1 X161.866 Y184.574 E3.52978
G1 X160.715 Y184.906 E3.57162
G1 X159.916 Y185.086 E3.60022
G1 X159.542 Y185.162 E3.61355
G1 X158.986 Y185.264 E3.63329
G1 X158.974 Y185.266 E3.63371
G1 X158.077 Y185.375 E3.66527
G1 X157.457 Y185.404 E3.68695
G1 X157.07 Y185.41 E3.70046
G1 X154.455 Y185.491 E3.79183
G1 X152.877 Y185.577 E3.84702
G1 X151.585 Y185.654 E3.89222
G1 X151.087 Y185.669 E3.90962
G1 X150.759 Y185.672 E3.92108
G1 X149.375 Y185.671 E3.96941
G1 X148.67 Y185.661 E3.99403
G1 X147.987 Y185.629 E4.01791
G1 X145.463 Y185.485 E4.1062
G1 X142.436 Y185.4 E4.21196
G1 X141.249 Y185.3 E4.25356
G1 X140.958 Y185.255 E4.26384
G1 X140.387 Y185.153 E4.2841
G1 X139.847 Y185.042 E4.30335
G1 X139.423 Y184.947 E4.31852
G1 X138.266 Y184.615 E4.36056
G1 X137.857 Y184.471 E4.3757
G1 X137.482 Y184.331 E4.38968
G1 X136.852 Y184.081 E4.41335
G1 X136.511 Y183.938 E4.42627
G1 X135.863 Y183.652 E4.451
G1 X132.374 Y182.053 E4.58504
G1 X131.72 Y181.742 E4.61033
G1 X130.922 Y181.318 E4.64189
G1 X130.071 Y180.758 E4.67746
G1 X129.254 Y180.157 E4.71288
G1 X127.424 Y178.768 E4.79312
G1 X126.656 Y178.173 E4.82705
G1 X126.181 Y177.783 E4.84851
G1 X125.91 Y177.544 E4.86113
G1 X125.521 Y177.187 E4.87957
G1 X123.644 Y175.429 E4.96938
G1 X123.167 Y174.97 E4.9925
G1 X122.281 Y174 E5.03838
G1 X122.188 Y173.884 E5.04357
G1 X121.85 Y173.438 E5.06311
G1 X121.454 Y172.884 E5.08689
G1 X117.737 Y167.568 E5.31343
G1 X117.316 Y166.948 E5.3396
G1 X116.719 Y165.951 E5.38018
G1 X116.708 Y165.93 E5.38101
G1 X116.324 Y165.112 E5.41257
G1 X116.07 Y164.433 E5.43789
G1 X115.902 Y163.922 E5.45667
G1 X115.795 Y163.575 E5.46935
G1 X113.99 Y157.604 E5.6872
G1 X113.783 Y156.879 E5.71353
G1 X113.501 Y155.574 E5.76016
G1 X113.497 Y155.547 E5.76111
G1 X113.393 Y154.397 E5.80144
G1 X113.377 Y153.722 E5.82501
G1 X113.378 Y146.502 E6.07716
G1 X113.388 Y145.803 E6.10157
G1 X113.405 Y145.35 E6.11741
G1 X113.406 Y145.333 E6.118
G1 X113.498 Y144.435 E6.14952
G1 X113.67 Y143.548 E6.18108
G1 X113.798 Y143.069 E6.19839
G1 X114.127 Y141.945 E6.23929
G1 X115.801 Y136.41 E6.44124
G1 X116.018 Y135.725 E6.46634
G1 X116.329 Y134.877 E6.49788
G1 X116.713 Y134.059 E6.52944
G1 X117.289 Y133.096 E6.56862
G1 X117.848 Y132.271 E6.60343
G1 X121.551 Y126.98 E6.82896
G1 X121.853 Y126.563 E6.84695
G1 X122.21 Y126.098 E6.86742
G1 X122.396 Y125.87 E6.87769
G1 X123.244 Y124.952 E6.92134
G1 X123.666 Y124.55 E6.94169
G1 X125.552 Y122.787 E7.03185
G1 X126.043 Y122.342 E7.055
G1 X126.554 Y121.907 E7.07843
G1 X126.842 Y121.679 E7.09126
G1 X127.191 Y121.413 E7.10658
G1 X129.563 Y119.648 E7.20984
G1 X130.127 Y119.24 E7.23415
G1 X130.699 Y118.854 E7.25825
G1 X130.715 Y118.844 E7.25891
G1 X131.12 Y118.604 E7.27535
G1 X131.754 Y118.257 E7.30059
G1 X134.16 Y117.007 E7.39528
G1 X134.502 Y116.838 E7.4086
G1 X135.302 Y116.484 E7.43915
G1 X136.237 Y116.119 E7.4742
G1 X138.853 Y115.144 E7.5717
G1 X139.73 Y114.833 E7.6042
G1 X139.742 Y114.829 E7.60464
G1 X140.611 Y114.582 E7.63619
G1 X141.2 Y114.46 E7.6572
G1 X141.96 Y114.328 E7.68414
G1 X143.307 Y114.11 E7.73179
G1 X144.557 Y113.93 E7.77589
G1 X148.248 Y113.487 E7.90572
G1 X148.856 Y113.423 E7.92707
G1 X149.784 Y113.368 E7.95954
G1 X151.047 Y113.418 E8.00368
G1 X151.253 Y113.44 E8.01091
G0 F1080 X152.049 Y113.521
G0 F6000 X152.097 Y113.124
G1 F1200 X155.373 Y113.517 E8.12614
G1 X156.727 Y113.706 E8.17389
G1 X158.187 Y113.948 E8.22557
G1 X158.915 Y114.078 E8.2514
G1 X160.31 Y114.426 E8.30161
G1 X160.713 Y114.562 E8.31646
G1 X161.364 Y114.797 E8.34063
G1 X164.114 Y115.825 E8.44316
G1 X164.796 Y116.091 E8.46873
G1 X165.602 Y116.444 E8.49946
G1 X166.214 Y116.748 E8.52332
G1 X168.31 Y117.84 E8.60586
G1 X168.897 Y118.156 E8.62914
G1 X169.265 Y118.364 E8.6439
G1 X169.287 Y118.377 E8.64479
G1 X169.954 Y118.806 E8.67249
G1 X170.6 Y119.268 E8.70023
G1 X173.032 Y121.08 E8.80614
G1 X173.777 Y121.657 E8.83905
G1 X173.815 Y121.688 E8.84076
G1 X174.25 Y122.064 E8.86084
G1 X174.827 Y122.59 E8.88811
G1 X176.633 Y124.283 E8.97456
G1 X177.067 Y124.702 E8.99563
G1 X177.557 Y125.206 E9.02018
G1 X178.388 Y126.216 E9.06585
G1 X178.942 Y126.985 E9.09895
G1 X182.601 Y132.214 E9.32183
G1 X183.001 Y132.803 E9.3467
G1 X183.485 Y133.586 E9.37885
G1 X183.739 Y134.07 E9.39794
G1 X184.115 Y134.91 E9.43008
G1 X184.36 Y135.598 E9.45558
G1 X184.63 Y136.453 E9.48689
G1 X186.405 Y142.318 E9.70089
G1 X186.591 Y142.966 E9.72444
G1 X186.806 Y143.862 E9.75662
G1 X186.943 Y144.772 E9.78875
G1 X187 Y145.681 E9.82056
G1 X187.023 Y146.952 E9.86496
G1 X187.022 Y153.507 E10.09388
G1 X187.013 Y154.128 E10.11557
G1 X186.924 Y155.355 E10.15853
G1 X186.901 Y155.53 E10.16469
G1 X186.741 Y156.437 E10.19686
G1 X186.577 Y157.081 E10.22007
G1 X186.366 Y157.813 E10.24667
G1 X184.561 Y163.774 E10.46418
G1 X184.363 Y164.396 E10.48698
G1 X184.104 Y165.118 E10.51377
G1 X184.092 Y165.148 E10.5149
G1 X183.713 Y165.987 E10.54705
G1 X183.031 Y167.149 E10.5941
G1 X182.464 Y167.985 E10.62938
G1 X178.78 Y173.245 E10.85365
G1 X178.431 Y173.728 E10.87446
G1 X178.04 Y174.237 E10.89687
G1 X177.117 Y175.249 E10.94471
G1 X176.448 Y175.892 E10.97711
G1 X174.472 Y177.736 E11.0715
G1 X174.029 Y178.129 E11.09218
G1 X173.604 Y178.479 E11.11141
G1 X172.935 Y179 E11.14102
G1 X170.758 Y180.65 E11.23642
G1 X170.276 Y181.004 E11.25731
G1 X169.447 Y181.556 E11.29209
G1 X168.504 Y182.07 E11.32959
G1 X167.473 Y182.563 E11.3695
G1 X163.894 Y184.202 E11.50698
G1 X163.39 Y184.418 E11.52613
G1 X162.606 Y184.729 E11.55558
G1 X161.999 Y184.952 E11.57817
G1 X160.803 Y185.296 E11.62163
G1 X160.004 Y185.476 E11.65023
G1 X159.615 Y185.556 E11.6641
G1 X159.052 Y185.659 E11.68409
G1 X159.04 Y185.661 E11.68451
G1 X158.126 Y185.773 E11.71667
G1 X157.464 Y185.804 E11.73982
G1 X157.089 Y185.81 E11.75291
G1 X154.487 Y185.891 E11.84383
G1 X152.817 Y185.981 E11.90223
G1 X151.599 Y186.054 E11.94485
G1 X151.091 Y186.069 E11.9626
G1 X150.763 Y186.072 E11.97405
G1 X149.37 Y186.071 E12.0227
G1 X148.665 Y186.061 E12.04732
G1 X148.002 Y186.031 E12.0705
G1 X145.431 Y185.885 E12.16043
G1 X142.426 Y185.8 E12.26542
G1 X141.192 Y185.696 E12.30867
G1 X140.593 Y185.598 E12.32986
G1 X139.759 Y185.433 E12.35955
G1 X139.335 Y185.338 E12.37473
G1 X138.133 Y184.992 E12.41841
G1 X137.724 Y184.848 E12.43355
G1 X137.334 Y184.703 E12.44808
G1 X136.704 Y184.453 E12.47175
G1 X136.35 Y184.305 E12.48515
G1 X135.696 Y184.016 E12.51012
G1 X132.202 Y182.414 E12.64436
G1 X131.548 Y182.103 E12.66965
G1 X130.734 Y181.672 E12.70182
G1 X129.835 Y181.08 E12.73941
G1 X129.013 Y180.476 E12.77503
G1 X127.179 Y179.084 E12.85544
G1 X126.411 Y178.489 E12.88937
G1 X125.921 Y178.087 E12.9115
G1 X125.64 Y177.839 E12.92459
G1 X125.247 Y177.479 E12.94321
G1 X123.366 Y175.717 E13.03321
G1 X122.889 Y175.258 E13.05633
G1 X121.969 Y174.25 E13.10399
G1 X121.876 Y174.134 E13.10919
G1 X121.524 Y173.67 E13.12953
G1 X121.126 Y173.113 E13.15343
G1 X117.406 Y167.793 E13.38014
G1 X116.985 Y167.173 E13.40631
G1 X116.364 Y166.136 E13.44852
G1 X116.353 Y166.115 E13.44935
G1 X115.962 Y165.282 E13.48149
G1 X115.69 Y164.56 E13.50843
G1 X115.412 Y163.691 E13.5403
G1 X113.605 Y157.714 E13.75836
G1 X113.398 Y156.989 E13.78469
G1 X113.184 Y156.094 E13.81683
G1 X113.105 Y155.632 E13.8332
G1 X113.101 Y155.605 E13.83415
G1 X112.993 Y154.41 E13.87606
G1 X112.977 Y153.725 E13.89999
G1 X112.978 Y146.496 E14.15244
G1 X112.988 Y145.797 E14.17686
G1 X113.005 Y145.327 E14.19328
G1 X113.006 Y145.31 E14.19388
G1 X113.1 Y144.394 E14.22604
G1 X113.273 Y143.489 E14.25821
G1 X113.414 Y142.956 E14.27747
G1 X113.744 Y141.829 E14.31848
G1 X115.42 Y136.289 E14.52061
G1 X115.637 Y135.604 E14.54571
G1 X115.953 Y134.739 E14.57787
G1 X116.343 Y133.905 E14.61002
G1 X116.958 Y132.872 E14.65201
G1 X117.52 Y132.042 E14.68701
G1 X121.227 Y126.746 E14.91277
G1 X121.529 Y126.329 E14.93075
G1 X121.9 Y125.845 E14.95205
G1 X122.086 Y125.617 E14.96233
G1 X122.968 Y124.663 E15.0077
G1 X123.392 Y124.257 E15.0282
G1 X125.284 Y122.491 E15.11859
G1 X125.775 Y122.046 E15.14173
G1 X126.3 Y121.598 E15.16583
G1 X126.599 Y121.361 E15.17916
G1 X126.952 Y121.092 E15.19465
G1 X129.328 Y119.324 E15.29808
G1 X129.892 Y118.916 E15.32239
G1 X130.487 Y118.515 E15.34745
G1 X130.503 Y118.505 E15.34811
G1 X130.924 Y118.255 E15.36521
G1 X131.569 Y117.902 E15.39089
G1 X133.983 Y116.648 E15.48589
G1 X134.325 Y116.479 E15.49921
G1 X135.156 Y116.112 E15.53094
G1 X136.097 Y115.745 E15.56621
G1 X138.718 Y114.767 E15.66391
G1 X139.604 Y114.454 E15.69672
G1 X139.616 Y114.45 E15.69717
G1 X140.501 Y114.197 E15.72931
G1 X141.131 Y114.066 E15.75178
G1 X141.896 Y113.933 E15.7789
G1 X143.249 Y113.714 E15.82677
G1 X144.51 Y113.533 E15.87126
G1 X148.206 Y113.089 E16.00126
G1 X148.814 Y113.025 E16.02261
G1 X149.775 Y112.968 E16.05623
G1 X151.088 Y113.02 E16.10212
G1 X151.301 Y113.042 E16.1096
G0 F1080 X152.097 Y113.124
G0 F6000 X152.145 Y112.727
G1 F1200 X155.426 Y113.121 E16.22501
G1 X156.792 Y113.312 E16.27317
G1 X158.258 Y113.554 E16.32506
G1 X158.986 Y113.684 E16.35089
G1 X159.901 Y113.888 E16.38363
G1 X160.431 Y114.044 E16.40292
G1 X160.848 Y114.185 E16.4183
G1 X161.504 Y114.422 E16.44266
G1 X164.259 Y115.452 E16.54537
G1 X164.941 Y115.718 E16.57094
G1 X165.778 Y116.085 E16.60286
G1 X166.399 Y116.393 E16.62706
G1 X168.499 Y117.488 E16.70977
G1 X169.086 Y117.804 E16.73306
G1 X169.468 Y118.02 E16.74838
G1 X169.49 Y118.033 E16.74927
G1 X170.183 Y118.478 E16.77804
G1 X170.839 Y118.947 E16.8062
G1 X173.276 Y120.763 E16.91234
G1 X174.029 Y121.347 E16.94562
G1 X174.067 Y121.378 E16.94733
G1 X174.519 Y121.768 E16.96818
G1 X175.1 Y122.298 E16.99564
G1 X176.911 Y123.995 E17.08232
G1 X177.345 Y124.414 E17.10338
G1 X177.849 Y124.933 E17.12865
G1 X178.712 Y125.982 E17.17609
G1 X179.27 Y126.755 E17.20938
G1 X182.932 Y131.989 E17.43247
G1 X183.332 Y132.578 E17.45733
G1 X183.825 Y133.376 E17.49009
G1 X184.097 Y133.891 E17.51043
G1 X184.48 Y134.747 E17.54318
G1 X184.741 Y135.477 E17.57025
G1 X185.013 Y136.337 E17.60175
G1 X186.789 Y142.208 E17.81596
G1 X186.975 Y142.856 E17.83951
G1 X187.195 Y143.768 E17.87227
G1 X187.337 Y144.695 E17.90502
G1 X187.4 Y145.673 E17.93925
G1 X187.423 Y146.952 E17.98392
G1 X187.422 Y153.512 E18.21302
G1 X187.413 Y154.133 E18.23471
G1 X187.32 Y155.407 E18.27932
G1 X187.297 Y155.582 E18.28548
G1 X187.135 Y156.506 E18.31824
G1 X186.962 Y157.192 E18.34295
G1 X186.748 Y157.929 E18.36975
G1 X184.942 Y163.896 E18.58747
G1 X184.744 Y164.518 E18.61027
G1 X184.475 Y165.266 E18.63803
G1 X184.463 Y165.296 E18.63916
G1 X184.078 Y166.151 E18.6719
G1 X183.622 Y166.971 E18.70467
G1 X183.362 Y167.373 E18.72139
G1 X182.791 Y168.214 E18.75689
G1 X179.104 Y173.479 E18.98136
G1 X178.755 Y173.962 E19.00217
G1 X178.353 Y174.487 E19.02527
G1 X177.736 Y175.193 E19.05801
G1 X177.395 Y175.537 E19.07493
G1 X176.721 Y176.184 E19.10756
G1 X174.745 Y178.028 E19.20194
G1 X174.291 Y178.431 E19.22314
G1 X173.851 Y178.794 E19.24307
G1 X173.177 Y179.319 E19.2729
G1 X170.994 Y180.973 E19.36855
G1 X170.512 Y181.327 E19.38944
G1 X169.656 Y181.897 E19.42535
G1 X168.677 Y182.43 E19.46428
G1 X167.64 Y182.927 E19.50444
G1 X164.061 Y184.566 E19.64191
G1 X163.537 Y184.79 E19.66181
G1 X162.753 Y185.101 E19.69127
G1 X162.132 Y185.329 E19.71437
G1 X160.891 Y185.686 E19.75947
G1 X160.092 Y185.866 E19.78807
G1 X159.689 Y185.949 E19.80244
G1 X159.117 Y186.053 E19.82274
G1 X159.105 Y186.055 E19.82317
G1 X158.175 Y186.17 E19.8559
G1 X157.47 Y186.204 E19.88054
G1 X157.107 Y186.21 E19.89322
G1 X154.478 Y186.292 E19.98508
G1 X152.858 Y186.379 E20.04174
G1 X151.614 Y186.454 E20.08526
G1 X151.095 Y186.469 E20.10339
G1 X150.767 Y186.472 E20.11485
G1 X149.364 Y186.471 E20.16385
G1 X148.659 Y186.461 E20.18847
G1 X147.953 Y186.429 E20.21315
G1 X145.396 Y186.283 E20.30259
G1 X142.776 Y186.208 E20.39413
G1 X142.776 Y186.209 E20.39417
G1 X142.416 Y186.2 E20.40674
G1 X141.135 Y186.092 E20.45164
G1 X140.525 Y185.992 E20.47322
G1 X139.672 Y185.823 E20.50359
G1 X139.248 Y185.728 E20.51877
G1 X138 Y185.37 E20.56411
G1 X137.591 Y185.226 E20.57925
G1 X137.187 Y185.074 E20.59433
G1 X136.557 Y184.824 E20.618
G1 X136.189 Y184.671 E20.63192
G1 X135.529 Y184.379 E20.65712
G1 X132.03 Y182.775 E20.79154
G1 X131.376 Y182.464 E20.81683
G1 X130.547 Y182.025 E20.84959
G1 X129.598 Y181.403 E20.88922
G1 X128.771 Y180.795 E20.92507
G1 X126.934 Y179.401 E21.0056
G1 X126.166 Y178.806 E21.03953
G1 X125.662 Y178.392 E21.06231
G1 X125.37 Y178.134 E21.07592
G1 X124.974 Y177.771 E21.09468
G1 X123.089 Y176.005 E21.18488
G1 X122.612 Y175.546 E21.208
G1 X121.964 Y174.868 E21.24076
G1 X121.564 Y174.385 E21.26266
G1 X121.199 Y173.903 E21.28377
G1 X120.799 Y173.342 E21.30783
G1 X117.075 Y168.017 E21.53476
G1 X116.654 Y167.397 E21.56094
G1 X116.01 Y166.322 E21.6047
G1 X115.999 Y166.301 E21.60553
G1 X115.599 Y165.452 E21.6383
G1 X115.311 Y164.686 E21.66688
G1 X115.137 Y164.158 E21.6863
G1 X115.029 Y163.807 E21.69912
G1 X113.221 Y157.824 E21.9174
G1 X113.014 Y157.099 E21.94373
G1 X112.795 Y156.187 E21.97649
G1 X112.71 Y155.691 E21.99406
G1 X112.706 Y155.664 E21.99501
G1 X112.593 Y154.424 E22.0385
