;FLAVOR:Marlin
M117 Time Left 0h19m35s
;Filament used: 0.513987m
;Layer height: 0.2
;MINX:132.798
;MINY:136.414
;MINZ:0.2
;MAXX:167.202
;MAXY:163.586
;MAXZ:16.4
;POSTPROCESSED
;Generated with Cura_SteamEngine 4.6.0
M140 S58
M105
M190 S58
M104 S195
M105
M109 S195
M82 ;absolute extrusion mode
M201 X500.00 Y500.00 Z100.00 E5000.00 ;Setup machine max acceleration
M203 X500.00 Y500.00 Z10.00 E50.00 ;Setup machine max feedrate
M204 P500.00 R1000.00 T500.00 ;Setup Print/Retract/Travel acceleration
M205 X8.00 Y8.00 Z0.40 E5.00 ;Setup Jerk
M220 S100 ;Reset Feedrate
M221 S100 ;Reset Flowrate

G28 ;Home

G92 E0 ;Reset Extruder
G1 Z2.0 F3000 ;Move Z Axis up
G1 X10.1 Y20 Z0.28 F5000.0 ;Move to start position
G1 X10.1 Y200.0 Z0.28 F1500.0 E15 ;Draw the first line
G1 X10.4 Y200.0 Z0.28 F5000.0 ;Move to side a little
G1 X10.4 Y20 Z0.28 F1500.0 E30 ;Draw the second line
G92 E0 ;Reset Extruder
G1 Z2.0 F3000 ;Move Z Axis up

G92 E0
G92 E0
G1 F1500 E-5.5
;LAYER_COUNT:82
;LAYER:0
M107
G0 F6000 X138.101 Y138.776 Z0.2
;TYPE:SKIRT
G1 F1500 E0
G1 F1200 X138.679 Y138.239 E0.02755
G1 X139.309 Y137.763 E0.05513
G1 X139.984 Y137.352 E0.08273
G1 X140.697 Y137.012 E0.11031
G1 X141.44 Y136.746 E0.13787
G1 X142.207 Y136.557 E0.16546
G1 X142.989 Y136.446 E0.19305
G1 X143.693 Y136.414 E0.21766
G1 X143.862 Y136.414 E0.22356
G1 X144.651 Y136.454 E0.25115
G1 X145.431 Y136.573 E0.2787
G1 X146.196 Y136.771 E0.3063
G1 X146.936 Y137.045 E0.33386
G1 X147.645 Y137.393 E0.36144
G1 X148.316 Y137.811 E0.38905
G1 X148.94 Y138.294 E0.41661
G1 X149.456 Y138.778 E0.44131
G1 X150 Y139.338 E0.46858
G1 X150.544 Y138.778 E0.49584
G1 X151.122 Y138.24 E0.52342
G1 X151.752 Y137.764 E0.551
G1 X152.427 Y137.354 E0.57858
G1 X153.139 Y137.013 E0.60615
G1 X153.883 Y136.747 E0.63374
G1 X154.649 Y136.557 E0.6613
G1 X155.431 Y136.446 E0.68889
G1 X156.138 Y136.414 E0.7136
G1 X156.307 Y136.414 E0.7195
G1 X157.096 Y136.454 E0.74709
G1 X157.876 Y136.573 E0.77465
G1 X158.641 Y136.771 E0.80225
G1 X159.381 Y137.045 E0.8298
G1 X160.09 Y137.393 E0.85739
G1 X160.761 Y137.811 E0.88499
G1 X161.385 Y138.294 E0.91255
G1 X161.899 Y138.776 E0.93716
G1 X164.994 Y141.959 E1.09221
G1 X165.515 Y142.553 E1.1198
G1 X165.974 Y143.196 E1.14739
G1 X166.365 Y143.882 E1.17497
G1 X166.685 Y144.604 E1.20255
G1 X166.93 Y145.354 E1.2301
G1 X167.098 Y146.126 E1.25769
G1 X167.187 Y146.911 E1.28528
G1 X167.202 Y147.397 E1.30226
G1 X167.202 Y147.56 E1.30796
G1 X167.162 Y148.349 E1.33554
G1 X167.043 Y149.129 E1.3631
G1 X166.845 Y149.894 E1.3907
G1 X166.803 Y150.008 E1.39494
G1 X166.91 Y150.327 E1.40669
G1 X167.085 Y151.097 E1.43427
G1 X167.182 Y151.881 E1.46186
G1 X167.202 Y152.44 E1.48139
G1 X167.202 Y152.604 E1.48712
G1 X167.162 Y153.393 E1.51471
G1 X167.043 Y154.173 E1.54226
G1 X166.845 Y154.938 E1.56986
G1 X166.571 Y155.678 E1.59742
G1 X166.223 Y156.387 E1.625
G1 X165.805 Y157.058 E1.65261
G1 X165.322 Y157.682 E1.68016
G1 X164.993 Y158.042 E1.6972
G1 X161.898 Y161.224 E1.85222
G1 X161.32 Y161.762 E1.87979
G1 X160.69 Y162.238 E1.90737
G1 X160.015 Y162.648 E1.93495
G1 X159.302 Y162.988 E1.96254
G1 X158.559 Y163.254 E1.9901
G1 X157.792 Y163.443 E2.01769
G1 X157.01 Y163.554 E2.04527
G1 X156.307 Y163.586 E2.06985
G1 X156.138 Y163.586 E2.07575
G1 X155.349 Y163.546 E2.10334
G1 X154.569 Y163.427 E2.13089
G1 X153.804 Y163.229 E2.15849
G1 X153.064 Y162.955 E2.18605
G1 X152.355 Y162.607 E2.21363
G1 X151.684 Y162.189 E2.24124
G1 X151.06 Y161.706 E2.26879
G1 X150.544 Y161.222 E2.2935
G1 X150 Y160.662 E2.32077
G1 X149.453 Y161.224 E2.34816
G1 X148.875 Y161.761 E2.37571
G1 X148.245 Y162.237 E2.40328
G1 X147.57 Y162.648 E2.43088
G1 X146.857 Y162.988 E2.45847
G1 X146.114 Y163.254 E2.48603
G1 X145.347 Y163.443 E2.51362
G1 X144.565 Y163.554 E2.5412
G1 X143.861 Y163.586 E2.56581
G1 X143.693 Y163.586 E2.57168
G1 X142.904 Y163.546 E2.59927
G1 X142.124 Y163.427 E2.62682
G1 X141.359 Y163.229 E2.65442
G1 X140.619 Y162.955 E2.68198
G1 X139.91 Y162.607 E2.70956
G1 X139.239 Y162.189 E2.73717
G1 X138.615 Y161.706 E2.76473
G1 X138.101 Y161.224 E2.78934
G1 X135.006 Y158.041 E2.94438
G1 X134.485 Y157.447 E2.97198
G1 X134.026 Y156.804 E2.99957
G1 X133.635 Y156.118 E3.02714
G1 X133.315 Y155.396 E3.05472
G1 X133.07 Y154.646 E3.08228
G1 X132.902 Y153.874 E3.10987
G1 X132.813 Y153.089 E3.13746
G1 X132.798 Y152.603 E3.15444
G1 X132.798 Y152.439 E3.16017
G1 X132.838 Y151.65 E3.18776
G1 X132.957 Y150.87 E3.21531
G1 X133.155 Y150.105 E3.24291
G1 X133.197 Y149.991 E3.24715
G1 X133.081 Y149.641 E3.26003
G1 X132.909 Y148.87 E3.28761
G1 X132.816 Y148.086 E3.31519
G1 X132.798 Y147.56 E3.33357
G1 X132.798 Y147.397 E3.33926
G1 X132.838 Y146.608 E3.36685
G1 X132.957 Y145.828 E3.3944
G1 X133.155 Y145.063 E3.422
G1 X133.429 Y144.323 E3.44956
G1 X133.777 Y143.614 E3.47714
G1 X134.195 Y142.943 E3.50475
G1 X134.678 Y142.319 E3.53231
G1 X135.006 Y141.959 E3.54931
G1 X137.544 Y139.349 E3.67645
G0 F1080 X138.101 Y138.776
G0 F6000 X138.388 Y139.055
G1 F1200 X138.952 Y138.532 E3.70332
G1 X139.567 Y138.071 E3.73016
G1 X140.227 Y137.676 E3.75702
G1 X140.924 Y137.351 E3.78388
G1 X141.652 Y137.101 E3.81076
G1 X142.401 Y136.928 E3.8376
G1 X143.164 Y136.833 E3.86446
G1 X143.693 Y136.814 E3.88294
G1 X143.862 Y136.814 E3.88884
G1 X144.63 Y136.854 E3.9157
G1 X145.39 Y136.973 E3.94257
G1 X146.133 Y137.171 E3.96942
G1 X146.852 Y137.445 E3.99629
G1 X147.538 Y137.792 E4.02314
G1 X148.185 Y138.208 E4.05
G1 X148.785 Y138.689 E4.07686
G1 X149.169 Y139.057 E4.09543
G1 X150 Y139.912 E4.13707
G1 X150.831 Y139.057 E4.17871
G1 X151.395 Y138.534 E4.20557
G1 X152.01 Y138.072 E4.23244
G1 X152.67 Y137.677 E4.2593
G1 X153.367 Y137.352 E4.28615
G1 X154.094 Y137.102 E4.313
G1 X154.844 Y136.928 E4.33989
G1 X155.607 Y136.833 E4.36674
G1 X156.138 Y136.814 E4.3853
G1 X156.307 Y136.814 E4.3912
G1 X157.075 Y136.854 E4.41806
G1 X157.835 Y136.973 E4.44492
G1 X158.578 Y137.171 E4.47178
G1 X159.297 Y137.445 E4.49865
G1 X159.983 Y137.792 E4.5255
G1 X160.63 Y138.208 E4.55236
G1 X161.23 Y138.689 E4.57921
G1 X161.612 Y139.055 E4.59769
G1 X164.707 Y142.238 E4.75274
G1 X165.214 Y142.817 E4.77961
G1 X165.658 Y143.445 E4.80647
G1 X166.035 Y144.116 E4.83335
G1 X166.339 Y144.822 E4.8602
G1 X166.569 Y145.556 E4.88706
G1 X166.722 Y146.31 E4.91393
G1 X166.802 Y147.397 E4.95199
G1 X166.802 Y147.56 E4.95768
G1 X166.762 Y148.328 E4.98454
G1 X166.643 Y149.088 E5.01141
G1 X166.445 Y149.831 E5.03826
G1 X166.38 Y150.001 E5.04462
G1 X166.552 Y150.532 E5.06411
G1 X166.711 Y151.284 E5.09095
G1 X166.792 Y152.049 E5.11782
G1 X166.802 Y152.604 E5.1372
G1 X166.762 Y153.372 E5.16406
G1 X166.643 Y154.132 E5.19093
G1 X166.445 Y154.875 E5.21778
G1 X166.171 Y155.594 E5.24465
G1 X165.824 Y156.28 E5.2715
G1 X165.408 Y156.927 E5.29836
G1 X164.707 Y157.764 E5.33649
G1 X161.612 Y160.946 E5.49151
G1 X161.047 Y161.468 E5.51837
G1 X160.432 Y161.93 E5.54524
G1 X159.772 Y162.325 E5.5721
G1 X159.075 Y162.649 E5.59894
G1 X158.347 Y162.899 E5.62582
G1 X157.598 Y163.073 E5.65268
G1 X156.835 Y163.167 E5.67953
G1 X156.307 Y163.186 E5.69798
G1 X156.138 Y163.186 E5.70388
G1 X155.37 Y163.146 E5.73074
G1 X154.61 Y163.027 E5.7576
G1 X153.867 Y162.829 E5.78445
G1 X153.148 Y162.555 E5.81133
G1 X152.462 Y162.208 E5.83817
G1 X151.815 Y161.792 E5.86504
G1 X151.215 Y161.311 E5.89189
G1 X150.831 Y160.943 E5.91047
G1 X150 Y160.088 E5.95211
G1 X149.166 Y160.945 E5.99387
G1 X148.602 Y161.468 E6.02073
G1 X147.987 Y161.929 E6.04757
G1 X147.327 Y162.324 E6.07443
G1 X146.63 Y162.649 E6.10129
G1 X145.902 Y162.899 E6.12817
G1 X145.153 Y163.072 E6.15502
G1 X144.39 Y163.167 E6.18187
G1 X143.861 Y163.186 E6.20036
G1 X143.693 Y163.186 E6.20622
G1 X142.925 Y163.146 E6.23308
G1 X142.165 Y163.027 E6.25995
G1 X141.422 Y162.829 E6.2868
G1 X140.703 Y162.555 E6.31367
G1 X140.017 Y162.208 E6.34052
G1 X139.37 Y161.792 E6.36738
G1 X138.77 Y161.311 E6.39424
G1 X138.388 Y160.945 E6.41271
G1 X135.293 Y157.762 E6.56776
G1 X134.786 Y157.183 E6.59464
G1 X134.342 Y156.555 E6.6215
G1 X133.965 Y155.884 E6.64837
G1 X133.661 Y155.178 E6.67522
G1 X133.431 Y154.444 E6.70208
G1 X133.278 Y153.69 E6.72895
G1 X133.198 Y152.603 E6.76701
G1 X133.198 Y152.439 E6.77274
G1 X133.238 Y151.671 E6.7996
G1 X133.357 Y150.911 E6.82646
G1 X133.555 Y150.168 E6.85332
G1 X133.619 Y149.999 E6.85963
G1 X133.44 Y149.438 E6.88019
G1 X133.284 Y148.685 E6.90705
G1 X133.198 Y147.56 E6.94645
G1 X133.198 Y147.397 E6.95214
G1 X133.238 Y146.629 E6.979
G1 X133.357 Y145.869 E7.00587
G1 X133.555 Y145.126 E7.03272
G1 X133.829 Y144.407 E7.05959
G1 X134.176 Y143.721 E7.08644
G1 X134.592 Y143.074 E7.1133
G1 X135.293 Y142.238 E7.1514
G1 X137.831 Y139.628 E7.27854
G0 F1080 X138.388 Y139.055
G0 F6000 X138.674 Y139.334
G1 F1200 X139.224 Y138.826 E7.30469
G1 X139.824 Y138.38 E7.3308
G1 X140.469 Y138.001 E7.35693
G1 X141.15 Y137.692 E7.38304
G1 X141.861 Y137.458 E7.40918
G1 X142.592 Y137.301 E7.43529
G1 X143.693 Y137.214 E7.47386
G1 X143.862 Y137.214 E7.47977
G1 X144.609 Y137.254 E7.50589
G1 X145.347 Y137.373 E7.532
G1 X146.069 Y137.571 E7.55814
G1 X146.765 Y137.844 E7.58425
G1 X147.428 Y138.191 E7.61039
G1 X148.051 Y138.606 E7.63653
G1 X148.882 Y139.336 E7.67516
G1 X150 Y140.487 E7.73119
G1 X151.118 Y139.336 E7.78723
G1 X151.667 Y138.828 E7.81335
G1 X152.267 Y138.382 E7.83946
G1 X152.912 Y138.002 E7.86561
G1 X153.593 Y137.693 E7.89172
G1 X154.304 Y137.459 E7.91786
G1 X155.035 Y137.301 E7.94398
G1 X156.138 Y137.214 E7.98262
G1 X156.307 Y137.214 E7.98852
G1 X157.054 Y137.254 E8.01465
G1 X157.792 Y137.373 E8.04075
G1 X158.514 Y137.571 E8.0669
G1 X159.21 Y137.844 E8.09301
G1 X159.873 Y138.191 E8.11914
G1 X160.496 Y138.606 E8.14528
G1 X161.326 Y139.334 E8.18384
G1 X164.421 Y142.517 E8.33889
G1 X164.913 Y143.081 E8.36503
G1 X165.342 Y143.693 E8.39113
G1 X165.703 Y144.348 E8.41724
G1 X165.993 Y145.038 E8.44338
G1 X166.207 Y145.755 E8.46952
G1 X166.343 Y146.49 E8.49562
G1 X166.402 Y147.397 E8.52736
G1 X166.402 Y147.56 E8.53305
G1 X166.362 Y148.307 E8.55918
G1 X166.243 Y149.045 E8.58529
G1 X166.045 Y149.767 E8.61143
G1 X165.958 Y149.99 E8.61979
G1 X165.97 Y150.019 E8.62089
G1 X166.191 Y150.734 E8.64702
G1 X166.334 Y151.468 E8.67314
G1 X166.402 Y152.44 E8.70717
G1 X166.402 Y152.604 E8.71289
G1 X166.362 Y153.351 E8.73902
G1 X166.243 Y154.089 E8.76512
G1 X166.045 Y154.811 E8.79127
G1 X165.772 Y155.507 E8.81738
G1 X165.425 Y156.17 E8.84351
G1 X165.01 Y156.793 E8.86966
G1 X164.42 Y157.485 E8.90141
G1 X161.325 Y160.667 E9.05643
G1 X160.775 Y161.174 E9.08256
G1 X160.175 Y161.62 E9.10867
G1 X159.53 Y162 E9.13481
G1 X158.849 Y162.308 E9.16091
G1 X158.138 Y162.542 E9.18705
G1 X157.407 Y162.699 E9.21316
G1 X156.307 Y162.786 E9.2517
G1 X156.138 Y162.786 E9.2576
G1 X155.391 Y162.746 E9.28373
G1 X154.653 Y162.627 E9.30983
G1 X153.931 Y162.429 E9.33598
G1 X153.235 Y162.156 E9.36209
G1 X152.572 Y161.809 E9.38822
G1 X151.949 Y161.394 E9.41436
G1 X151.118 Y160.664 E9.45299
G1 X150 Y159.514 E9.50901
G1 X148.88 Y160.666 E9.56512
G1 X148.33 Y161.174 E9.59126
G1 X147.73 Y161.62 E9.61737
G1 X147.085 Y161.999 E9.6435
G1 X146.404 Y162.308 E9.66962
G1 X145.693 Y162.542 E9.69576
G1 X144.962 Y162.699 E9.72187
G1 X143.861 Y162.786 E9.76044
G1 X143.693 Y162.786 E9.7663
G1 X142.946 Y162.746 E9.79243
G1 X142.208 Y162.627 E9.81854
G1 X141.486 Y162.429 E9.84468
G1 X140.79 Y162.156 E9.87079
G1 X140.127 Y161.809 E9.89692
G1 X139.504 Y161.394 E9.92307
G1 X138.674 Y160.666 E9.96162
G1 X135.579 Y157.483 E10.11667
G1 X135.087 Y156.919 E10.14281
G1 X134.658 Y156.307 E10.16891
G1 X134.297 Y155.652 E10.19503
G1 X134.007 Y154.962 E10.22117
G1 X133.793 Y154.245 E10.2473
G1 X133.657 Y153.51 E10.2734
G1 X133.598 Y152.603 E10.30514
G1 X133.598 Y152.439 E10.31087
G1 X133.638 Y151.692 E10.337
G1 X133.757 Y150.954 E10.3631
G1 X133.955 Y150.232 E10.38925
G1 X134.043 Y150.007 E10.39768
G1 X134.02 Y149.953 E10.39973
G1 X133.802 Y149.237 E10.42587
G1 X133.662 Y148.502 E10.452
G1 X133.598 Y147.56 E10.48498
G1 X133.598 Y147.397 E10.49067
G1 X133.638 Y146.65 E10.51679
G1 X133.757 Y145.912 E10.5429
G1 X133.955 Y145.19 E10.56905
G1 X134.228 Y144.494 E10.59515
G1 X134.575 Y143.831 E10.62129
G1 X134.99 Y143.208 E10.64743
G1 X135.579 Y142.517 E10.67914
G1 X138.117 Y139.907 E10.80628
G0 F1080 X138.674 Y139.334
G0 F6000 X138.961 Y139.613
G1 F1200 X139.495 Y139.121 E10.83164
G1 X140.08 Y138.69 E10.85701
G1 X140.709 Y138.327 E10.88237
G1 X141.374 Y138.035 E10.90774
G1 X142.067 Y137.817 E10.93311
G1 X142.78 Y137.677 E10.95849
G1 X143.693 Y137.614 E10.99045
G1 X143.862 Y137.614 E10.99635
G1 X144.587 Y137.654 E11.02171
G1 X145.304 Y137.773 E11.04709
G1 X146.003 Y137.971 E11.07246
G1 X146.676 Y138.244 E11.09782
G1 X147.315 Y138.589 E11.12318
G1 X147.912 Y139.003 E11.14856
G1 X148.595 Y139.614 E11.18056
G1 X150 Y141.06 E11.25097
G1 X151.405 Y139.614 E11.32138
G1 X151.939 Y139.122 E11.34674
G1 X152.524 Y138.692 E11.37209
G1 X153.152 Y138.328 E11.39744
G1 X153.817 Y138.035 E11.42282
G1 X154.51 Y137.818 E11.44818
G1 X155.223 Y137.678 E11.47356
G1 X156.138 Y137.614 E11.50559
G1 X156.307 Y137.614 E11.51149
G1 X157.032 Y137.654 E11.53685
G1 X157.749 Y137.773 E11.56223
G1 X158.448 Y137.971 E11.58761
G1 X159.121 Y138.244 E11.61297
G1 X159.76 Y138.589 E11.63833
G1 X160.357 Y139.003 E11.6637
G1 X161.039 Y139.613 E11.69566
G1 X164.134 Y142.796 E11.8507
G1 X164.611 Y143.344 E11.87607
G1 X165.025 Y143.941 E11.90145
G1 X165.37 Y144.58 E11.92681
G1 X165.644 Y145.252 E11.95215
G1 X165.842 Y145.951 E11.97752
G1 X165.962 Y146.668 E12.00291
G1 X166.002 Y147.397 E12.02841
G1 X166.002 Y147.56 E12.0341
G1 X165.962 Y148.285 E12.05946
G1 X165.843 Y149.002 E12.08484
G1 X165.645 Y149.701 E12.11021
G1 X165.524 Y149.999 E12.12145
G1 X165.623 Y150.237 E12.13045
G1 X165.828 Y150.934 E12.15582
G1 X165.954 Y151.649 E12.18117
G1 X166.002 Y152.44 E12.20885
G1 X166.002 Y152.604 E12.21458
G1 X165.962 Y153.329 E12.23993
G1 X165.843 Y154.046 E12.26532
G1 X165.645 Y154.745 E12.29069
G1 X165.372 Y155.418 E12.31605
G1 X165.027 Y156.057 E12.34141
G1 X164.613 Y156.654 E12.36678
G1 X164.133 Y157.206 E12.39233
G1 X161.038 Y160.388 E12.54735
G1 X160.504 Y160.88 E12.57271
G1 X159.919 Y161.31 E12.59807
G1 X159.29 Y161.674 E12.62345
G1 X158.625 Y161.966 E12.64881
G1 X157.932 Y162.183 E12.67417
G1 X157.219 Y162.323 E12.69955
G1 X156.307 Y162.386 E12.73147
G1 X156.138 Y162.386 E12.73737
G1 X155.413 Y162.346 E12.76273
G1 X154.696 Y162.227 E12.78811
G1 X153.997 Y162.029 E12.81349
G1 X153.324 Y161.756 E12.83885
G1 X152.685 Y161.411 E12.86421
G1 X152.088 Y160.997 E12.88958
G1 X151.405 Y160.386 E12.92159
G1 X150 Y158.94 E12.992
G1 X148.593 Y160.387 E13.06248
G1 X148.059 Y160.879 E13.08784
G1 X147.474 Y161.31 E13.11321
G1 X146.845 Y161.673 E13.13858
G1 X146.18 Y161.965 E13.16394
G1 X145.487 Y162.183 E13.18931
G1 X144.774 Y162.323 E13.21469
G1 X143.861 Y162.386 E13.24665
G1 X143.693 Y162.386 E13.25252
G1 X142.968 Y162.346 E13.27787
G1 X142.251 Y162.227 E13.30326
G1 X141.552 Y162.029 E13.32863
G1 X140.879 Y161.756 E13.35399
G1 X140.24 Y161.411 E13.37935
G1 X139.643 Y160.997 E13.40472
G1 X138.961 Y160.387 E13.43668
G1 X135.866 Y157.204 E13.59172
G1 X135.389 Y156.656 E13.6171
G1 X134.975 Y156.059 E13.64247
G1 X134.63 Y155.42 E13.66783
G1 X134.356 Y154.748 E13.69317
G1 X134.158 Y154.049 E13.71855
G1 X134.038 Y153.332 E13.74393
G1 X133.998 Y152.603 E13.76943
G1 X133.998 Y152.439 E13.77516
G1 X134.038 Y151.714 E13.80052
G1 X134.157 Y150.997 E13.8259
G1 X134.355 Y150.298 E13.85127
G1 X134.476 Y150 E13.8625
G1 X134.367 Y149.737 E13.87244
G1 X134.166 Y149.039 E13.89781
G1 X134.042 Y148.323 E13.92319
G1 X133.998 Y147.56 E13.94988
G1 X133.998 Y147.397 E13.95557
G1 X134.038 Y146.672 E13.98093
G1 X134.157 Y145.955 E14.00631
G1 X134.355 Y145.256 E14.03168
G1 X134.628 Y144.583 E14.05705
G1 X134.973 Y143.944 E14.08241
G1 X135.387 Y143.347 E14.10778
G1 X135.866 Y142.796 E14.13328
G1 X138.404 Y140.186 E14.26042
G0 F1080 X138.961 Y139.613
G0 F6000 X139.248 Y139.892
G1 F1200 X139.767 Y139.416 E14.28501
G1 X140.336 Y139.002 E14.30958
G1 X140.948 Y138.655 E14.33415
G1 X141.596 Y138.379 E14.35875
G1 X142.271 Y138.179 E14.38334
G1 X142.965 Y138.057 E14.40795
G1 X143.693 Y138.014 E14.43341
G1 X143.862 Y138.014 E14.43932
G1 X144.565 Y138.054 E14.46391
