;FLAVOR:Marlin
M117 Time Left 1h05m23s
;Filament used: 1.84446m
;Layer height: 0.2
;MINX:119.157
;MINY:120.686
;MINZ:0.2
;MAXX:180.843
;MAXY:179.314
;MAXZ:10
;POSTPROCESSED
;Generated with Cura_SteamEngine 4.6.0
M140 S58
M105
M190 S58
M104 S195
M105
M109 S195
M82 ;absolute extrusion mode
M201 X500.00 Y500.00 Z100.00 E5000.00 ;Setup machine max acceleration
M203 X500.00 Y500.00 Z10.00 E50.00 ;Setup machine max feedrate
M204 P500.00 R1000.00 T500.00 ;Setup Print/Retract/Travel acceleration
M205 X8.00 Y8.00 Z0.40 E5.00 ;Setup Jerk
M220 S100 ;Reset Feedrate
M221 S100 ;Reset Flowrate

G28 ;Home

G92 E0 ;Reset Extruder
G1 Z2.0 F3000 ;Move Z Axis up
G1 X10.1 Y20 Z0.28 F5000.0 ;Move to start position
G1 X10.1 Y200.0 Z0.28 F1500.0 E15 ;Draw the first line
G1 X10.4 Y200.0 Z0.28 F5000.0 ;Move to side a little
G1 X10.4 Y20 Z0.28 F1500.0 E30 ;Draw the second line
G92 E0 ;Reset Extruder
G1 Z2.0 F3000 ;Move Z Axis up

G92 E0
G92 E0
G1 F1500 E-5.5
;LAYER_COUNT:50
;LAYER:0
M107
G0 F6000 X126.526 Y123.14 Z0.2
;TYPE:SKIRT
G1 F1500 E0
G1 F1200 X126.643 Y123.023 E0.00578
G1 X127.229 Y122.493 E0.03337
G1 X127.865 Y122.026 E0.06093
G1 X128.545 Y121.625 E0.0885
G1 X129.263 Y121.295 E0.11609
G1 X130.01 Y121.04 E0.14366
G1 X130.779 Y120.861 E0.17123
G1 X131.563 Y120.761 E0.19883
G1 X132.158 Y120.738 E0.21963
G1 X132.946 Y120.741 E0.24715
G1 X133.2 Y120.709 E0.25609
G1 X133.795 Y120.686 E0.27688
G1 X135.051 Y120.686 E0.32075
G1 X135.84 Y120.726 E0.34834
G1 X136.62 Y120.845 E0.37589
G1 X137.385 Y121.043 E0.40349
G1 X138.125 Y121.317 E0.43105
G1 X138.195 Y121.351 E0.43377
G1 X138.431 Y121.243 E0.44283
G1 X139.178 Y120.988 E0.47039
G1 X139.947 Y120.809 E0.49797
G1 X140.731 Y120.709 E0.52557
G1 X141.326 Y120.686 E0.54636
G1 X142.581 Y120.686 E0.59019
G1 X143.37 Y120.726 E0.61778
G1 X143.461 Y120.74 E0.621
G1 X143.508 Y120.738 E0.62264
G1 X144.218 Y120.738 E0.64744
G1 X145.007 Y120.778 E0.67503
G1 X145.787 Y120.897 E0.70258
G1 X146.552 Y121.095 E0.73018
G1 X147.292 Y121.369 E0.75774
G1 X148.001 Y121.717 E0.78532
G1 X148.672 Y122.135 E0.81293
G1 X149.296 Y122.618 E0.84048
G1 X149.733 Y123.023 E0.86129
G1 X149.85 Y123.14 E0.86707
G1 X149.998 Y123.303 E0.87476
G1 X150.149 Y123.14 E0.88252
G1 X150.266 Y123.023 E0.8883
G1 X150.852 Y122.493 E0.91589
G1 X151.488 Y122.026 E0.94345
G1 X152.168 Y121.625 E0.97102
G1 X152.886 Y121.295 E0.99861
G1 X153.633 Y121.04 E1.02618
G1 X154.402 Y120.861 E1.05375
G1 X155.186 Y120.761 E1.08135
G1 X155.781 Y120.738 E1.10215
G1 X156.57 Y120.741 E1.1297
G1 X156.824 Y120.709 E1.13864
G1 X157.419 Y120.686 E1.15944
G1 X158.674 Y120.686 E1.20327
G1 X159.463 Y120.726 E1.23086
G1 X160.243 Y120.845 E1.25841
G1 X161.008 Y121.043 E1.28601
G1 X161.748 Y121.317 E1.31357
G1 X161.818 Y121.351 E1.31628
G1 X162.054 Y121.243 E1.32535
G1 X162.801 Y120.988 E1.35291
G1 X163.57 Y120.809 E1.38049
G1 X164.354 Y120.709 E1.40809
G1 X164.949 Y120.686 E1.42888
G1 X166.205 Y120.686 E1.47275
G1 X166.994 Y120.726 E1.50034
G1 X167.085 Y120.74 E1.50355
G1 X167.131 Y120.738 E1.50516
G1 X167.841 Y120.738 E1.52996
G1 X168.63 Y120.778 E1.55755
G1 X169.41 Y120.897 E1.5851
G1 X170.175 Y121.095 E1.6127
G1 X170.915 Y121.369 E1.64026
G1 X171.624 Y121.717 E1.66784
G1 X172.295 Y122.135 E1.69545
G1 X172.919 Y122.618 E1.723
G1 X173.356 Y123.023 E1.74381
G1 X173.473 Y123.14 E1.74959
G1 X174.003 Y123.726 E1.77718
G1 X174.47 Y124.362 E1.80474
G1 X174.871 Y125.042 E1.83231
G1 X175.201 Y125.76 E1.85991
G1 X175.456 Y126.507 E1.88747
G1 X175.635 Y127.276 E1.91504
G1 X175.735 Y128.06 E1.94265
G1 X175.758 Y128.655 E1.96344
G1 X175.758 Y130.238 E2.01872
G1 X175.718 Y131.026 E2.04628
G1 X175.815 Y131.237 E2.05439
G1 X176.07 Y131.984 E2.08196
G1 X176.249 Y132.753 E2.10953
G1 X176.349 Y133.537 E2.13713
G1 X176.372 Y134.132 E2.15793
G1 X176.372 Y142.695 E2.45697
G1 X176.332 Y143.484 E2.48456
G1 X176.213 Y144.264 E2.51212
G1 X176.015 Y145.029 E2.53971
G1 X175.894 Y145.355 E2.55186
G1 X176.002 Y145.395 E2.55588
G1 X176.711 Y145.743 E2.58346
G1 X177.381 Y146.16 E2.61102
G1 X178.005 Y146.644 E2.6386
G1 X178.441 Y147.048 E2.65936
G1 X178.558 Y147.165 E2.66514
G1 X179.088 Y147.751 E2.69273
G1 X179.555 Y148.387 E2.72029
G1 X179.956 Y149.067 E2.74786
G1 X180.286 Y149.785 E2.77545
G1 X180.541 Y150.532 E2.80302
G1 X180.72 Y151.301 E2.83059
G1 X180.82 Y152.085 E2.85819
G1 X180.843 Y152.68 E2.87899
G1 X180.843 Y154.946 E2.95813
G1 X180.803 Y155.735 E2.98571
G1 X180.684 Y156.515 E3.01327
G1 X180.486 Y157.28 E3.04087
G1 X180.212 Y158.02 E3.06842
G1 X179.864 Y158.729 E3.09601
G1 X179.692 Y159.006 E3.10739
G1 X179.971 Y159.486 E3.12678
G1 X180.298 Y160.205 E3.15437
G1 X180.551 Y160.953 E3.18194
G1 X180.726 Y161.723 E3.20952
G1 X180.823 Y162.507 E3.23711
G1 X180.843 Y163.069 E3.25675
G1 X180.843 Y165.335 E3.33588
G1 X180.803 Y166.124 E3.36347
G1 X180.684 Y166.904 E3.39103
G1 X180.486 Y167.669 E3.41863
G1 X180.212 Y168.409 E3.44618
G1 X179.864 Y169.118 E3.47377
G1 X179.446 Y169.789 E3.50137
G1 X178.963 Y170.413 E3.52893
G1 X178.558 Y170.85 E3.54974
G1 X178.441 Y170.967 E3.55552
G1 X177.855 Y171.497 E3.58311
G1 X177.219 Y171.964 E3.61067
G1 X176.539 Y172.365 E3.63824
G1 X175.821 Y172.695 E3.66583
G1 X175.074 Y172.95 E3.6934
G1 X174.818 Y173.009 E3.70257
G1 X174.609 Y173.575 E3.72364
G1 X174.593 Y173.608 E3.72493
G1 X174.561 Y173.731 E3.72936
G1 X174.287 Y174.471 E3.75692
G1 X173.939 Y175.18 E3.7845
G1 X173.521 Y175.851 E3.81211
G1 X173.038 Y176.475 E3.83967
G1 X172.633 Y176.912 E3.86048
G1 X172.516 Y177.029 E3.86626
G1 X171.93 Y177.559 E3.89385
G1 X171.294 Y178.026 E3.92141
G1 X170.614 Y178.427 E3.94897
G1 X169.896 Y178.757 E3.97657
G1 X169.149 Y179.012 E4.00414
G1 X168.38 Y179.191 E4.03171
G1 X167.596 Y179.291 E4.05931
G1 X167.001 Y179.314 E4.08011
G1 X165.85 Y179.314 E4.1203
G1 X165.061 Y179.274 E4.14789
G1 X164.281 Y179.155 E4.17545
G1 X163.516 Y178.957 E4.20305
G1 X162.776 Y178.683 E4.2306
G1 X162.067 Y178.335 E4.25819
G1 X161.812 Y178.176 E4.26868
G1 X161.386 Y178.427 E4.28595
G1 X160.668 Y178.757 E4.31354
G1 X159.921 Y179.012 E4.34111
G1 X159.152 Y179.191 E4.36868
G1 X158.368 Y179.291 E4.39629
G1 X157.773 Y179.314 E4.41708
G1 X156.622 Y179.314 E4.45728
G1 X155.833 Y179.274 E4.48487
G1 X155.053 Y179.155 E4.51242
G1 X154.288 Y178.957 E4.54002
G1 X153.548 Y178.683 E4.56758
G1 X152.839 Y178.335 E4.59516
G1 X152.168 Y177.917 E4.62277
G1 X151.544 Y177.434 E4.65032
G1 X151.107 Y177.029 E4.67113
G1 X150.99 Y176.912 E4.67691
G1 X150.46 Y176.326 E4.7045
G1 X149.996 Y175.694 E4.73189
G1 X149.898 Y175.851 E4.73835
G1 X149.415 Y176.475 E4.76591
G1 X149.01 Y176.912 E4.78671
G1 X148.893 Y177.029 E4.79249
G1 X148.307 Y177.559 E4.82009
G1 X147.671 Y178.026 E4.84764
G1 X146.991 Y178.427 E4.87521
G1 X146.273 Y178.757 E4.90281
G1 X145.526 Y179.012 E4.93037
G1 X144.757 Y179.191 E4.95795
G1 X143.973 Y179.291 E4.98555
G1 X143.378 Y179.314 E5.00634
G1 X142.227 Y179.314 E5.04654
G1 X141.438 Y179.274 E5.07413
G1 X140.658 Y179.155 E5.10168
G1 X139.893 Y178.957 E5.12928
G1 X139.153 Y178.683 E5.15684
G1 X138.444 Y178.335 E5.18442
G1 X138.189 Y178.176 E5.19492
G1 X137.763 Y178.427 E5.21218
G1 X137.045 Y178.757 E5.23978
G1 X136.298 Y179.012 E5.26735
G1 X135.529 Y179.191 E5.29492
G1 X134.745 Y179.291 E5.32252
G1 X134.15 Y179.314 E5.34332
G1 X132.999 Y179.314 E5.38351
G1 X132.21 Y179.274 E5.4111
G1 X131.43 Y179.155 E5.43866
G1 X130.665 Y178.957 E5.46625
G1 X129.925 Y178.683 E5.49381
G1 X129.216 Y178.335 E5.52139
G1 X128.545 Y177.917 E5.549
G1 X127.921 Y177.434 E5.57656
G1 X127.484 Y177.029 E5.59737
G1 X127.367 Y176.912 E5.60315
G1 X126.837 Y176.326 E5.63074
G1 X126.37 Y175.69 E5.6583
G1 X125.969 Y175.01 E5.68587
G1 X125.639 Y174.292 E5.71346
G1 X125.384 Y173.545 E5.74103
G1 X125.382 Y173.538 E5.74128
G1 X125.317 Y173.396 E5.74674
G1 X125.186 Y173.011 E5.76094
G1 X124.742 Y172.896 E5.77696
G1 X124.001 Y172.622 E5.80455
G1 X123.292 Y172.275 E5.83211
G1 X122.622 Y171.857 E5.85969
G1 X121.997 Y171.374 E5.88728
G1 X121.559 Y170.968 E5.90813
G1 X121.442 Y170.851 E5.91391
G1 X120.912 Y170.265 E5.94151
G1 X120.445 Y169.629 E5.96906
G1 X120.044 Y168.949 E5.99663
G1 X119.714 Y168.231 E6.02423
G1 X119.459 Y167.484 E6.05179
G1 X119.28 Y166.715 E6.07937
G1 X119.18 Y165.931 E6.10697
G1 X119.157 Y165.336 E6.12776
G1 X119.157 Y163.07 E6.2069
G1 X119.197 Y162.281 E6.23449
G1 X119.316 Y161.501 E6.26204
G1 X119.514 Y160.736 E6.28964
G1 X119.788 Y159.996 E6.3172
G1 X120.136 Y159.287 E6.34478
G1 X120.309 Y159.009 E6.35622
G1 X120.044 Y158.559 E6.37445
G1 X119.714 Y157.841 E6.40205
G1 X119.459 Y157.094 E6.42962
G1 X119.28 Y156.325 E6.45719
G1 X119.18 Y155.541 E6.48479
G1 X119.157 Y154.946 E6.50559
G1 X119.157 Y152.68 E6.58472
G1 X119.197 Y151.891 E6.61231
G1 X119.316 Y151.111 E6.63987
G1 X119.514 Y150.346 E6.66746
G1 X119.788 Y149.606 E6.69502
G1 X120.136 Y148.897 E6.7226
G1 X120.554 Y148.226 E6.75021
G1 X121.037 Y147.602 E6.77777
G1 X121.442 Y147.165 E6.79858
G1 X121.559 Y147.048 E6.80436
G1 X122.145 Y146.518 E6.83195
G1 X122.781 Y146.051 E6.85951
G1 X123.461 Y145.65 E6.88708
G1 X124.105 Y145.354 E6.91183
G1 X123.93 Y144.843 E6.93069
G1 X123.751 Y144.074 E6.95826
G1 X123.651 Y143.29 E6.98587
G1 X123.628 Y142.695 E7.00666
G1 X123.628 Y134.132 E7.30571
G1 X123.668 Y133.343 E7.3333
G1 X123.787 Y132.563 E7.36085
G1 X123.985 Y131.798 E7.38845
G1 X124.259 Y131.058 E7.41601
G1 X124.286 Y131.004 E7.41812
G1 X124.264 Y130.833 E7.42414
G1 X124.241 Y130.238 E7.44493
G1 X124.241 Y128.655 E7.50021
G1 X124.281 Y127.866 E7.5278
G1 X124.4 Y127.086 E7.55536
G1 X124.598 Y126.321 E7.58296
G1 X124.872 Y125.581 E7.61051
G1 X125.22 Y124.872 E7.6381
G1 X125.638 Y124.201 E7.6657
G1 X125.996 Y123.739 E7.68612
G0 F1080 X126.121 Y123.577
G0 X126.526 Y123.14
G0 F6000 X126.925 Y123.305
G1 F1200 X127.497 Y122.791 E7.71297
G1 X128.119 Y122.338 E7.73985
G1 X128.784 Y121.952 E7.7667
G1 X129.486 Y121.637 E7.79357
G1 X130.217 Y121.397 E7.82044
G1 X130.968 Y121.234 E7.84728
G1 X131.733 Y121.15 E7.87415
G1 X132.158 Y121.138 E7.889
G1 X132.965 Y121.143 E7.91718
G1 X133.37 Y121.098 E7.93142
G1 X133.795 Y121.086 E7.94626
G1 X135.051 Y121.086 E7.99013
G1 X135.819 Y121.126 E8.01698
G1 X136.579 Y121.245 E8.04385
G1 X137.322 Y121.443 E8.0707
G1 X138.041 Y121.717 E8.09757
G1 X138.191 Y121.793 E8.10345
G1 X138.654 Y121.585 E8.12117
G1 X139.385 Y121.345 E8.14804
G1 X140.136 Y121.182 E8.17488
G1 X140.901 Y121.098 E8.20176
G1 X141.326 Y121.086 E8.21661
G1 X142.581 Y121.086 E8.26043
G1 X143.349 Y121.126 E8.28729
G1 X143.452 Y121.142 E8.29093
G1 X143.508 Y121.138 E8.29289
G1 X144.218 Y121.138 E8.31769
G1 X144.986 Y121.178 E8.34455
G1 X145.746 Y121.297 E8.37141
G1 X146.489 Y121.495 E8.39826
G1 X147.208 Y121.769 E8.42513
G1 X147.894 Y122.116 E8.45198
G1 X148.541 Y122.532 E8.47885
G1 X149.141 Y123.013 E8.5057
G1 X149.568 Y123.422 E8.52635
G1 X150.001 Y123.904 E8.54898
G1 X150.139 Y123.732 E8.55668
G1 X150.548 Y123.305 E8.57733
G1 X151.12 Y122.791 E8.60419
G1 X151.742 Y122.338 E8.63106
G1 X152.407 Y121.952 E8.65791
G1 X153.109 Y121.637 E8.68478
G1 X153.84 Y121.397 E8.71165
G1 X154.591 Y121.234 E8.73849
G1 X155.356 Y121.15 E8.76537
G1 X155.781 Y121.138 E8.78021
G1 X156.589 Y121.143 E8.80843
G1 X156.994 Y121.098 E8.82266
G1 X157.419 Y121.086 E8.83751
G1 X158.674 Y121.086 E8.88134
G1 X159.442 Y121.126 E8.9082
G1 X160.202 Y121.245 E8.93506
G1 X160.945 Y121.443 E8.96192
G1 X161.664 Y121.717 E8.98879
G1 X161.814 Y121.793 E8.99466
G1 X162.277 Y121.585 E9.01239
G1 X163.008 Y121.345 E9.03926
G1 X163.759 Y121.182 E9.06609
G1 X164.524 Y121.098 E9.09297
G1 X164.949 Y121.086 E9.10782
G1 X166.205 Y121.086 E9.15168
G1 X166.973 Y121.126 E9.17854
G1 X167.062 Y121.14 E9.18169
G1 X167.131 Y121.138 E9.1841
G1 X167.841 Y121.138 E9.20889
G1 X168.609 Y121.178 E9.23575
G1 X169.369 Y121.297 E9.26261
G1 X170.112 Y121.495 E9.28947
G1 X170.831 Y121.769 E9.31634
G1 X171.517 Y122.116 E9.34319
G1 X172.164 Y122.532 E9.37005
G1 X172.764 Y123.013 E9.39691
G1 X173.191 Y123.422 E9.41755
G1 X173.705 Y123.994 E9.44441
G1 X174.158 Y124.616 E9.47128
G1 X174.544 Y125.281 E9.49814
G1 X174.859 Y125.983 E9.52501
G1 X175.099 Y126.714 E9.55188
G1 X175.262 Y127.465 E9.57871
G1 X175.346 Y128.23 E9.60559
G1 X175.358 Y128.655 E9.62044
G1 X175.358 Y130.238 E9.67572
G1 X175.318 Y131.006 E9.70258
G1 X175.305 Y131.086 E9.70541
G1 X175.473 Y131.46 E9.71973
G1 X175.713 Y132.191 E9.7466
G1 X175.876 Y132.942 E9.77344
G1 X175.96 Y133.707 E9.80031
G1 X175.972 Y134.132 E9.81516
G1 X175.972 Y142.695 E10.11421
G1 X175.932 Y143.463 E10.14107
G1 X175.813 Y144.223 E10.16793
G1 X175.615 Y144.966 E10.19478
G1 X175.378 Y145.589 E10.21806
G1 X175.917 Y145.795 E10.23821
G1 X176.604 Y146.142 E10.26509
G1 X177.25 Y146.558 E10.29193
G1 X177.85 Y147.039 E10.31878
G1 X178.276 Y147.447 E10.33938
G1 X178.79 Y148.019 E10.36624
G1 X179.243 Y148.641 E10.39311
G1 X179.629 Y149.306 E10.41996
G1 X179.944 Y150.008 E10.44683
G1 X180.184 Y150.739 E10.4737
G1 X180.347 Y151.49 E10.50054
G1 X180.431 Y152.255 E10.52742
G1 X180.443 Y152.68 E10.54227
G1 X180.443 Y154.946 E10.6214
G1 X180.403 Y155.714 E10.64826
G1 X180.284 Y156.474 E10.67513
G1 X180.086 Y157.217 E10.70198
G1 X179.812 Y157.936 E10.72885
G1 X179.465 Y158.622 E10.7557
G1 X179.221 Y159.001 E10.77144
G1 X179.261 Y159.056 E10.77381
G1 X179.643 Y159.723 E10.80066
G1 X179.955 Y160.426 E10.82752
G1 X180.192 Y161.158 E10.85439
G1 X180.352 Y161.911 E10.88127
G1 X180.433 Y162.676 E10.90814
G1 X180.443 Y163.069 E10.92187
G1 X180.443 Y165.335 E11.001
G1 X180.403 Y166.103 E11.02786
G1 X180.284 Y166.863 E11.05473
G1 X180.086 Y167.606 E11.08158
G1 X179.812 Y168.325 E11.10845
G1 X179.465 Y169.011 E11.1353
G1 X179.049 Y169.658 E11.16216
G1 X178.568 Y170.258 E11.18902
G1 X178.159 Y170.685 E11.20967
G1 X177.587 Y171.199 E11.23652
G1 X176.965 Y171.652 E11.26339
G1 X176.3 Y172.038 E11.29025
G1 X175.598 Y172.353 E11.31712
G1 X174.867 Y172.593 E11.34399
G1 X174.51 Y172.67 E11.35674
G1 X174.483 Y172.772 E11.36043
G1 X174.209 Y173.491 E11.3873
G1 X174.207 Y173.494 E11.38742
G1 X174.161 Y173.668 E11.39371
G1 X173.887 Y174.387 E11.42058
G1 X173.54 Y175.073 E11.44743
G1 X173.124 Y175.72 E11.47429
G1 X172.643 Y176.32 E11.50115
G1 X172.234 Y176.747 E11.5218
G1 X171.662 Y177.261 E11.54865
G1 X171.04 Y177.714 E11.57553
G1 X170.375 Y178.1 E11.60238
G1 X169.673 Y178.415 E11.62925
G1 X168.942 Y178.655 E11.65612
G1 X168.191 Y178.818 E11.68296
G1 X167.426 Y178.902 E11.70983
G1 X167.001 Y178.914 E11.72468
G1 X165.85 Y178.914 E11.76488
G1 X165.082 Y178.874 E11.79174
G1 X164.322 Y178.755 E11.8186
G1 X163.579 Y178.557 E11.84545
G1 X162.86 Y178.283 E11.87233
G1 X162.174 Y177.936 E11.89917
G1 X161.82 Y177.708 E11.91388
G1 X161.812 Y177.714 E11.91423
G1 X161.147 Y178.1 E11.94108
G1 X160.445 Y178.415 E11.96795
G1 X159.714 Y178.655 E11.99482
G1 X158.963 Y178.818 E12.02166
G1 X158.198 Y178.902 E12.04854
G1 X157.773 Y178.914 E12.06338
G1 X156.622 Y178.914 E12.10358
G1 X155.854 Y178.874 E12.13044
G1 X155.094 Y178.755 E12.1573
G1 X154.351 Y178.557 E12.18416
G1 X153.632 Y178.283 E12.21103
G1 X152.946 Y177.936 E12.23788
G1 X152.299 Y177.52 E12.26474
G1 X151.699 Y177.039 E12.29159
G1 X151.272 Y176.63 E12.31224
G1 X150.758 Y176.058 E12.3391
G1 X150.305 Y175.436 E12.36597
G1 X150 Y174.91 E12.38721
G1 X149.917 Y175.073 E12.39359
G1 X149.501 Y175.72 E12.42046
G1 X149.02 Y176.32 E12.44731
G1 X148.611 Y176.747 E12.46796
G1 X148.039 Y177.261 E12.49482
G1 X147.417 Y177.714 E12.52169
G1 X146.752 Y178.1 E12.54854
G1 X146.05 Y178.415 E12.57542
G1 X145.319 Y178.655 E12.60228
G1 X144.568 Y178.818 E12.62912
G1 X143.803 Y178.902 E12.656
G1 X143.378 Y178.914 E12.67085
G1 X142.227 Y178.914 E12.71104
G1 X141.459 Y178.874 E12.7379
G1 X140.699 Y178.755 E12.76477
G1 X139.956 Y178.557 E12.79162
G1 X139.237 Y178.283 E12.81849
G1 X138.551 Y177.936 E12.84534
G1 X138.197 Y177.708 E12.86004
G1 X138.189 Y177.714 E12.86039
G1 X137.524 Y178.1 E12.88725
G1 X136.822 Y178.415 E12.91412
G1 X136.091 Y178.655 E12.94099
G1 X135.34 Y178.818 E12.96782
G1 X134.575 Y178.902 E12.9947
G1 X134.15 Y178.914 E13.00955
G1 X132.999 Y178.914 E13.04975
G1 X132.231 Y178.874 E13.0766
G1 X131.471 Y178.755 E13.10347
G1 X130.728 Y178.557 E13.13032
G1 X130.009 Y178.283 E13.15719
G1 X129.323 Y177.936 E13.18404
