;FLAVOR:Marlin
M117 Time Left 1h24m19s
;Filament used: 2.86662m
;Layer height: 0.2
;MINX:127.401
;MINY:127.701
;MINZ:0.2
;MAXX:172.601
;MAXY:172.285
;MAXZ:22.6
;POSTPROCESSED
;Generated with Cura_SteamEngine 4.6.0
M140 S58
M105
M190 S58
M104 S195
M105
M109 S195
M82 ;absolute extrusion mode
M201 X500.00 Y500.00 Z100.00 E5000.00 ;Setup machine max acceleration
M203 X500.00 Y500.00 Z10.00 E50.00 ;Setup machine max feedrate
M204 P500.00 R1000.00 T500.00 ;Setup Print/Retract/Travel acceleration
M205 X8.00 Y8.00 Z0.40 E5.00 ;Setup Jerk
M220 S100 ;Reset Feedrate
M221 S100 ;Reset Flowrate

G28 ;Home

G92 E0 ;Reset Extruder
G1 Z2.0 F3000 ;Move Z Axis up
G1 X10.1 Y20 Z0.28 F5000.0 ;Move to start position
G1 X10.1 Y200.0 Z0.28 F1500.0 E15 ;Draw the first line
G1 X10.4 Y200.0 Z0.28 F5000.0 ;Move to side a little
G1 X10.4 Y20 Z0.28 F1500.0 E30 ;Draw the second line
G92 E0 ;Reset Extruder
G1 Z2.0 F3000 ;Move Z Axis up

G92 E0
G92 E0
G1 F1500 E-5.5
;LAYER_COUNT:113
;LAYER:0
M107
G0 F6000 X134.011 Y134.354 Z0.2
;TYPE:SKIRT
G1 F1500 E0
G1 F1200 X134.471 Y133.961 E0.02113
G1 X134.694 Y133.799 E0.03076
G1 X134.921 Y133.658 E0.04009
G1 X135.081 Y133.443 E0.04945
G1 X135.285 Y133.218 E0.06005
G1 X135.684 Y132.837 E0.07932
G1 X136.242 Y132.455 E0.10294
G1 X136.515 Y132.302 E0.11387
G1 X136.64 Y132.249 E0.11861
G1 X136.804 Y132.064 E0.12724
G1 X137.008 Y131.878 E0.13688
G1 X137.441 Y131.537 E0.15613
G1 X137.83 Y131.307 E0.17191
G1 X138.04 Y131.199 E0.18016
G1 X138.462 Y131.029 E0.19605
G1 X138.693 Y130.824 E0.20683
G1 X138.897 Y130.673 E0.2157
G1 X139.363 Y130.378 E0.23496
G1 X140.01 Y130.104 E0.2595
G1 X140.313 Y130.008 E0.2706
G1 X140.408 Y129.985 E0.27401
G1 X140.694 Y129.784 E0.28622
G1 X140.903 Y129.66 E0.2947
G1 X141.396 Y129.414 E0.31395
G1 X142.073 Y129.207 E0.33867
G1 X142.339 Y129.152 E0.34816
G1 X142.467 Y129.139 E0.35265
G1 X142.759 Y128.968 E0.36447
G1 X143.009 Y128.854 E0.37406
G1 X143.526 Y128.662 E0.39332
G1 X144.184 Y128.532 E0.41675
G1 X144.485 Y128.5 E0.42732
G1 X144.548 Y128.499 E0.42952
G1 X144.65 Y128.446 E0.43353
G1 X144.922 Y128.34 E0.44373
G1 X145.119 Y128.272 E0.451
G1 X145.652 Y128.13 E0.47027
G1 X146.207 Y128.067 E0.48977
G1 X146.482 Y128.056 E0.49939
G1 X146.68 Y128.062 E0.5063
G1 X147.11 Y127.898 E0.52238
G1 X147.647 Y127.777 E0.5416
G1 X148.197 Y127.735 E0.56086
G1 X148.746 Y127.773 E0.58008
G1 X149.032 Y127.832 E0.59028
G1 X149.236 Y127.78 E0.59763
G1 X149.503 Y127.741 E0.60706
G1 X150.052 Y127.701 E0.62628
G1 X150.61 Y127.742 E0.64582
G1 X150.819 Y127.773 E0.6532
G1 X151.126 Y127.846 E0.66422
G1 X151.434 Y127.801 E0.67509
G1 X151.756 Y127.791 E0.68634
G1 X151.976 Y127.794 E0.69402
G1 X152.525 Y127.842 E0.71327
G1 X152.95 Y127.935 E0.72846
G1 X153.082 Y127.972 E0.73325
G1 X153.368 Y128.065 E0.74375
G1 X153.476 Y128.06 E0.74753
G1 X153.757 Y128.063 E0.75734
G1 X154.306 Y128.109 E0.77658
G1 X155.085 Y128.318 E0.80475
G1 X155.362 Y128.425 E0.81512
G1 X155.511 Y128.498 E0.82092
G1 X155.638 Y128.5 E0.82535
G1 X155.923 Y128.531 E0.83536
G1 X156.465 Y128.63 E0.8546
G1 X156.987 Y128.807 E0.87385
G1 X157.291 Y128.951 E0.8856
G1 X157.576 Y129.102 E0.89687
G1 X157.631 Y129.137 E0.89914
G1 X157.866 Y129.171 E0.90743
G1 X158.093 Y129.223 E0.91557
G1 X158.619 Y129.385 E0.93479
G1 X159.007 Y129.561 E0.94967
G1 X160.036 Y130.1 E0.99023
G1 X160.555 Y130.3 E1.00966
G1 X160.774 Y130.413 E1.01827
G1 X161.257 Y130.709 E1.03805
G1 X161.311 Y130.748 E1.04038
G1 X161.603 Y131.011 E1.0541
G1 X161.634 Y131.02 E1.05523
G1 X161.9 Y131.133 E1.06532
G1 X162.16 Y131.255 E1.07535
G1 X162.641 Y131.524 E1.0946
G1 X163.077 Y131.861 E1.11384
G1 X163.286 Y132.062 E1.12397
G1 X163.482 Y132.266 E1.13385
G1 X163.485 Y132.27 E1.13402
G1 X163.684 Y132.362 E1.14168
G1 X163.939 Y132.511 E1.15199
G1 X164.393 Y132.823 E1.17123
G1 X164.908 Y133.32 E1.19623
G1 X165.057 Y133.494 E1.20423
G1 X165.17 Y133.648 E1.2109
G1 X165.264 Y133.705 E1.21474
G1 X165.713 Y134.025 E1.23399
G1 X165.995 Y134.284 E1.24736
G1 X166.191 Y134.483 E1.25712
G1 X166.549 Y134.903 E1.27639
G1 X166.769 Y135.249 E1.29071
G1 X166.93 Y135.37 E1.29774
G1 X167.171 Y135.586 E1.30904
G1 X167.554 Y135.983 E1.32831
G1 X167.982 Y136.616 E1.35499
G1 X168.103 Y136.841 E1.36392
G1 X168.13 Y136.904 E1.36631
G1 X168.44 Y137.227 E1.38195
G1 X168.62 Y137.438 E1.39163
G1 X168.946 Y137.882 E1.41087
G1 X169.207 Y138.374 E1.43032
G1 X169.317 Y138.624 E1.43986
G1 X169.37 Y138.769 E1.44525
G1 X169.45 Y138.856 E1.44938
G1 X169.644 Y139.099 E1.46023
G1 X169.955 Y139.554 E1.47948
G1 X170.291 Y140.305 E1.50821
G1 X170.378 Y140.575 E1.51812
G1 X170.414 Y140.726 E1.52354
G1 X170.569 Y140.935 E1.53263
G1 X170.719 Y141.185 E1.54281
G1 X170.968 Y141.677 E1.56207
G1 X171.155 Y142.249 E1.58309
G1 X171.223 Y142.531 E1.59322
G1 X171.259 Y142.746 E1.60083
G1 X171.363 Y142.935 E1.60836
G1 X171.484 Y143.176 E1.61778
G1 X171.695 Y143.685 E1.63702
G1 X171.858 Y144.403 E1.66274
G1 X171.893 Y144.679 E1.67245
G1 X171.902 Y144.878 E1.67941
G1 X171.951 Y144.981 E1.68339
G1 X172.071 Y145.287 E1.69487
G1 X172.234 Y145.813 E1.7141
G1 X172.33 Y146.518 E1.73895
G1 X172.342 Y146.811 E1.74919
G1 X172.33 Y147.009 E1.75612
G1 X172.342 Y147.037 E1.75718
G1 X172.429 Y147.337 E1.76809
G1 X172.499 Y147.62 E1.77827
G1 X172.592 Y148.163 E1.79751
G1 X172.601 Y148.791 E1.81945
G1 X172.585 Y149.025 E1.82764
G1 X172.508 Y149.571 E1.84689
G1 X172.323 Y150.175 E1.86895
G1 X172.218 Y150.438 E1.87884
G1 X172.036 Y150.788 E1.89262
G1 X171.775 Y153.761 E1.99685
G1 X171.663 Y154.401 E2.01954
G1 X170.851 Y157.466 E2.13027
G1 X170.622 Y158.098 E2.15374
G1 X169.28 Y160.978 E2.26471
G1 X169.125 Y161.277 E2.27647
G1 X169.103 Y161.315 E2.278
G1 X168.921 Y161.599 E2.28978
G1 X168.635 Y162.005 E2.30713
G1 X167.142 Y164.14 E2.39811
G1 X166.926 Y164.42 E2.41046
G1 X166.678 Y164.694 E2.42337
G1 X164.447 Y166.925 E2.53355
G1 X163.916 Y167.367 E2.55768
G1 X163.546 Y167.622 E2.57337
G1 X161.353 Y169.156 E2.66684
G1 X160.784 Y169.485 E2.68979
G1 X157.737 Y170.902 E2.80714
G1 X157.233 Y171.073 E2.82573
G1 X156.79 Y171.189 E2.84172
G1 X156.79 Y171.19 E2.84176
G1 X154.257 Y171.874 E2.93339
G1 X153.601 Y171.99 E2.95665
G1 X150.434 Y172.27 E3.06769
G1 X150.035 Y172.285 E3.08163
G1 X149.702 Y172.27 E3.09327
G1 X146.608 Y171.998 E3.20174
G1 X145.964 Y171.885 E3.22457
G1 X142.702 Y171.012 E3.3425
G1 X142.677 Y171.004 E3.34342
G1 X142.196 Y170.813 E3.36149
G1 X139.221 Y169.391 E3.47665
G1 X138.686 Y169.08 E3.49826
G1 X136.209 Y167.352 E3.60373
G1 X135.685 Y166.911 E3.62765
G1 X135.326 Y166.549 E3.64546
G1 X133.463 Y164.689 E3.73739
G1 X133.178 Y164.371 E3.75231
G1 X132.99 Y164.122 E3.7632
G1 X132.73 Y163.746 E3.77917
G1 X131.21 Y161.582 E3.87152
G1 X130.876 Y161.004 E3.89483
G1 X129.547 Y158.154 E4.00466
G1 X129.423 Y157.858 E4.01586
G1 X129.296 Y157.467 E4.03022
G1 X128.485 Y154.431 E4.13996
G1 X128.369 Y153.764 E4.16361
G1 X128.315 Y153.117 E4.18628
G1 X128.238 Y153.021 E4.19058
G1 X128.102 Y152.816 E4.19917
G1 X127.832 Y152.336 E4.2184
G1 X127.648 Y151.866 E4.23603
G1 X127.579 Y151.649 E4.24398
G1 X127.45 Y151.114 E4.2632
G1 X127.401 Y150.425 E4.28733
G1 X127.407 Y150.112 E4.29826
G1 X127.457 Y149.563 E4.31751
G1 X127.536 Y149.206 E4.33028
G1 X127.495 Y148.899 E4.3411
G1 X127.486 Y148.655 E4.34962
G1 X127.505 Y148.104 E4.36888
G1 X127.628 Y147.476 E4.39123
G1 X127.719 Y147.156 E4.40284
G1 X127.759 Y147.047 E4.4069
G1 X127.752 Y146.872 E4.41302
G1 X127.807 Y146.332 E4.43197
G1 X127.907 Y145.763 E4.45215
G1 X128.034 Y145.254 E4.47047
G1 X128.044 Y145.223 E4.47161
G1 X128.19 Y144.862 E4.48521
G1 X128.197 Y144.673 E4.49181
G1 X128.233 Y144.392 E4.5017
G1 X128.342 Y143.852 E4.52094
G1 X128.649 Y143.086 E4.54976
G1 X128.84 Y142.737 E4.56366
G1 X128.908 Y142.338 E4.57779
G1 X128.974 Y142.103 E4.58632
G1 X129.161 Y141.584 E4.60558
G1 X129.399 Y141.133 E4.62339
G1 X129.538 Y140.908 E4.63263
G1 X129.654 Y140.759 E4.63922
G1 X129.656 Y140.747 E4.63965
G1 X129.779 Y140.367 E4.6536
G1 X129.895 Y140.064 E4.66493
G1 X130.129 Y139.565 E4.68417
G1 X130.459 Y139.071 E4.70492
G1 X130.589 Y138.906 E4.71226
G1 X130.725 Y138.764 E4.71912
G1 X130.83 Y138.471 E4.72999
G1 X130.931 Y138.261 E4.73813
G1 X131.206 Y137.783 E4.75739
G1 X131.553 Y137.343 E4.77696
G1 X131.801 Y137.072 E4.78979
G1 X131.964 Y136.917 E4.79764
G1 X132.097 Y136.641 E4.80834
G1 X132.26 Y136.378 E4.81915
G1 X132.583 Y135.932 E4.83838
G1 X132.923 Y135.578 E4.85552
G1 X133.114 Y135.403 E4.86457
G1 X133.364 Y135.205 E4.87571
G1 X133.497 Y134.98 E4.88483
G1 X133.503 Y134.971 E4.88521
G0 F1080 X133.652 Y134.771
G0 X134.011 Y134.354
G0 F6000 X134.315 Y134.616
G1 F1200 X134.706 Y134.284 E4.90312
G1 X134.929 Y134.122 E4.91275
G1 X135.192 Y133.96 E4.92354
G1 X135.377 Y133.711 E4.93437
G1 X135.581 Y133.486 E4.94498
G1 X135.96 Y133.128 E4.96319
G1 X136.438 Y132.804 E4.98335
G1 X136.711 Y132.651 E4.99428
G1 X136.878 Y132.58 E5.00062
G1 X137.073 Y132.36 E5.01089
G1 X137.277 Y132.174 E5.02053
G1 X137.688 Y131.853 E5.03874
G1 X138.013 Y131.662 E5.0519
G1 X138.223 Y131.554 E5.06015
G1 X138.675 Y131.372 E5.07717
G1 X138.931 Y131.145 E5.08912
G1 X139.135 Y130.994 E5.09798
G1 X139.577 Y130.717 E5.1162
G1 X140.131 Y130.486 E5.13716
G1 X140.434 Y130.39 E5.14826
G1 X140.572 Y130.358 E5.15321
G1 X140.898 Y130.128 E5.16714
G1 X141.107 Y130.004 E5.17563
G1 X141.574 Y129.773 E5.19382
G1 X142.154 Y129.598 E5.21498
G1 X142.42 Y129.543 E5.22446
G1 X142.593 Y129.525 E5.23054
G1 X142.925 Y129.331 E5.24397
G1 X143.175 Y129.217 E5.25356
G1 X143.665 Y129.038 E5.27178
G1 X144.227 Y128.93 E5.29177
G1 X144.528 Y128.898 E5.30234
G1 X144.676 Y128.897 E5.30751
G1 X145.053 Y128.718 E5.32208
G1 X145.25 Y128.65 E5.32936
G1 X145.754 Y128.518 E5.34756
G1 X146.223 Y128.467 E5.36403
G1 X146.498 Y128.456 E5.37364
G1 X146.731 Y128.473 E5.3818
G1 X146.765 Y128.457 E5.38311
G1 X147.252 Y128.273 E5.40129
G1 X147.762 Y128.165 E5.4195
G1 X148.283 Y128.136 E5.43772
G1 X148.801 Y128.187 E5.4559
G1 X149.032 Y128.239 E5.46417
G1 X149.046 Y128.239 E5.46466
G1 X149.294 Y128.176 E5.4736
G1 X149.561 Y128.137 E5.48302
G1 X150.081 Y128.101 E5.50122
G1 X150.551 Y128.138 E5.51769
G1 X150.76 Y128.169 E5.52507
G1 X151.124 Y128.255 E5.53813
G1 X151.75 Y128.191 E5.5601
G1 X151.97 Y128.194 E5.56779
G1 X152.489 Y128.241 E5.58599
G1 X152.842 Y128.32 E5.59862
G1 X152.974 Y128.357 E5.60341
G1 X153.305 Y128.468 E5.6156
G1 X153.471 Y128.46 E5.6214
G1 X153.752 Y128.463 E5.63122
G1 X154.271 Y128.509 E5.64941
G1 X154.941 Y128.691 E5.67366
G1 X155.218 Y128.798 E5.68403
G1 X155.415 Y128.895 E5.6917
G1 X155.595 Y128.898 E5.69799
G1 X155.88 Y128.929 E5.708
G1 X156.392 Y129.025 E5.72619
G1 X157.104 Y129.305 E5.75291
G1 X157.389 Y129.456 E5.76417
G1 X157.488 Y129.52 E5.76829
G1 X157.776 Y129.561 E5.77845
G1 X158.003 Y129.613 E5.78658
G1 X158.501 Y129.768 E5.8048
G1 X158.821 Y129.915 E5.81709
G1 X159.85 Y130.454 E5.85766
G1 X160.372 Y130.656 E5.87721
G1 X160.591 Y130.769 E5.88582
G1 X161.023 Y131.034 E5.90351
G1 X161.077 Y131.073 E5.90584
G1 X161.434 Y131.394 E5.92261
G1 X161.73 Y131.495 E5.93353
G1 X161.99 Y131.617 E5.94356
G1 X162.444 Y131.874 E5.96178
G1 X162.998 Y132.339 E5.98704
G1 X163.194 Y132.543 E5.99692
G1 X163.236 Y132.594 E5.99923
G1 X163.482 Y132.707 E6.00868
G1 X163.737 Y132.856 E6.01899
G1 X164.166 Y133.153 E6.03722
G1 X164.605 Y133.581 E6.05863
G1 X164.754 Y133.755 E6.06663
G1 X164.878 Y133.939 E6.07438
G1 X165.056 Y134.047 E6.08165
G1 X165.479 Y134.351 E6.09984
G1 X165.71 Y134.565 E6.11084
G1 X165.906 Y134.764 E6.12059
G1 X166.243 Y135.162 E6.1388
G1 X166.467 Y135.518 E6.15349
G1 X166.469 Y135.522 E6.15365
G1 X166.663 Y135.668 E6.16213
G1 X166.904 Y135.884 E6.17343
G1 X167.265 Y136.261 E6.19166
G1 X167.629 Y136.806 E6.21455
G1 X167.75 Y137.031 E6.22347
G1 X167.803 Y137.156 E6.22821
G1 X167.874 Y137.213 E6.23139
G1 X168.136 Y137.486 E6.2446
G1 X168.316 Y137.697 E6.25429
G1 X168.623 Y138.119 E6.27252
G1 X168.841 Y138.535 E6.28892
G1 X168.951 Y138.785 E6.29846
G1 X169.022 Y138.982 E6.30577
G1 X169.137 Y139.106 E6.31167
G1 X169.331 Y139.349 E6.32253
G1 X169.624 Y139.78 E6.34073
G1 X169.91 Y140.427 E6.36544
G1 X169.997 Y140.697 E6.37535
G1 X170.044 Y140.896 E6.38249
G1 X170.226 Y141.141 E6.39315
G1 X170.376 Y141.391 E6.40333
G1 X170.61 Y141.857 E6.42154
G1 X170.766 Y142.343 E6.43936
G1 X170.834 Y142.625 E6.44949
G1 X170.882 Y142.924 E6.46007
G1 X171.006 Y143.114 E6.46799
G1 X171.127 Y143.355 E6.47741
G1 X171.324 Y143.838 E6.49563
G1 X171.461 Y144.453 E6.51763
G1 X171.496 Y144.729 E6.52735
G1 X171.507 Y144.978 E6.53605
G1 X171.578 Y145.127 E6.54182
G1 X171.698 Y145.433 E6.5533
G1 X171.851 Y145.931 E6.57149
G1 X171.93 Y146.535 E6.59276
G1 X171.942 Y146.828 E6.603
G1 X171.925 Y147.121 E6.61325
G1 X172.041 Y147.433 E6.62488
G1 X172.111 Y147.716 E6.63506
G1 X172.197 Y148.23 E6.65326
G1 X172.202 Y148.764 E6.67191
G1 X172.186 Y148.998 E6.6801
G1 X172.111 Y149.514 E6.69831
G1 X171.952 Y150.027 E6.71707
G1 X171.847 Y150.29 E6.72696
G1 X171.645 Y150.678 E6.74223
G1 X171.377 Y153.726 E6.84909
G1 X171.277 Y154.299 E6.8694
G1 X170.465 Y157.364 E6.98013
G1 X170.26 Y157.929 E7.00112
G1 X168.918 Y160.809 E7.11209
G1 X168.778 Y161.077 E7.12265
G1 X168.756 Y161.115 E7.12418
G1 X168.594 Y161.369 E7.1347
G1 X168.308 Y161.775 E7.15204
G1 X168.307 Y161.775 E7.15208
G1 X166.814 Y163.91 E7.24306
G1 X166.617 Y164.166 E7.25434
G1 X166.395 Y164.411 E7.26589
G1 X164.164 Y166.642 E7.37608
G1 X163.689 Y167.038 E7.39767
G1 X163.297 Y167.308 E7.4143
G1 X161.124 Y168.828 E7.50691
G1 X160.614 Y169.122 E7.52747
G1 X157.582 Y170.533 E7.64426
G1 X157.131 Y170.686 E7.66089
G1 X156.663 Y170.809 E7.67779
G1 X154.152 Y171.487 E7.76862
G1 X153.565 Y171.592 E7.78945
G1 X150.398 Y171.872 E7.90048
G1 X150.035 Y171.885 E7.91316
G1 X149.737 Y171.872 E7.92358
G1 X146.643 Y171.6 E8.03205
G1 X146.067 Y171.499 E8.05247
G1 X142.824 Y170.631 E8.16971
G1 X142.799 Y170.623 E8.17063
G1 X142.369 Y170.453 E8.18678
G1 X139.394 Y169.031 E8.30193
G1 X138.915 Y168.752 E8.32129
G1 X136.438 Y167.024 E8.42677
G1 X135.969 Y166.629 E8.44818
G1 X135.61 Y166.267 E8.46599
G1 X133.746 Y164.406 E8.55797
G1 X133.488 Y164.118 E8.57148
G1 X133.319 Y163.895 E8.58125
G1 X133.059 Y163.519 E8.59721
G1 X133.06 Y163.519 E8.59725
G1 X131.538 Y161.352 E8.68973
G1 X131.239 Y160.835 E8.71058
G1 X129.91 Y157.985 E8.8204
G1 X129.796 Y157.713 E8.8307
G1 X129.682 Y157.363 E8.84356
G1 X128.871 Y154.327 E8.9533
G1 X128.768 Y153.731 E8.97443
G1 X128.705 Y152.965 E9.00127
G1 X128.572 Y152.8 E9.00867
G1 X128.436 Y152.595 E9.01726
G1 X128.182 Y152.14 E9.03546
G1 X128.029 Y151.745 E9.05025
G1 X127.96 Y151.528 E9.0582
G1 X127.84 Y151.021 E9.0764
G1 X127.801 Y150.433 E9.09698
G1 X127.807 Y150.12 E9.10791
G1 X127.857 Y149.601 E9.12612
G1 X127.941 Y149.235 E9.13924
G1 X127.894 Y148.884 E9.1516
G1 X127.885 Y148.64 E9.16013
G1 X127.906 Y148.12 E9.17831
G1 X128.013 Y147.585 E9.19736
G1 X128.104 Y147.265 E9.20898
G1 X128.162 Y147.108 E9.21482
G1 X128.153 Y146.856 E9.22363
G1 X128.201 Y146.401 E9.23961
G1 X128.301 Y145.832 E9.25978
G1 X128.414 Y145.377 E9.27616
G1 X128.424 Y145.346 E9.27729
G1 X128.585 Y144.953 E9.29213
G1 X128.594 Y144.724 E9.30013
G1 X128.63 Y144.443 E9.31002
G1 X128.735 Y143.933 E9.32821
G1 X129.002 Y143.274 E9.35304
G1 X129.161 Y142.976 E9.36483
G1 X129.218 Y142.885 E9.36858
G1 X129.293 Y142.446 E9.38414
G1 X129.359 Y142.211 E9.39266
G1 X129.538 Y141.721 E9.41088
G1 X129.739 Y141.343 E9.42583
G1 X129.878 Y141.118 E9.43507
G1 X130.031 Y140.921 E9.44378
G1 X130.05 Y140.823 E9.44727
G1 X130.153 Y140.51 E9.45877
G1 X130.269 Y140.207 E9.4701
G1 X130.492 Y139.736 E9.4883
G1 X130.773 Y139.319 E9.50586
G1 X130.903 Y139.154 E9.5132
G1 X131.071 Y138.978 E9.5217
G1 X131.191 Y138.644 E9.53409
G1 X131.292 Y138.434 E9.54223
G1 X131.553 Y137.983 E9.56043
G1 X131.848 Y137.613 E9.57695
G1 X132.096 Y137.342 E9.58978
G1 X132.279 Y137.181 E9.59829
G1 X132.437 Y136.852 E9.61104
G1 X132.6 Y136.589 E9.62185
G1 X132.908 Y136.168 E9.64006
G1 X133.193 Y135.873 E9.65439
G1 X133.384 Y135.698 E9.66343
G1 X133.665 Y135.478 E9.6759
G1 X133.809 Y135.235 E9.68576
G0 F1080 X133.818 Y135.219
G0 X133.973 Y135.01
G0 X134.315 Y134.616
G0 F6000 X134.617 Y134.88
G1 F1200 X134.941 Y134.608 E9.70054
