;FLAVOR:Marlin
M117 Time Left 2h54m25s
;Filament used: 7.12297m
;Layer height: 0.2
;MINX:119.993
;MINY:47.658
;MINZ:0.2
;MAXX:180.006
;MAXY:252.412
;MAXZ:9.4
;POSTPROCESSED
;Generated with Cura_SteamEngine 4.6.0
M140 S58
M105
M190 S58
M104 S195
M105
M109 S195
M82 ;absolute extrusion mode
M201 X500.00 Y500.00 Z100.00 E5000.00 ;Setup machine max acceleration
M203 X500.00 Y500.00 Z10.00 E50.00 ;Setup machine max feedrate
M204 P500.00 R1000.00 T500.00 ;Setup Print/Retract/Travel acceleration
M205 X8.00 Y8.00 Z0.40 E5.00 ;Setup Jerk
M220 S100 ;Reset Feedrate
M221 S100 ;Reset Flowrate

G28 ;Home

G92 E0 ;Reset Extruder
G1 Z2.0 F3000 ;Move Z Axis up
G1 X10.1 Y20 Z0.28 F5000.0 ;Move to start position
G1 X10.1 Y200.0 Z0.28 F1500.0 E15 ;Draw the first line
G1 X10.4 Y200.0 Z0.28 F5000.0 ;Move to side a little
G1 X10.4 Y20 Z0.28 F1500.0 E30 ;Draw the second line
G92 E0 ;Reset Extruder
G1 Z2.0 F3000 ;Move Z Axis up

G92 E0
G92 E0
G1 F1500 E-5.5
;LAYER_COUNT:47
;LAYER:0
M107
;MESH:13-front-fuselage-med.stl
G0 F6000 X168.077 Y132.01 Z0.2
;TYPE:WALL-INNER
G1 F1500 E0
G1 F1200 X168.078 Y132.01 E0.00003
G1 X168.294 Y132.01 E0.00722
G1 X168.276 Y131.794 E0.01177
G1 X168.144 Y130.253 E0.06321
G1 X162.698 Y66.626 E2.1872
G1 X162.147 Y66.075 E2.21311
G1 X137.351 Y66.075 E3.03783
G1 X131.721 Y131.794 E5.23166
G1 X131.703 Y132.01 E5.23887
G1 X131.919 Y132.01 E5.24341
G1 X131.92 Y132.01 E5.24344
G1 X167.277 Y132.01 E6.41942
G0 F1080 X168.077 Y132.01
G0 F6000 X167.858 Y131.61
G1 F1200 X167.84 Y131.394 E6.42663
G1 X167.745 Y130.287 E6.46358
G1 X162.312 Y66.806 E8.58269
G1 X161.981 Y66.475 E8.59826
G1 X137.718 Y66.475 E9.40525
G1 X132.157 Y131.394 E11.57237
G1 X132.139 Y131.61 E11.57958
G1 X132.355 Y131.61 E11.58412
G1 X132.356 Y131.61 E11.58415
G1 X167.641 Y131.61 E12.75774
G1 X167.642 Y131.61 E12.75777
G1 X167.858 Y131.61 E12.76231
G0 F6000 X167.422 Y131.21
;TYPE:WALL-OUTER
G1 F1200 X167.346 Y130.321 E12.79199
G1 X161.926 Y66.986 E14.90622
G1 X161.815 Y66.875 E14.91144
G1 X138.085 Y66.875 E15.7007
G1 X132.575 Y131.21 E17.84833
G1 X166.622 Y131.21 E18.98073
G0 F1080 X167.422 Y131.21
G0 F6000 X167.388 Y130.812
G0 X167.827 Y130.776
G1 F1500 E13.48073
G0 F6000 X167.669 Y131.437
G0 X150.563 Y132.2
G0 X150.563 Y130.345
G0 X150.006 Y142.562
G0 X150.075 Y140.707
G0 X152.198 Y142.187
G0 X152.86 Y142.87
G0 X153.334 Y143.708
G0 X153.589 Y144.631
G0 X153.589 Y145.587
G0 X153.334 Y146.503
G0 X152.866 Y147.328
G0 X152.34 Y147.876
G0 X150.563 Y149.287
;TYPE:WALL-INNER
G1 F1500 E18.98073
G1 F1200 X151.102 Y149.181 E18.999
G1 X151.222 Y149.138 E19.00324
G1 X151.222 Y149.137 E19.00328
G1 X151.614 Y149.007 E19.01701
G1 X152.11 Y148.76 E19.03544
G1 X152.573 Y148.44 E19.05416
G1 X152.667 Y148.347 E19.05856
G1 X152.968 Y148.076 E19.07203
G1 X153.05 Y147.975 E19.07636
G1 X153.316 Y147.667 E19.08989
G1 X153.615 Y147.208 E19.10811
G1 X153.853 Y146.719 E19.1262
G1 X154.031 Y146.208 E19.1442
G1 X154.145 Y145.666 E19.16262
G1 X154.185 Y145.11 E19.18116
G1 X154.145 Y144.552 E19.19977
G1 X154.026 Y143.993 E19.21878
G1 X153.853 Y143.492 E19.23641
G1 X153.614 Y143.003 E19.25451
G1 X153.306 Y142.527 E19.27337
G1 X153.225 Y142.438 E19.27737
G1 X152.96 Y142.12 E19.29114
G1 X152.541 Y141.741 E19.30993
G1 X152.42 Y141.662 E19.31473
G1 X152.091 Y141.433 E19.32807
G1 X151.585 Y141.191 E19.34672
G1 X151.062 Y141.021 E19.36501
G1 X150.529 Y140.924 E19.38303
G1 X149.995 Y140.893 E19.40082
G1 X149.442 Y140.931 E19.41926
G1 X148.893 Y141.041 E19.43788
G1 X148.786 Y141.081 E19.44168
G1 X148.386 Y141.217 E19.45573
G1 X147.979 Y141.423 E19.4709
G1 X147.908 Y141.352 E19.47424
G1 X147.039 Y142.155 E19.5136
G1 X146.691 Y142.572 E19.53166
G1 X146.39 Y143.045 E19.55031
G1 X146.343 Y143.152 E19.5542
G1 X146.163 Y143.528 E19.56806
G1 X145.995 Y144.036 E19.58586
G1 X145.986 Y144.083 E19.58745
G1 X145.956 Y144.176 E19.5907
G1 X145.967 Y144.176
G1 X145.888 Y144.579 E19.60436
G1 X145.856 Y145.13 E19.62272
G1 X145.9 Y145.679 E19.64103
G1 X146.012 Y146.228 E19.65967
G1 X146.055 Y146.34 E19.66366
G1 X146.19 Y146.735 E19.67754
G1 X146.432 Y147.224 E19.69569
G1 X146.733 Y147.69 E19.71414
G1 X146.825 Y147.794 E19.71876
G1 X147.081 Y148.103 E19.73211
G1 X147.173 Y148.182 E19.73614
G1 X147.481 Y148.467 E19.7501
G1 X147.944 Y148.784 E19.76876
G1 X148.033 Y148.826 E19.77203
G1 X148.444 Y149.031 E19.78731
G1 X148.58 Y149.071 E19.79202
G1 X148.963 Y149.199 E19.80546
G1 X149.078 Y149.217 E19.80933
G1 X149.299 Y149.26 E19.81682
G1 X149.299 Y149.376 E19.82067
G1 X149.991 Y149.327 E19.84375
G0 F1080 X150.563 Y149.287
G0 F6000 X150.51 Y148.89
G1 F1200 X150.995 Y148.794 E19.86019
G1 X151.087 Y148.761 E19.86344
G1 X151.459 Y148.637 E19.87648
G1 X151.557 Y148.587 E19.88014
G1 X151.904 Y148.416 E19.89301
G1 X151.988 Y148.356 E19.89644
G1 X152.317 Y148.13 E19.90972
G1 X152.386 Y148.062 E19.91294
G1 X152.677 Y147.799 E19.92599
G1 X152.74 Y147.722 E19.9293
G1 X152.995 Y147.426 E19.94229
G1 X153.266 Y147.01 E19.9588
G1 X153.483 Y146.565 E19.97527
G1 X153.645 Y146.101 E19.99162
G1 X153.748 Y145.61 E20.0083
G1 X153.784 Y145.11 E20.02498
G1 X153.748 Y144.608 E20.04172
G1 X153.64 Y144.1 E20.05899
G1 X153.483 Y143.646 E20.07497
G1 X153.265 Y143.2 E20.09148
G1 X152.988 Y142.772 E20.10843
G1 X152.917 Y142.694 E20.11194
G1 X152.671 Y142.398 E20.12474
G1 X152.296 Y142.059 E20.14156
G1 X152.201 Y141.997 E20.14533
G1 X151.889 Y141.78 E20.15797
G1 X151.436 Y141.563 E20.17468
G1 X150.964 Y141.41 E20.19118
G1 X150.481 Y141.322 E20.20751
G1 X149.997 Y141.294 E20.22363
G1 X149.495 Y141.328 E20.24037
G1 X149.003 Y141.427 E20.25706
G1 X148.915 Y141.46 E20.26019
G1 X148.541 Y141.587 E20.27332
G1 X148.094 Y141.813 E20.28998
G1 X147.924 Y141.934 E20.29692
G1 X147.897 Y141.907 E20.29819
G1 X147.33 Y142.431 E20.32387
G1 X147.015 Y142.809 E20.34024
G1 X146.744 Y143.234 E20.357
G1 X146.704 Y143.325 E20.36031
G1 X146.536 Y143.676 E20.37325
G1 X146.504 Y143.776 E20.37674
G1 X146.505 Y143.776
G1 X146.382 Y144.139 E20.38617
G1 X146.286 Y144.629 E20.40278
G1 X146.257 Y145.126 E20.41933
G1 X146.297 Y145.623 E20.43592
G1 X146.398 Y146.117 E20.45269
G1 X146.428 Y146.199 E20.45559
G1 X146.433 Y146.21 E20.45599
G1 X146.56 Y146.581 E20.46904
G1 X146.78 Y147.026 E20.48555
G1 X147.052 Y147.447 E20.50222
G1 X147.124 Y147.528 E20.50582
G1 X147.368 Y147.822 E20.51853
G1 X147.444 Y147.888 E20.52188
G1 X147.731 Y148.153 E20.53487
G1 X148.144 Y148.436 E20.55152
G1 X148.211 Y148.468 E20.55399
G1 X148.591 Y148.657 E20.56811
G1 X148.693 Y148.687 E20.57164
G1 X149.058 Y148.809 E20.58444
G1 X149.154 Y148.824 E20.58768
G1 X149.532 Y148.897 E20.60048
G1 X149.699 Y148.907 E20.60604
G1 X149.699 Y148.947 E20.60737
G1 X149.997 Y148.926 E20.61731
G0 F1080 X150.51 Y148.89
G0 F6000 X150.099 Y148.518
;TYPE:WALL-OUTER
G1 F1200 X150.457 Y148.493 E20.62925
G1 X150.888 Y148.407 E20.64386
G1 X150.961 Y148.381 E20.64644
G1 X151.304 Y148.267 E20.65846
G1 X151.374 Y148.231 E20.66108
G1 X151.698 Y148.072 E20.67309
G1 X151.762 Y148.026 E20.67571
G1 X152.062 Y147.82 E20.68781
G1 X152.118 Y147.765 E20.69042
G1 X152.387 Y147.522 E20.70248
G1 X152.437 Y147.461 E20.7051
G1 X152.674 Y147.185 E20.7172
G1 X152.917 Y146.812 E20.73201
G1 X153.113 Y146.411 E20.74685
G1 X153.259 Y145.994 E20.76155
G1 X153.351 Y145.554 E20.7765
G1 X153.383 Y145.11 E20.79131
G1 X153.351 Y144.664 E20.80618
G1 X153.254 Y144.207 E20.82172
G1 X153.113 Y143.8 E20.83604
G1 X152.916 Y143.397 E20.85096
G1 X152.67 Y143.017 E20.86602
G1 X152.616 Y142.958 E20.86868
G1 X152.383 Y142.677 E20.88082
G1 X152.323 Y142.624 E20.88348
G1 X152.052 Y142.377 E20.89568
G1 X151.985 Y142.334 E20.89833
G1 X151.687 Y142.127 E20.91039
G1 X151.287 Y141.935 E20.92515
G1 X150.866 Y141.799 E20.93987
G1 X150.433 Y141.72 E20.95451
G1 X149.999 Y141.695 E20.96896
G1 X149.548 Y141.725 E20.984
G1 X149.113 Y141.813 E20.99876
G1 X149.043 Y141.839 E21.00124
G1 X148.698 Y141.956 E21.01336
G1 X148.628 Y141.992 E21.01598
G1 X148.303 Y142.156 E21.02809
G1 X148.241 Y142.201 E21.03063
G1 X147.943 Y142.408 E21.0427
G1 X147.887 Y142.463 E21.04531
G1 X147.886 Y142.462 E21.04536
G1 X147.621 Y142.707 E21.05736
G1 X147.339 Y143.046 E21.07203
G1 X147.098 Y143.423 E21.08691
G1 X147.065 Y143.498 E21.08964
G1 X146.909 Y143.823 E21.10163
G1 X146.886 Y143.896 E21.10417
G1 X146.77 Y144.242 E21.11631
G1 X146.684 Y144.68 E21.13116
G1 X146.658 Y145.122 E21.14588
G1 X146.694 Y145.567 E21.16073
G1 X146.784 Y146.007 E21.17567
G1 X146.811 Y146.08 E21.17826
G1 X146.93 Y146.427 E21.19046
G1 X147.128 Y146.828 E21.20533
G1 X147.371 Y147.204 E21.22022
G1 X147.422 Y147.261 E21.22277
G1 X147.656 Y147.542 E21.23493
G1 X147.715 Y147.594 E21.23755
G1 X147.981 Y147.839 E21.24957
G1 X148.345 Y148.089 E21.26426
G1 X148.389 Y148.11 E21.26588
G1 X148.738 Y148.283 E21.27884
G1 X148.815 Y148.306 E21.28151
G1 X149.153 Y148.419 E21.29336
G1 X149.23 Y148.431 E21.29596
G1 X149.305 Y148.446 E21.2985
G0 F1080 X149.582 Y148.499
G0 X150.02 Y148.525
G0 X150.099 Y148.517
G0 X150.099 Y148.518
G0 F6000 X150.457 Y148.493
G0 X150.498 Y148.485
G0 X150.583 Y148.916
G1 F1500 E15.7985
G0 F6000 X151.153 Y149.365
G0 X150.654 Y147.573
G0 X151.152 Y168.005
G0 X151.152 Y166.15
G0 X166.467 Y166.91
G0 X170.426 Y197.654
G0 X171.532 Y248.224
G0 X178.831 Y248.406
;TYPE:WALL-INNER
G1 F1500 E21.2985
G1 F1200 X178.619 Y248.406 E21.30555
G1 X178.618 Y248.406 E21.30558
G1 X172.105 Y248.406 E21.52221
G1 X172.104 Y250.484 E21.59132
G1 X171.71 Y250.484 E21.60443
G1 X171.709 Y248.406 E21.67276
G1 X171.351 Y248.406 E21.68467
G1 X170.987 Y197.616 E23.37399
G1 X166.969 Y166.34 E24.42279
G1 X133.035 Y166.339 E25.55144
G1 X132.87 Y167.567 E25.59265
G1 X129.011 Y197.616 E26.60029
G1 X129.008 Y198.223 E26.62048
G1 X128.65 Y248.406 E28.28961
G1 X128.293 Y248.406 E28.30149
G1 X128.289 Y250.483 E28.37057
G1 X127.895 Y250.483 E28.38367
G1 X127.895 Y248.406 E28.45224
G1 X121.388 Y248.406 E28.66866
G1 X121.387 Y248.406 E28.66869
G1 X121.175 Y248.406 E28.67574
G1 X121.189 Y248.194 E28.68024
G1 X124.546 Y197.799 E30.3601
G1 X124.586 Y197.429 E30.37247
G1 X127.381 Y167.086 E31.38596
G1 X130.66 Y130.39 E32.61133
G1 X135.824 Y65.134 E34.78854
G1 X135.916 Y63.977 E34.82715
G1 X138.026 Y51.69 E35.2418
G1 X142.768 Y51.689 E35.39952
G1 X142.967 Y51.689 E35.40613
G1 X142.967 Y51.888 E35.41042
G1 X142.967 Y63.84 E35.80794
G1 X144.064 Y63.851 E35.84443
G1 X156.834 Y63.851 E36.26916
G1 X157.033 Y63.851 E36.27578
G1 X157.033 Y63.652 E36.28006
G1 X157.031 Y51.69 E36.67792
G1 X161.974 Y51.689 E36.84233
G1 X164.09 Y64.03 E37.25878
G1 X169.339 Y130.389 E39.47278
G1 X173.011 Y171.392 E40.84201
G1 X175.415 Y197.428 E41.71165
G1 X175.459 Y197.832 E41.72517
G1 X178.817 Y248.194 E43.40393
G1 X178.831 Y248.406 E43.40842
G0 F6000 X179.229 Y248.379
G1 F1200 X179.244 Y248.593 E43.41556
G1 X179.258 Y248.806 E43.42266
G1 X179.045 Y248.806 E43.42716
G1 X172.505 Y248.806 E43.64468
G1 X172.504 Y250.686 E43.70721
G1 X172.504 Y250.885 E43.71383
G1 X172.305 Y250.885 E43.71811
G1 X171.31 Y250.883 E43.7512
G1 X171.309 Y248.806 E43.82028
G1 X170.954 Y248.806 E43.83209
G1 X170.587 Y197.643 E45.53382
G1 X166.617 Y166.74 E46.57011
G1 X133.385 Y166.739 E47.67541
G1 X133.267 Y167.619 E47.70494
G1 X129.411 Y197.643 E48.71174
G1 X129.408 Y198.225 E48.7311
G1 X129.047 Y248.806 E50.41348
G1 X128.692 Y248.806 E50.42528
G1 X128.688 Y250.884 E50.4944
G1 X127.495 Y250.882 E50.53408
G1 X127.495 Y248.806 E50.60313
G1 X120.961 Y248.806 E50.82045
G1 X120.96 Y248.806 E50.82048
G1 X120.748 Y248.806 E50.82753
G1 X120.762 Y248.594 E50.83202
G1 X124.148 Y197.756 E52.52665
G1 X124.188 Y197.389 E52.53893
G1 X126.983 Y167.05 E53.55228
G1 X130.261 Y130.356 E54.77759
G1 X135.425 Y65.102 E56.95473
G1 X135.518 Y63.932 E56.99377
G1 X137.689 Y51.29 E57.4204
G1 X143.168 Y51.289 E57.60263
G1 X143.367 Y51.289 E57.60925
G1 X143.367 Y51.488 E57.61353
G1 X143.367 Y63.444 E58.01119
G1 X144.066 Y63.451 E58.03444
G1 X156.434 Y63.451 E58.4458
G1 X156.633 Y63.451 E58.45242
G1 X156.633 Y63.252 E58.4567
G1 X156.631 Y51.29 E58.85456
G1 X162.311 Y51.289 E59.04347
G1 X164.488 Y63.985 E59.47191
G1 X169.738 Y130.355 E61.68628
G1 X173.409 Y171.356 E63.05543
G1 X175.813 Y197.388 E63.92495
G1 X175.857 Y197.788 E63.93833
G1 X179.176 Y247.581 E65.59813
G0 F1080 X179.229 Y248.379
G0 F6000 X179.685 Y249.206
;TYPE:WALL-OUTER
G1 F1200 X172.905 Y249.206 E65.82363
G1 X172.904 Y251.275 E65.89245
G1 X172.903 Y251.282 E65.89268
G1 X172.89 Y251.285 E65.89312
G1 X170.912 Y251.283 E65.95891
G1 X170.91 Y251.271 E65.95932
G1 X170.909 Y249.206 E66.028
G1 X170.557 Y249.206 E66.03971
G1 X170.187 Y197.67 E67.75385
G1 X166.265 Y167.14 E68.77762
G1 X133.735 Y167.139 E69.85957
G1 X133.664 Y167.671 E69.87743
G1 X129.811 Y197.67 E70.88339
G1 X129.808 Y198.227 E70.90192
G1 X129.444 Y249.206 E72.59753
G1 X129.091 Y249.206 E72.60927
G1 X129.087 Y251.281 E72.67829
G1 X129.073 Y251.284 E72.67876
G1 X127.098 Y251.282 E72.74445
G1 X127.095 Y251.265 E72.74503
G1 X127.095 Y249.206 E72.81351
G1 X120.317 Y249.206 E73.03894
G1 X120.342 Y248.878 E73.04989
G1 X123.747 Y197.745 E74.75434
G1 X123.746 Y197.745 E74.75438
G1 X123.79 Y197.349 E74.76763
G1 X126.585 Y167.014 E75.78085
G1 X129.405 Y135.431 E76.83548
G1 X129.406 Y135.426 E76.83565
G1 X129.862 Y130.322 E77.00609
G1 X135.026 Y65.07 E79.18316
G1 X135.12 Y63.888 E79.2226
G1 X135.121 Y63.882 E79.2228
G1 X137.352 Y50.89 E79.66124
G1 X143.767 Y50.889 E79.87461
G1 X143.767 Y63.048 E80.27902
G1 X144.068 Y63.051 E80.28903
G1 X156.233 Y63.051 E80.69364
G1 X156.231 Y50.89 E81.09812
G1 X162.648 Y50.889 E81.31155
G1 X164.886 Y63.941 E81.75199
G1 X164.894 Y64.037 E81.7552
G1 X165.243 Y68.444 E81.90223
G1 X170.137 Y130.321 E83.9667
G1 X173.807 Y171.32 E85.33578
G1 X176.211 Y197.348 E86.20516
G1 X176.255 Y197.744 E86.21841
G1 X176.758 Y205.286 E86.46982
G1 X179.632 Y248.408 E87.90724
G0 F1080 X179.685 Y249.206
G0 F6000 X179.285 Y249.206
G0 X179.215 Y248.771
G0 X178.413 Y248.296
G0 X178.413 Y248.016
;TYPE:SKIN
G1 F1200 X171.739 Y248.016 E88.12922
G1 X171.377 Y197.589 E89.80647
G1 X167.312 Y165.95 E90.86744
G1 X132.694 Y165.949 E92.01884
G1 X132.484 Y167.516 E92.07143
G1 X128.621 Y197.59 E93.07991
G1 X128.618 Y198.221 E93.1009
G1 X128.262 Y248.016 E94.75713
G1 X121.593 Y248.016 E94.97894
G1 X124.935 Y197.833 E96.65173
G1 X124.974 Y197.468 E96.66394
G1 X127.769 Y167.121 E97.67756
G1 X131.048 Y130.423 E98.903
G1 X136.212 Y65.165 E101.08027
G1 X136.302 Y64.03 E101.11814
G1 X138.354 Y52.08 E101.52142
G1 X142.577 Y52.079 E101.66188
G1 X142.577 Y64.226 E102.06589
G1 X144.062 Y64.241 E102.11528
G1 X157.423 Y64.241 E102.55967
G1 X157.421 Y52.08 E102.96415
G1 X161.645 Y52.079 E103.10464
G1 X163.703 Y64.076 E103.50949
G1 X168.951 Y130.422 E105.72306
G1 X172.623 Y171.427 E107.09235
G1 X175.027 Y197.467 E107.96212
G1 X175.069 Y197.858 E107.9752
G1 X178.36 Y247.218 E109.62057
G0 F1080 X178.413 Y248.016
G1 F1500 E104.12057
G0 F6000 X178.413 Y248.296
G0 X171.532 Y248.224
G0 X170.426 Y197.654
G0 X166.467 Y166.91
G0 X151.132 Y166.15
G0 X151.132 Y168.005
G0 X150.005 Y147.658
G0 X149.971 Y149.539
G0 X151.133 Y149.287
G0 X151.206 Y149.558
G1 F1500 E109.62057
G1 F1200 X151.382 Y149.495 E109.62678
G1 X151.763 Y149.368 E109.64014
G1 X152.309 Y149.097 E109.66042
G1 X152.823 Y148.742 E109.68119
G1 X152.935 Y148.631 E109.68644
G1 X153.251 Y148.345 E109.70061
G1 X153.345 Y148.23 E109.70555
G1 X153.628 Y147.901 E109.71999
G1 X153.955 Y147.401 E109.73986
G1 X154.214 Y146.869 E109.75954
G1 X154.407 Y146.313 E109.77911
G1 X154.533 Y145.721 E109.79924
G1 X154.577 Y145.11 E109.81962
G1 X154.532 Y144.497 E109.84006
G1 X154.402 Y143.888 E109.86077
G1 X154.214 Y143.342 E109.87998
G1 X153.954 Y142.81 E109.89968
G1 X153.616 Y142.289 E109.92033
G1 X153.519 Y142.181 E109.92516
G1 X153.242 Y141.849 E109.93954
G1 X152.78 Y141.431 E109.96026
G1 X152.637 Y141.338 E109.96594
G1 X152.288 Y141.095 E109.98008
G1 X151.73 Y140.828 E110.00065
G1 X151.158 Y140.642 E110.02066
G1 X150.576 Y140.536 E110.04034
G1 X149.993 Y140.503 E110.05976
G1 X149.39 Y140.543 E110.07986
G1 X148.786 Y140.665 E110.10035
G1 X148.647 Y140.716 E110.10528
G1 X148.234 Y140.856 E110.11978
G1 X148.055 Y140.948 E110.12647
G1 X147.918 Y140.811 E110.13292
G1 X146.756 Y141.886 E110.18557
