;FLAVOR:Marlin
M117 Time Left 3h31m14s
;Filament used: 7.58004m
;Layer height: 0.2
;MINX:122.902
;MINY:47.506
;MINZ:0.2
;MAXX:177.927
;MAXY:253.161
;MAXZ:15
;POSTPROCESSED
;Generated with Cura_SteamEngine 4.6.0
M140 S58
M105
M190 S58
M104 S195
M105
M109 S195
M82 ;absolute extrusion mode
M201 X500.00 Y500.00 Z100.00 E5000.00 ;Setup machine max acceleration
M203 X500.00 Y500.00 Z10.00 E50.00 ;Setup machine max feedrate
M204 P500.00 R1000.00 T500.00 ;Setup Print/Retract/Travel acceleration
M205 X8.00 Y8.00 Z0.40 E5.00 ;Setup Jerk
M220 S100 ;Reset Feedrate
M221 S100 ;Reset Flowrate

G28 ;Home

G92 E0 ;Reset Extruder
G1 Z2.0 F3000 ;Move Z Axis up
G1 X10.1 Y20 Z0.28 F5000.0 ;Move to start position
G1 X10.1 Y200.0 Z0.28 F1500.0 E15 ;Draw the first line
G1 X10.4 Y200.0 Z0.28 F5000.0 ;Move to side a little
G1 X10.4 Y20 Z0.28 F1500.0 E30 ;Draw the second line
G92 E0 ;Reset Extruder
G1 Z2.0 F3000 ;Move Z Axis up

G92 E0
G92 E0
G1 F1500 E-5.5
;LAYER_COUNT:75
;LAYER:0
M107
G0 F6000 X146.945 Y74.871 Z0.2
;TYPE:SKIRT
G1 F1500 E0
G1 F1200 X149.997 Y74.877 E0.10659
G1 X150.013 Y74.877 E0.10714
G1 X153.066 Y74.871 E0.21376
G1 X154.553 Y102.014 E1.16311
G1 X154.239 Y102.13 E1.1748
G1 X153.947 Y102.278 E1.18623
G1 X153.599 Y102.474 E1.20018
G1 X153.14 Y102.779 E1.21942
G1 X152.73 Y103.146 E1.23864
G1 X152.377 Y103.569 E1.25788
G1 X152.089 Y104.039 E1.27713
G1 X151.953 Y104.331 E1.28838
G1 X151.121 Y106.34 E1.36432
G1 X150.948 Y106.863 E1.38356
G1 X150.852 Y107.406 E1.40281
G1 X150.846 Y108.115 E1.42758
G1 X150.923 Y109.022 E1.45936
G1 X150.844 Y109.474 E1.47539
G1 X150.838 Y110.18 E1.50005
G1 X150.914 Y111.077 E1.53148
G1 X150.834 Y111.507 E1.54676
G1 X150.826 Y112.262 E1.57313
G1 X150.905 Y113.159 E1.60457
G1 X150.828 Y113.591 E1.6199
G1 X150.822 Y114.303 E1.64477
G1 X150.898 Y115.205 E1.67638
G1 X150.819 Y115.63 E1.69147
G1 X150.81 Y116.389 E1.71798
G1 X150.889 Y117.285 E1.7494
G1 X150.812 Y117.717 E1.76472
G1 X150.806 Y118.43 E1.78962
G1 X150.883 Y119.341 E1.82155
G1 X150.804 Y119.793 E1.83757
G1 X150.798 Y120.5 E1.86227
G1 X150.875 Y121.405 E1.89399
G1 X150.796 Y121.856 E1.90998
G1 X150.79 Y122.562 E1.93463
G1 X150.866 Y123.459 E1.96607
G1 X150.786 Y123.889 E1.98134
G1 X150.778 Y124.644 E2.00771
G1 X150.857 Y125.541 E2.03916
G1 X150.78 Y125.973 E2.05449
G1 X150.774 Y126.686 E2.07939
G1 X150.851 Y127.592 E2.11114
G1 X150.774 Y128.003 E2.12574
G1 X150.773 Y128.072 E2.12815
G1 X149.233 Y128.071 E2.18194
G1 X149.176 Y127.645 E2.19695
G1 X149.16 Y127.592 E2.19888
G1 X149.238 Y126.702 E2.23008
G1 X149.247 Y126.151 E2.24932
G1 X149.175 Y125.604 E2.26859
G1 X149.15 Y125.524 E2.27152
G1 X149.227 Y124.613 E2.30345
G1 X149.233 Y124.062 E2.32269
G1 X149.16 Y123.516 E2.34193
G1 X149.144 Y123.466 E2.34376
G1 X149.223 Y122.586 E2.37462
G1 X149.232 Y122.035 E2.39386
G1 X149.161 Y121.489 E2.41309
G1 X149.134 Y121.401 E2.41631
G1 X149.21 Y120.487 E2.44834
G1 X149.216 Y119.936 E2.46758
G1 X149.142 Y119.39 E2.48682
G1 X149.128 Y119.343 E2.48854
G1 X149.206 Y118.463 E2.51939
G1 X149.215 Y117.912 E2.53863
G1 X149.144 Y117.365 E2.5579
G1 X149.117 Y117.278 E2.56108
G1 X149.194 Y116.372 E2.59283
G1 X149.201 Y115.821 E2.61208
G1 X149.128 Y115.275 E2.63131
G1 X149.109 Y115.213 E2.63358
G1 X149.186 Y114.307 E2.66533
G1 X149.193 Y113.757 E2.68454
G1 X149.12 Y113.21 E2.70382
G1 X149.101 Y113.148 E2.70608
G1 X149.178 Y112.238 E2.73797
G1 X149.185 Y111.687 E2.75722
G1 X149.112 Y111.14 E2.77649
G1 X149.095 Y111.087 E2.77843
G1 X149.174 Y110.197 E2.80964
G1 X149.183 Y109.646 E2.82888
G1 X149.112 Y109.1 E2.84811
G1 X149.086 Y109.017 E2.85115
G1 X149.163 Y108.105 E2.88311
G1 X149.169 Y107.554 E2.90236
G1 X149.096 Y107.008 E2.92159
G1 X148.882 Y106.32 E2.94676
G1 X148.045 Y104.319 E3.0225
G1 X147.796 Y103.827 E3.04176
G1 X147.478 Y103.377 E3.06101
G1 X147.099 Y102.977 E3.08025
G1 X146.666 Y102.636 E3.0995
G1 X146.393 Y102.468 E3.11069
G1 X146.044 Y102.273 E3.12465
G1 X145.544 Y102.04 E3.14392
G1 X145.457 Y102.014 E3.14709
G1 X146.902 Y75.669 E4.06852
G0 F1080 X146.945 Y74.871
G0 F6000 X146.566 Y74.47
G1 F1200 X149.998 Y74.477 E4.18838
G1 X150.012 Y74.477 E4.18887
G1 X153.444 Y74.47 E4.30872
G1 X154.97 Y102.305 E5.28227
G1 X154.786 Y102.348 E5.28887
G1 X154.143 Y102.627 E5.31335
G1 X153.795 Y102.823 E5.3273
G1 X153.362 Y103.112 E5.34548
G1 X152.979 Y103.465 E5.36367
G1 X152.653 Y103.872 E5.38188
G1 X152.323 Y104.484 E5.40616
G1 X151.491 Y106.493 E5.4821
G1 X151.329 Y106.988 E5.50029
G1 X151.244 Y107.503 E5.51852
G1 X151.244 Y108.081 E5.5387
G1 X151.325 Y109.04 E5.57231
G1 X151.32 Y109.057 E5.57293
G1 X151.236 Y109.571 E5.59112
G1 X151.236 Y110.146 E5.6112
G1 X151.316 Y111.091 E5.64432
G1 X151.315 Y111.094 E5.64443
G1 X151.226 Y111.607 E5.66261
G1 X151.224 Y112.227 E5.68427
G1 X151.307 Y113.17 E5.71733
G1 X151.306 Y113.174 E5.71747
G1 X151.221 Y113.688 E5.73567
G1 X151.22 Y114.269 E5.75596
G1 X151.3 Y115.217 E5.78918
G1 X151.3 Y115.218 E5.78922
G1 X151.21 Y115.731 E5.8074
G1 X151.208 Y116.354 E5.82916
G1 X151.291 Y117.296 E5.86219
G1 X151.29 Y117.3 E5.86233
G1 X151.205 Y117.814 E5.88053
G1 X151.204 Y118.396 E5.90085
G1 X151.286 Y119.359 E5.9346
G1 X151.28 Y119.376 E5.93523
G1 X151.196 Y119.89 E5.95342
G1 X151.196 Y120.466 E5.97354
G1 X151.277 Y121.423 E6.00708
G1 X151.272 Y121.439 E6.00766
G1 X151.188 Y121.953 E6.02585
G1 X151.188 Y122.528 E6.04593
G1 X151.268 Y123.473 E6.07905
G1 X151.267 Y123.476 E6.07916
G1 X151.178 Y123.989 E6.09735
G1 X151.176 Y124.609 E6.119
G1 X151.259 Y125.552 E6.15206
G1 X151.258 Y125.556 E6.1522
G1 X151.173 Y126.07 E6.1704
G1 X151.172 Y126.652 E6.19072
G1 X151.253 Y127.604 E6.22409
G1 X151.165 Y128.104 E6.24182
G1 X151.163 Y128.472 E6.25467
G1 X148.846 Y128.471 E6.33559
G1 X148.848 Y128.187 E6.34551
G1 X148.772 Y127.672 E6.36369
G1 X148.756 Y127.621 E6.36555
G1 X148.84 Y126.667 E6.399
G1 X148.846 Y126.145 E6.41723
G1 X148.772 Y125.63 E6.4354
G1 X148.746 Y125.549 E6.43837
G1 X148.828 Y124.579 E6.47237
G1 X148.832 Y124.058 E6.49056
G1 X148.756 Y123.542 E6.50878
G1 X148.741 Y123.494 E6.51053
G1 X148.825 Y122.55 E6.54363
G1 X148.831 Y122.029 E6.56183
G1 X148.758 Y121.513 E6.58003
G1 X148.73 Y121.425 E6.58325
G1 X148.811 Y120.454 E6.61728
G1 X148.815 Y119.933 E6.63548
G1 X148.739 Y119.417 E6.65369
G1 X148.724 Y119.37 E6.65541
G1 X148.808 Y118.427 E6.68848
G1 X148.814 Y117.906 E6.70667
G1 X148.74 Y117.39 E6.72488
G1 X148.714 Y117.308 E6.72788
G1 X148.796 Y116.338 E6.76188
G1 X148.8 Y115.817 E6.78007
G1 X148.724 Y115.301 E6.79829
G1 X148.706 Y115.243 E6.80041
G1 X148.788 Y114.274 E6.83437
G1 X148.792 Y113.753 E6.85257
G1 X148.716 Y113.237 E6.87078
G1 X148.697 Y113.179 E6.87291
G1 X148.78 Y112.204 E6.90709
G1 X148.784 Y111.683 E6.92528
G1 X148.708 Y111.167 E6.9435
G1 X148.692 Y111.116 E6.94536
G1 X148.776 Y110.162 E6.97881
G1 X148.782 Y109.641 E6.99701
G1 X148.708 Y109.125 E7.01521
G1 X148.682 Y109.044 E7.01818
G1 X148.764 Y108.072 E7.05225
G1 X148.768 Y107.55 E7.07048
G1 X148.692 Y107.035 E7.08866
G1 X148.513 Y106.474 E7.10922
G1 X147.676 Y104.473 E7.18497
G1 X147.438 Y104.009 E7.20318
G1 X147.133 Y103.587 E7.22137
G1 X146.766 Y103.216 E7.23959
G1 X146.197 Y102.817 E7.26386
G1 X145.848 Y102.622 E7.27782
G1 X145.375 Y102.403 E7.29603
G1 X145.04 Y102.308 E7.30819
G1 X146.523 Y75.268 E8.25393
G0 F1080 X146.566 Y74.47
G0 F6000 X146.188 Y74.069
G1 F1200 X149.999 Y74.077 E8.38702
G1 X150.011 Y74.077 E8.38744
G1 X153.823 Y74.069 E8.52057
G1 X155.387 Y102.625 E9.51933
G1 X155.295 Y102.634 E9.52255
G1 X154.822 Y102.757 E9.53962
G1 X154.34 Y102.975 E9.5581
G1 X153.992 Y103.171 E9.57205
G1 X153.586 Y103.445 E9.58915
G1 X153.231 Y103.782 E9.60624
G1 X152.935 Y104.172 E9.62334
G1 X152.692 Y104.637 E9.64167
G1 X151.86 Y106.646 E9.71761
G1 X151.711 Y107.112 E9.73469
G1 X151.639 Y107.596 E9.75178
G1 X151.643 Y108.048 E9.76757
G1 X151.731 Y109.088 E9.80402
G1 X151.702 Y109.18 E9.80738
G1 X151.63 Y109.664 E9.82447
G1 X151.635 Y110.112 E9.84012
G1 X151.722 Y111.141 E9.87618
G1 X151.696 Y111.221 E9.87912
G1 X151.619 Y111.704 E9.8962
G1 X151.623 Y112.192 E9.91325
G1 X151.713 Y113.216 E9.94915
G1 X151.687 Y113.298 E9.95215
G1 X151.615 Y113.782 E9.96924
G1 X151.619 Y114.236 E9.98509
G1 X151.706 Y115.266 E10.02119
G1 X151.68 Y115.345 E10.0241
G1 X151.604 Y115.828 E10.04117
G1 X151.607 Y116.319 E10.05832
G1 X151.697 Y117.342 E10.09418
G1 X151.671 Y117.424 E10.09719
G1 X151.599 Y117.908 E10.11428
G1 X151.603 Y118.362 E10.13013
G1 X151.691 Y119.407 E10.16676
G1 X151.662 Y119.499 E10.17013
G1 X151.59 Y119.983 E10.18721
G1 X151.595 Y120.432 E10.2029
G1 X151.683 Y121.471 E10.23931
G1 X151.654 Y121.562 E10.24265
G1 X151.582 Y122.046 E10.25974
G1 X151.587 Y122.494 E10.27538
G1 X151.674 Y123.523 E10.31145
G1 X151.648 Y123.603 E10.31438
G1 X151.571 Y124.086 E10.33146
G1 X151.575 Y124.574 E10.34851
G1 X151.665 Y125.598 E10.38441
G1 X151.639 Y125.68 E10.38741
G1 X151.567 Y126.164 E10.4045
G1 X151.571 Y126.618 E10.42036
G1 X151.658 Y127.648 E10.45645
G1 X151.635 Y127.718 E10.45903
G1 X151.559 Y128.202 E10.47614
G1 X151.561 Y128.681 E10.49287
G1 X151.577 Y128.872 E10.49956
G1 X148.428 Y128.871 E10.60953
G1 X148.445 Y128.675 E10.6164
G1 X148.447 Y128.185 E10.63352
G1 X148.368 Y127.702 E10.65061
G1 X148.351 Y127.651 E10.65249
G1 X148.441 Y126.631 E10.68825
G1 X148.444 Y126.142 E10.70532
G1 X148.368 Y125.659 E10.7224
G1 X148.342 Y125.579 E10.72534
G1 X148.429 Y124.545 E10.76157
G1 X148.431 Y124.056 E10.77865
G1 X148.352 Y123.573 E10.79574
G1 X148.336 Y123.524 E10.79754
G1 X148.426 Y122.515 E10.83292
G1 X148.43 Y122.025 E10.85003
G1 X148.354 Y121.542 E10.86711
G1 X148.326 Y121.458 E10.8702
G1 X148.413 Y120.42 E10.90658
G1 X148.413 Y119.931 E10.92366
G1 X148.335 Y119.448 E10.94074
G1 X148.319 Y119.4 E10.94251
G1 X148.409 Y118.392 E10.97785
G1 X148.413 Y117.902 E10.99497
G1 X148.336 Y117.419 E11.01205
G1 X148.309 Y117.338 E11.01503
G1 X148.397 Y116.304 E11.05127
G1 X148.399 Y115.815 E11.06835
G1 X148.32 Y115.332 E11.08544
G1 X148.301 Y115.274 E11.08757
G1 X148.389 Y114.24 E11.12381
G1 X148.391 Y113.75 E11.14092
G1 X148.313 Y113.267 E11.15801
G1 X148.293 Y113.207 E11.16022
G1 X148.381 Y112.17 E11.19656
G1 X148.383 Y111.681 E11.21364
G1 X148.304 Y111.197 E11.23077
G1 X148.287 Y111.145 E11.23268
G1 X148.377 Y110.127 E11.26837
G1 X148.38 Y109.637 E11.28548
G1 X148.304 Y109.154 E11.30256
G1 X148.278 Y109.074 E11.3055
G1 X148.365 Y108.038 E11.3418
G1 X148.367 Y107.549 E11.35888
G1 X148.288 Y107.065 E11.37601
G1 X148.144 Y106.628 E11.39208
G1 X147.307 Y104.627 E11.46782
G1 X147.082 Y104.193 E11.4849
G1 X146.789 Y103.8 E11.50202
G1 X146.436 Y103.461 E11.51911
G1 X146.002 Y103.166 E11.53743
G1 X145.653 Y102.971 E11.5514
G1 X145.208 Y102.768 E11.56848
G1 X144.735 Y102.64 E11.58559
G1 X144.623 Y102.629 E11.58952
G1 X146.145 Y74.867 E12.56051
G0 F1080 X146.188 Y74.069
G0 F6000 X145.809 Y73.668
G1 F1200 X150 Y73.677 E12.70688
G1 X150.01 Y73.677 E12.70723
G1 X154.202 Y73.668 E12.85362
G1 X155.809 Y102.994 E13.87932
G1 X155.755 Y102.99 E13.88121
G1 X155.302 Y103.039 E13.89712
G1 X154.865 Y103.168 E13.91303
G1 X154.536 Y103.324 E13.92575
G1 X154.188 Y103.52 E13.9397
G1 X153.812 Y103.777 E13.9556
G1 X153.487 Y104.096 E13.97151
G1 X153.223 Y104.467 E13.98741
G1 X153.062 Y104.79 E14.00001
G1 X152.23 Y106.799 E14.07595
G1 X152.093 Y107.234 E14.09188
G1 X152.034 Y107.686 E14.1078
G1 X152.041 Y108.014 E14.11925
G1 X152.136 Y109.137 E14.15861
G1 X152.085 Y109.301 E14.16461
G1 X152.026 Y109.753 E14.18053
G1 X152.033 Y110.079 E14.19192
G1 X152.127 Y111.191 E14.23089
G1 X152.077 Y111.346 E14.23658
G1 X152.014 Y111.797 E14.25248
G1 X152.021 Y112.156 E14.26502
G1 X152.119 Y113.265 E14.3039
G1 X152.07 Y113.42 E14.30958
G1 X152.01 Y113.872 E14.3255
G1 X152.017 Y114.202 E14.33703
G1 X152.111 Y115.318 E14.37614
G1 X152.062 Y115.47 E14.38172
G1 X151.998 Y115.922 E14.39766
G1 X152.005 Y116.284 E14.41031
G1 X152.103 Y117.392 E14.44915
G1 X152.054 Y117.546 E14.4548
G1 X151.994 Y117.998 E14.47072
G1 X152.001 Y118.328 E14.48225
G1 X152.096 Y119.455 E14.52175
G1 X152.045 Y119.62 E14.52778
G1 X151.986 Y120.072 E14.5437
G1 X151.993 Y120.398 E14.55508
G1 X152.088 Y121.519 E14.59437
G1 X152.037 Y121.683 E14.60037
G1 X151.978 Y122.135 E14.61629
G1 X151.985 Y122.461 E14.62768
G1 X152.079 Y123.573 E14.66665
G1 X152.029 Y123.728 E14.67234
G1 X151.966 Y124.179 E14.68824
G1 X151.973 Y124.538 E14.70078
G1 X152.071 Y125.647 E14.73966
G1 X152.022 Y125.802 E14.74534
G1 X151.962 Y126.254 E14.76126
G1 X151.969 Y126.584 E14.77279
G1 X152.063 Y127.699 E14.81187
G1 X152.017 Y127.843 E14.81715
G1 X151.953 Y128.295 E14.83309
G1 X151.959 Y128.647 E14.84538
G1 X152.012 Y129.272 E14.86729
G1 X147.994 Y129.271 E15.00761
G1 X148.047 Y128.641 E15.02969
G1 X148.045 Y128.185 E15.04562
G1 X147.964 Y127.737 E15.06151
G1 X147.947 Y127.687 E15.06336
G1 X148.043 Y126.596 E15.10161
G1 X148.043 Y126.141 E15.1175
G1 X147.964 Y125.692 E15.13342
G1 X147.938 Y125.617 E15.13619
G1 X148.031 Y124.512 E15.17492
G1 X148.029 Y124.056 E15.19084
G1 X147.948 Y123.608 E15.20674
G1 X147.931 Y123.56 E15.20852
G1 X148.028 Y122.479 E15.24642
G1 X148.028 Y122.024 E15.26231
G1 X147.949 Y121.575 E15.27823
G1 X147.921 Y121.495 E15.2812
G1 X148.014 Y120.387 E15.32003
G1 X148.012 Y119.931 E15.33595
G1 X147.931 Y119.483 E15.35185
G1 X147.915 Y119.436 E15.35358
G1 X148.011 Y118.356 E15.39145
G1 X148.011 Y117.901 E15.40734
G1 X147.932 Y117.452 E15.42326
G1 X147.905 Y117.374 E15.42614
G1 X147.999 Y116.27 E15.46484
G1 X147.997 Y115.815 E15.48073
G1 X147.916 Y115.366 E15.49666
G1 X147.897 Y115.311 E15.49869
G1 X147.991 Y114.206 E15.53742
G1 X147.989 Y113.75 E15.55335
G1 X147.908 Y113.302 E15.56925
G1 X147.889 Y113.246 E15.57131
G1 X147.983 Y112.136 E15.61022
G1 X147.981 Y111.681 E15.62611
G1 X147.9 Y111.232 E15.64204
G1 X147.883 Y111.182 E15.64388
G1 X147.979 Y110.092 E15.6821
G1 X147.979 Y109.636 E15.69802
G1 X147.9 Y109.187 E15.71394
G1 X147.874 Y109.111 E15.71675
G1 X147.967 Y108.004 E15.75555
G1 X147.965 Y107.549 E15.77144
G1 X147.884 Y107.1 E15.78737
G1 X147.775 Y106.783 E15.79908
G1 X146.938 Y104.782 E15.87483
G1 X146.726 Y104.378 E15.89076
G1 X146.447 Y104.018 E15.90666
G1 X146.109 Y103.712 E15.92259
G1 X145.807 Y103.515 E15.93518
G1 X145.458 Y103.32 E15.94914
G1 X145.042 Y103.134 E15.96506
G1 X144.601 Y103.023 E15.98094
G1 X144.201 Y102.994 E15.99494
G1 X145.766 Y74.466 E16.99273
G0 F1080 X145.809 Y73.668
G0 F6000 X145.431 Y73.267
G1 F1200 X150 Y73.277 E17.15229
G1 X150.01 Y73.277 E17.15264
G1 X154.58 Y73.267 E17.31224
G1 X156.233 Y103.428 E18.36714
G1 X156.149 Y103.415 E18.37011
G1 X155.73 Y103.391 E18.38476
G1 X155.315 Y103.446 E18.39938
G1 X154.732 Y103.672 E18.42122
G1 X154.384 Y103.868 E18.43517
G1 X154.041 Y104.108 E18.44979
G1 X153.748 Y104.408 E18.46443
G1 X153.431 Y104.943 E18.48615
G1 X152.599 Y106.952 E18.56209
G1 X152.477 Y107.353 E18.57673
G1 X152.432 Y107.77 E18.59137
G1 X152.44 Y107.98 E18.59871
G1 X152.542 Y109.179 E18.64074
G1 X152.468 Y109.42 E18.64954
G1 X152.432 Y110.045 E18.67141
G1 X152.533 Y111.237 E18.71318
G1 X152.46 Y111.468 E18.72164
G1 X152.411 Y111.885 E18.73631
G1 X152.42 Y112.121 E18.74455
G1 X152.525 Y113.307 E18.78614
G1 X152.453 Y113.54 E18.79465
G1 X152.408 Y113.956 E18.80927
G1 X152.416 Y114.168 E18.81667
G1 X152.517 Y115.363 E18.85856
G1 X152.444 Y115.593 E18.86698
G1 X152.395 Y116.009 E18.88161
G1 X152.404 Y116.248 E18.88996
G1 X152.509 Y117.433 E18.93151
G1 X152.437 Y117.666 E18.94003
G1 X152.392 Y118.082 E18.95464
G1 X152.4 Y118.295 E18.96208
G1 X152.502 Y119.498 E19.00425
G1 X152.428 Y119.739 E19.01305
G1 X152.392 Y120.364 E19.03491
G1 X152.494 Y121.562 E19.0769
G1 X152.42 Y121.802 E19.08567
G1 X152.384 Y122.427 E19.10754
G1 X152.485 Y123.619 E19.14932
G1 X152.412 Y123.85 E19.15778
G1 X152.363 Y124.267 E19.17244
G1 X152.372 Y124.503 E19.18069
G1 X152.477 Y125.689 E19.22227
G1 X152.405 Y125.922 E19.23078
G1 X152.36 Y126.338 E19.2454
G1 X152.368 Y126.551 E19.25284
G1 X152.469 Y127.746 E19.29472
G1 X152.399 Y127.966 E19.30279
G1 X152.35 Y128.382 E19.31741
G1 X152.358 Y128.613 E19.32549
G1 X152.448 Y129.672 E19.3626
G1 X147.558 Y129.671 E19.53338
G1 X147.648 Y128.607 E19.57067
G1 X147.644 Y128.188 E19.5853
