;FLAVOR:Marlin
M117 Time Left 1h10m05s
;Filament used: 2.2585m
;Layer height: 0.2
;MINX:132.625
;MINY:132.628
;MINZ:0.2
;MAXX:167.365
;MAXY:167.366
;MAXZ:23.4
;POSTPROCESSED
;Generated with Cura_SteamEngine 4.6.0
M140 S58
M105
M190 S58
M104 S195
M105
M109 S195
M82 ;absolute extrusion mode
M201 X500.00 Y500.00 Z100.00 E5000.00 ;Setup machine max acceleration
M203 X500.00 Y500.00 Z10.00 E50.00 ;Setup machine max feedrate
M204 P500.00 R1000.00 T500.00 ;Setup Print/Retract/Travel acceleration
M205 X8.00 Y8.00 Z0.40 E5.00 ;Setup Jerk
M220 S100 ;Reset Feedrate
M221 S100 ;Reset Flowrate

G28 ;Home

G92 E0 ;Reset Extruder
G1 Z2.0 F3000 ;Move Z Axis up
G1 X10.1 Y20 Z0.28 F5000.0 ;Move to start position
G1 X10.1 Y200.0 Z0.28 F1500.0 E15 ;Draw the first line
G1 X10.4 Y200.0 Z0.28 F5000.0 ;Move to side a little
G1 X10.4 Y20 Z0.28 F1500.0 E30 ;Draw the second line
G92 E0 ;Reset Extruder
G1 Z2.0 F3000 ;Move Z Axis up

G92 E0
G92 E0
G1 F1500 E-5.5
;LAYER_COUNT:117
;LAYER:0
M107
G0 F6000 X137.749 Y137.673 Z0.2
;TYPE:SKIRT
G1 F1500 E0
G1 F1200 X138.09 Y137.379 E0.01572
G1 X140.886 Y135.238 E0.13871
G1 X141.346 Y134.936 E0.15793
G1 X141.746 Y134.743 E0.17344
G1 X145.045 Y133.381 E0.29808
G1 X145.568 Y133.208 E0.31732
G1 X145.997 Y133.126 E0.33257
G1 X149.513 Y132.661 E0.45643
G1 X150.063 Y132.628 E0.47567
G1 X150.506 Y132.66 E0.49118
G1 X154.045 Y133.125 E0.61584
G1 X154.585 Y133.237 E0.6351
G1 X155.003 Y133.382 E0.65055
G1 X158.2 Y134.705 E0.77138
G1 X158.693 Y134.952 E0.79064
G1 X159.056 Y135.198 E0.80595
G1 X161.919 Y137.389 E0.93186
G1 X162.332 Y137.755 E0.95113
G1 X162.626 Y138.096 E0.96685
G1 X164.762 Y140.884 E1.08951
G1 X165.065 Y141.344 E1.10875
G1 X165.256 Y141.74 E1.1241
G1 X166.627 Y145.047 E1.24912
G1 X166.801 Y145.57 E1.26837
G1 X166.885 Y146.01 E1.28402
G1 X167.333 Y149.439 E1.40478
G1 X167.365 Y149.989 E1.42402
G1 X167.332 Y150.433 E1.43957
G1 X166.849 Y154.055 E1.56718
G1 X166.736 Y154.595 E1.58645
G1 X166.594 Y155.004 E1.60157
G1 X165.257 Y158.24 E1.72385
G1 X165.01 Y158.733 E1.74311
G1 X164.763 Y159.098 E1.7585
G1 X162.606 Y161.918 E1.88249
G1 X162.241 Y162.33 E1.90171
G1 X161.899 Y162.626 E1.91751
G1 X159.121 Y164.754 E2.03971
G1 X158.66 Y165.056 E2.05896
G1 X158.267 Y165.247 E2.07422
G1 X154.937 Y166.629 E2.20013
G1 X154.414 Y166.803 E2.21938
G1 X153.969 Y166.887 E2.2352
G1 X150.524 Y167.334 E2.35652
G1 X149.974 Y167.366 E2.37576
G1 X149.532 Y167.333 E2.39123
G1 X145.959 Y166.856 E2.51712
G1 X145.42 Y166.743 E2.53636
G1 X145.011 Y166.601 E2.55148
G1 X141.745 Y165.252 E2.67488
G1 X141.253 Y165.005 E2.69411
G1 X140.89 Y164.76 E2.7094
G1 X138.344 Y162.816 E2.82127
G1 X138.112 Y162.624 E2.83179
G1 X137.771 Y162.318 E2.84779
G1 X137.286 Y161.793 E2.87275
G1 X137.126 Y161.583 E2.88197
G1 X135.224 Y159.105 E2.99106
G1 X134.921 Y158.645 E3.0103
G1 X134.73 Y158.251 E3.02559
G1 X133.37 Y154.983 E3.14921
G1 X133.195 Y154.46 E3.16847
G1 X133.11 Y154.012 E3.18439
G1 X132.657 Y150.519 E3.3074
G1 X132.625 Y149.969 E3.32664
G1 X132.658 Y149.527 E3.34212
G1 X133.131 Y145.983 E3.46698
G1 X133.244 Y145.444 E3.48622
G1 X133.385 Y145.037 E3.50126
G1 X134.743 Y141.746 E3.62559
G1 X134.99 Y141.253 E3.64485
G1 X135.239 Y140.884 E3.6604
G1 X137.232 Y138.282 E3.77486
G0 F1080 X137.383 Y138.085
G0 X137.749 Y137.673
G0 F6000 X138.049 Y137.94
G1 F1200 X138.333 Y137.697 E3.78791
G1 X141.129 Y135.556 E3.9109
G1 X141.566 Y135.271 E3.92912
G1 X141.899 Y135.112 E3.942
G1 X145.198 Y133.75 E4.06665
G1 X145.693 Y133.589 E4.08483
G1 X146.049 Y133.522 E4.09748
G1 X149.565 Y133.057 E4.22134
G1 X150.086 Y133.029 E4.23956
G1 X150.454 Y133.057 E4.25245
G1 X153.993 Y133.522 E4.3771
G1 X154.503 Y133.629 E4.3953
G1 X154.85 Y133.751 E4.40814
G1 X158.047 Y135.074 E4.52898
G1 X158.512 Y135.31 E4.54719
G1 X158.813 Y135.516 E4.55993
G1 X161.676 Y137.707 E4.68583
G1 X162.065 Y138.054 E4.70403
G1 X162.309 Y138.339 E4.71714
G1 X164.445 Y141.127 E4.83979
G1 X164.729 Y141.564 E4.85799
G1 X164.887 Y141.893 E4.87074
G1 X166.258 Y145.2 E4.99576
G1 X166.42 Y145.695 E5.01395
G1 X166.488 Y146.062 E5.02699
G1 X166.936 Y149.491 E5.14776
G1 X166.964 Y150.011 E5.16594
G1 X166.935 Y150.38 E5.17887
G1 X166.452 Y154.002 E5.30648
G1 X166.344 Y154.512 E5.32469
G1 X166.224 Y154.851 E5.33724
G1 X164.887 Y158.087 E5.45952
G1 X164.652 Y158.552 E5.47772
G1 X164.446 Y158.855 E5.49051
G1 X162.289 Y161.675 E5.6145
G1 X161.941 Y162.063 E5.6327
G1 X161.656 Y162.308 E5.64583
G1 X158.878 Y164.436 E5.76804
G1 X158.441 Y164.72 E5.78624
G1 X158.113 Y164.877 E5.79894
G1 X154.783 Y166.259 E5.92485
G1 X154.288 Y166.422 E5.94305
G1 X153.917 Y166.491 E5.95623
G1 X150.472 Y166.938 E6.07755
G1 X149.952 Y166.965 E6.09573
G1 X149.585 Y166.936 E6.10859
G1 X146.012 Y166.459 E6.23448
G1 X145.502 Y166.351 E6.25268
G1 X145.164 Y166.231 E6.26521
G1 X141.898 Y164.882 E6.38861
G1 X141.433 Y164.647 E6.40681
G1 X141.133 Y164.442 E6.4195
G1 X138.587 Y162.498 E6.53137
G1 X138.379 Y162.327 E6.54077
G1 X138.038 Y162.021 E6.55677
G1 X137.605 Y161.551 E6.57909
G1 X137.452 Y161.351 E6.58789
G1 X135.541 Y158.862 E6.69747
G1 X135.256 Y158.425 E6.71569
G1 X135.099 Y158.097 E6.72839
G1 X133.739 Y154.829 E6.85201
G1 X133.576 Y154.334 E6.87021
G1 X133.506 Y153.96 E6.8835
G1 X133.053 Y150.467 E7.00651
G1 X133.026 Y149.947 E7.02469
G1 X133.055 Y149.58 E7.03755
G1 X133.528 Y146.036 E7.16241
G1 X133.636 Y145.526 E7.18062
G1 X133.755 Y145.189 E7.1931
G1 X135.113 Y141.898 E7.31743
G1 X135.348 Y141.433 E7.33563
G1 X135.557 Y141.127 E7.34857
G1 X137.532 Y138.549 E7.46198
G0 F1080 X137.701 Y138.328
G0 X138.049 Y137.94
G0 F6000 X138.347 Y138.209
G1 F1200 X138.576 Y138.014 E7.47249
G1 X141.372 Y135.873 E7.59547
G1 X141.784 Y135.608 E7.61258
G1 X142.051 Y135.482 E7.62289
G1 X145.35 Y134.12 E7.74754
G1 X145.816 Y133.971 E7.76462
G1 X146.102 Y133.919 E7.77477
G1 X149.618 Y133.454 E7.89863
G1 X150.107 Y133.43 E7.91573
G1 X150.402 Y133.454 E7.92607
G1 X153.941 Y133.919 E8.05072
G1 X154.419 Y134.022 E8.0678
G1 X154.697 Y134.121 E8.0781
G1 X157.894 Y135.444 E8.19894
G1 X158.33 Y135.667 E8.21604
G1 X158.57 Y135.834 E8.22625
G1 X161.433 Y138.025 E8.35215
G1 X161.796 Y138.353 E8.36924
G1 X161.991 Y138.582 E8.37974
G1 X164.127 Y141.37 E8.5024
G1 X164.392 Y141.782 E8.51951
G1 X164.517 Y142.046 E8.52971
G1 X165.888 Y145.353 E8.65473
G1 X166.038 Y145.819 E8.67183
G1 X166.092 Y146.113 E8.68227
G1 X166.54 Y149.542 E8.80304
G1 X166.563 Y150.031 E8.82013
G1 X166.539 Y150.328 E8.83054
G1 X166.056 Y153.95 E8.95815
G1 X165.952 Y154.428 E8.97523
G1 X165.855 Y154.699 E8.98528
G1 X164.518 Y157.935 E9.10756
G1 X164.294 Y158.37 E9.12465
G1 X164.128 Y158.612 E9.1349
G1 X161.971 Y161.432 E9.25889
G1 X161.643 Y161.795 E9.27597
G1 X161.412 Y161.991 E9.28655
G1 X158.634 Y164.119 E9.40876
G1 X158.223 Y164.384 E9.42584
G1 X157.96 Y164.508 E9.436
G1 X154.63 Y165.89 E9.56191
G1 X154.164 Y166.04 E9.579
G1 X153.866 Y166.094 E9.58958
G1 X150.421 Y166.541 E9.7109
G1 X149.932 Y166.564 E9.728
G1 X149.638 Y166.54 E9.7383
G1 X146.065 Y166.063 E9.86418
G1 X145.587 Y165.958 E9.88128
G1 X145.317 Y165.862 E9.89128
G1 X142.051 Y164.513 E10.01469
G1 X141.615 Y164.29 E10.03179
G1 X141.375 Y164.124 E10.04198
G1 X138.829 Y162.18 E10.15385
G1 X138.646 Y162.029 E10.16214
G1 X138.305 Y161.723 E10.17814
G1 X137.923 Y161.308 E10.19784
G1 X137.77 Y161.107 E10.20666
G1 X137.769 Y161.107 E10.20669
G1 X135.858 Y158.618 E10.31628
G1 X135.593 Y158.207 E10.33336
G1 X135.468 Y157.944 E10.34353
G1 X134.108 Y154.676 E10.46715
G1 X133.958 Y154.21 E10.48424
G1 X133.903 Y153.909 E10.49493
G1 X133.45 Y150.416 E10.61794
G1 X133.427 Y149.927 E10.63503
G1 X133.451 Y149.633 E10.64534
G1 X133.924 Y146.089 E10.7702
G1 X134.028 Y145.611 E10.78728
G1 X134.125 Y145.342 E10.79727
G1 X135.483 Y142.051 E10.9216
G1 X135.706 Y141.615 E10.93871
G1 X135.874 Y141.371 E10.94905
G1 X137.829 Y138.818 E11.06135
G0 F1080 X138.018 Y138.572
G0 X138.347 Y138.209
G0 F6000 X138.644 Y138.479
G1 F1200 X138.819 Y138.332 E11.06933
G1 X141.615 Y136.191 E11.19232
G1 X142.204 Y135.852 E11.21605
G1 X145.503 Y134.49 E11.34069
G1 X146.154 Y134.315 E11.36423
G1 X149.67 Y133.85 E11.48809
G1 X150.35 Y133.85 E11.51184
G1 X153.889 Y134.315 E11.6365
G1 X154.544 Y134.491 E11.66018
G1 X157.741 Y135.814 E11.78101
G1 X158.327 Y136.151 E11.80462
G1 X161.19 Y138.342 E11.93053
G1 X161.526 Y138.65 E11.94644
G1 X161.674 Y138.826 E11.95448
G1 X163.81 Y141.614 E12.07713
G1 X164.148 Y142.199 E12.10073
G1 X165.519 Y145.506 E12.22575
G1 X165.695 Y146.165 E12.24957
G1 X166.143 Y149.594 E12.37034
G1 X166.142 Y150.275 E12.39412
G1 X165.659 Y153.897 E12.52173
G1 X165.485 Y154.546 E12.5452
G1 X164.148 Y157.782 E12.66748
G1 X163.81 Y158.369 E12.69113
G1 X161.653 Y161.189 E12.81512
G1 X161.346 Y161.525 E12.83102
G1 X161.169 Y161.673 E12.83907
G1 X158.391 Y163.801 E12.96128
G1 X157.807 Y164.138 E12.98483
G1 X154.477 Y165.52 E13.11074
G1 X154.042 Y165.658 E13.12668
G1 X153.815 Y165.697 E13.13472
G1 X150.37 Y166.144 E13.25604
G1 X149.691 Y166.143 E13.27975
G1 X146.118 Y165.666 E13.40564
G1 X145.469 Y165.492 E13.42911
G1 X142.203 Y164.143 E13.55251
G1 X141.618 Y163.806 E13.57609
G1 X139.072 Y161.862 E13.68796
G1 X138.914 Y161.731 E13.69513
G1 X138.573 Y161.425 E13.71113
G1 X138.241 Y161.066 E13.72821
G1 X138.081 Y160.856 E13.73743
G1 X136.176 Y158.374 E13.84669
G1 X135.838 Y157.79 E13.87026
G1 X134.478 Y154.522 E13.99387
G1 X134.34 Y154.088 E14.00978
G1 X134.3 Y153.857 E14.01797
G1 X133.847 Y150.364 E14.14097
G1 X133.848 Y149.686 E14.16465
G1 X134.321 Y146.142 E14.28952
G1 X134.495 Y145.494 E14.31295
G1 X135.853 Y142.203 E14.43728
G1 X136.192 Y141.614 E14.46102
G1 X138.127 Y139.088 E14.57214
G0 F1080 X138.336 Y138.815
G0 X138.644 Y138.479
G0 F6000 X139.062 Y138.649
G1 F1200 X141.858 Y136.508 E14.69512
G1 X142.356 Y136.221 E14.7152
G1 X145.655 Y134.859 E14.83984
G1 X146.207 Y134.712 E14.85979
G1 X149.723 Y134.247 E14.98365
G1 X150.298 Y134.247 E15.00373
G1 X153.837 Y134.712 E15.12839
G1 X154.391 Y134.86 E15.14841
G1 X157.588 Y136.183 E15.26924
G1 X158.084 Y136.469 E15.28924
G1 X160.947 Y138.66 E15.41514
G1 X161.356 Y139.069 E15.43534
G1 X163.492 Y141.857 E15.558
G1 X163.778 Y142.352 E15.57796
G1 X165.149 Y145.659 E15.70299
G1 X165.298 Y146.217 E15.72316
G1 X165.746 Y149.646 E15.84393
G1 X165.746 Y150.222 E15.86404
G1 X165.263 Y153.844 E15.99165
G1 X165.115 Y154.393 E16.01151
G1 X163.778 Y157.629 E16.13379
G1 X163.492 Y158.126 E16.15381
G1 X161.335 Y160.946 E16.2778
G1 X160.926 Y161.355 E16.298
G1 X158.148 Y163.483 E16.42021
G1 X157.653 Y163.769 E16.44018
G1 X154.323 Y165.151 E16.56609
G1 X153.763 Y165.301 E16.58633
G1 X150.318 Y165.748 E16.70765
G1 X149.744 Y165.747 E16.7277
G1 X146.171 Y165.27 E16.85359
G1 X145.622 Y165.122 E16.87344
G1 X142.356 Y163.773 E16.99685
G1 X141.861 Y163.489 E17.01678
G1 X139.315 Y161.545 E17.12865
G1 X139.181 Y161.433 E17.13475
G1 X138.84 Y161.127 E17.15075
G1 X138.559 Y160.823 E17.16521
G1 X138.404 Y160.62 E17.17413
G1 X136.493 Y158.131 E17.28371
G1 X136.207 Y157.636 E17.30368
G1 X134.847 Y154.368 E17.4273
G1 X134.696 Y153.806 E17.44762
G1 X134.243 Y150.313 E17.57063
G1 X134.244 Y149.739 E17.59067
G1 X134.717 Y146.195 E17.71554
G1 X134.864 Y145.647 E17.73535
G1 X136.222 Y142.356 E17.85969
G1 X136.509 Y141.857 E17.87979
G1 X138.518 Y139.234 E17.99517
G0 F1080 X138.653 Y139.058
G0 X139.062 Y138.649
G0 F6000 X139.306 Y138.967
G1 F1200 X142.102 Y136.826 E18.11816
G1 X142.509 Y136.591 E18.13457
G1 X145.808 Y135.229 E18.25922
G1 X146.259 Y135.109 E18.27551
G1 X149.775 Y134.644 E18.39937
G1 X150.245 Y134.643 E18.41579
G1 X153.784 Y135.108 E18.54044
G1 X154.238 Y135.23 E18.55686
G1 X157.435 Y136.553 E18.67769
G1 X157.841 Y136.787 E18.69406
G1 X160.704 Y138.978 E18.81996
G1 X161.039 Y139.312 E18.83648
G1 X163.175 Y142.1 E18.95914
G1 X163.409 Y142.506 E18.9755
G1 X164.78 Y145.813 E19.10053
G1 X164.902 Y146.269 E19.11701
G1 X165.35 Y149.698 E19.23778
G1 X165.349 Y150.169 E19.25423
G1 X164.866 Y153.791 E19.38184
G1 X164.746 Y154.24 E19.39807
G1 X163.409 Y157.476 E19.52035
G1 X163.175 Y157.883 E19.53674
G1 X161.018 Y160.703 E19.66073
G1 X160.683 Y161.038 E19.67728
G1 X157.905 Y163.166 E19.79949
G1 X157.5 Y163.4 E19.81582
G1 X154.17 Y164.782 E19.94173
G1 X153.712 Y164.904 E19.95829
G1 X150.267 Y165.351 E20.07961
G1 X149.797 Y165.35 E20.09602
G1 X146.224 Y164.873 E20.22191
G1 X145.775 Y164.753 E20.23814
G1 X142.509 Y163.404 E20.36154
G1 X142.104 Y163.171 E20.37786
G1 X139.558 Y161.227 E20.48973
G1 X139.448 Y161.136 E20.49472
G1 X139.107 Y160.83 E20.51072
G1 X138.877 Y160.581 E20.52255
G1 X138.717 Y160.371 E20.53177
G1 X136.81 Y157.887 E20.64114
G1 X136.576 Y157.483 E20.65744
G1 X135.216 Y154.215 E20.78106
G1 X135.093 Y153.754 E20.79772
G1 X134.64 Y150.261 E20.92073
G1 X134.641 Y149.792 E20.93711
G1 X135.114 Y146.248 E21.06198
G1 X135.234 Y145.799 E21.07821
G1 X136.592 Y142.508 E21.20254
G1 X136.827 Y142.1 E21.21898
G1 X138.773 Y139.56 E21.33073
G0 F1080 X138.971 Y139.301
G0 X139.306 Y138.967
G0 F6000 X139.549 Y139.284
G1 F1200 X142.345 Y137.143 E21.45371
G1 X142.662 Y136.961 E21.46648
G1 X145.961 Y135.599 E21.59112
G1 X146.311 Y135.505 E21.60378
G1 X149.827 Y135.04 E21.72764
G1 X150.193 Y135.04 E21.74042
G1 X153.732 Y135.505 E21.86508
G1 X154.085 Y135.599 E21.87783
G1 X157.282 Y136.922 E21.99866
G1 X157.598 Y137.104 E22.0114
G1 X160.461 Y139.295 E22.1373
G1 X160.721 Y139.556 E22.15017
G1 X162.857 Y142.344 E22.27283
G1 X163.039 Y142.659 E22.28553
G1 X164.41 Y145.966 E22.41055
G1 X164.505 Y146.321 E22.42339
G1 X164.953 Y149.75 E22.54416
G1 X164.953 Y150.116 E22.55694
G1 X164.47 Y153.738 E22.68455
G1 X164.376 Y154.088 E22.69721
G1 X163.039 Y157.324 E22.81948
G1 X162.857 Y157.64 E22.83222
G1 X160.7 Y160.46 E22.95621
G1 X160.439 Y160.72 E22.96907
G1 X157.661 Y162.848 E23.09128
G1 X157.347 Y163.03 E23.10396
G1 X154.017 Y164.412 E23.22987
G1 X153.66 Y164.507 E23.24277
G1 X150.215 Y164.954 E23.36409
G1 X149.85 Y164.954 E23.37684
G1 X146.277 Y164.477 E23.50272
G1 X145.928 Y164.383 E23.51535
G1 X142.662 Y163.034 E23.63875
G1 X142.346 Y162.853 E23.65147
G1 X139.715 Y160.838 E23.7672
G1 X139.374 Y160.532 E23.7832
G1 X139.195 Y160.338 E23.79242
G1 X139.035 Y160.128 E23.80164
G1 X137.128 Y157.644 E23.91101
G1 X136.945 Y157.329 E23.92373
G1 X135.585 Y154.061 E24.04735
G1 X135.49 Y153.703 E24.06028
G1 X135.037 Y150.21 E24.18329
G1 X135.037 Y149.845 E24.19604
G1 X135.51 Y146.301 E24.3209
G1 X135.604 Y145.952 E24.33353
G1 X136.962 Y142.661 E24.45786
G1 X137.145 Y142.344 E24.47064
G1 X139.027 Y139.888 E24.5787
G0 F1080 X139.289 Y139.545
G0 X139.549 Y139.284
G0 F6000 X139.792 Y139.602
G1 F1200 X142.588 Y137.461 E24.70168
G1 X142.814 Y137.331 E24.71079
G1 X146.113 Y135.969 E24.83543
G1 X146.364 Y135.902 E24.84451
G1 X149.88 Y135.437 E24.96836
G1 X150.141 Y135.437 E24.97748
G1 X153.68 Y135.902 E25.10214
G1 X153.932 Y135.969 E25.11124
G1 X157.129 Y137.292 E25.23207
G1 X157.355 Y137.422 E25.24118
G1 X160.218 Y139.613 E25.36708
G1 X160.404 Y139.799 E25.37627
G1 X162.54 Y142.587 E25.49893
G1 X162.67 Y142.812 E25.508
G1 X164.041 Y146.119 E25.63302
G1 X164.109 Y146.372 E25.64217
G1 X164.557 Y149.801 E25.76294
G1 X164.556 Y150.063 E25.77209
G1 X164.073 Y153.685 E25.8997
G1 X164.006 Y153.935 E25.90874
G1 X162.669 Y157.171 E26.03102
G1 X162.539 Y157.397 E26.04012
G1 X160.382 Y160.217 E26.16411
G1 X160.196 Y160.403 E26.1733
G1 X157.418 Y162.531 E26.29551
G1 X157.193 Y162.661 E26.30458
G1 X153.863 Y164.043 E26.4305
G1 X153.609 Y164.111 E26.43968
G1 X150.164 Y164.558 E26.561
G1 X149.903 Y164.557 E26.57011
G1 X146.33 Y164.08 E26.696
G1 X146.08 Y164.013 E26.70504
G1 X142.814 Y162.664 E26.82844
G1 X142.589 Y162.535 E26.8375
G1 X139.982 Y160.54 E26.95215
G1 X139.641 Y160.234 E26.96815
G1 X139.514 Y160.096 E26.9747
G1 X139.354 Y159.886 E26.98392
G1 X137.445 Y157.4 E27.09338
G1 X137.315 Y157.175 E27.10245
G1 X135.955 Y153.907 E27.22607
G1 X135.886 Y153.652 E27.2353
G1 X135.433 Y150.159 E27.3583
G1 X135.434 Y149.898 E27.36742
G1 X135.907 Y146.354 E27.49228
G1 X135.974 Y146.105 E27.50129
G1 X137.332 Y142.814 E27.62562
G1 X137.462 Y142.587 E27.63476
G1 X139.28 Y140.214 E27.73916
G0 F1080 X139.606 Y139.788
G0 X139.792 Y139.602
G0 F6000 X140.035 Y139.92
