;FLAVOR:Marlin
M117 Time Left 0h09m04s
;Filament used: 0.147255m
;Layer height: 0.2
;MINX:142.653
;MINY:142.661
;MINZ:0.2
;MAXX:157.356
;MAXY:157.349
;MAXZ:12.4
;POSTPROCESSED
;Generated with Cura_SteamEngine 4.6.0
M140 S58
M105
M190 S58
M104 S195
M105
M109 S195
M82 ;absolute extrusion mode
M201 X500.00 Y500.00 Z100.00 E5000.00 ;Setup machine max acceleration
M203 X500.00 Y500.00 Z10.00 E50.00 ;Setup machine max feedrate
M204 P500.00 R1000.00 T500.00 ;Setup Print/Retract/Travel acceleration
M205 X8.00 Y8.00 Z0.40 E5.00 ;Setup Jerk
M220 S100 ;Reset Feedrate
M221 S100 ;Reset Flowrate

G28 ;Home

G92 E0 ;Reset Extruder
G1 Z2.0 F3000 ;Move Z Axis up
G1 X10.1 Y20 Z0.28 F5000.0 ;Move to start position
G1 X10.1 Y200.0 Z0.28 F1500.0 E15 ;Draw the first line
G1 X10.4 Y200.0 Z0.28 F5000.0 ;Move to side a little
G1 X10.4 Y20 Z0.28 F1500.0 E30 ;Draw the second line
G92 E0 ;Reset Extruder
G1 Z2.0 F3000 ;Move Z Axis up

G92 E0
G92 E0
G1 F1500 E-5.5
;LAYER_COUNT:62
;LAYER:0
M107
G0 F6000 X144.812 Y144.801 Z0.2
;TYPE:SKIRT
G1 F1500 E0
G1 F1200 X144.958 Y144.662 E0.00704
G1 X145.287 Y144.364 E0.02254
G1 X145.558 Y144.14 E0.03482
G1 X145.701 Y144.037 E0.04098
G1 X146.07 Y143.784 E0.0566
G1 X146.431 Y143.565 E0.07135
G1 X146.609 Y143.475 E0.07831
G1 X147.072 Y143.257 E0.09618
G1 X147.083 Y143.252 E0.09661
G1 X147.479 Y143.098 E0.11144
G1 X147.9 Y142.961 E0.12691
G1 X148.28 Y142.858 E0.14066
G1 X148.388 Y142.836 E0.1445
G1 X148.835 Y142.752 E0.16039
G1 X149.193 Y142.703 E0.17301
G1 X149.339 Y142.692 E0.17812
G1 X149.792 Y142.667 E0.19397
G1 X150.001 Y142.661 E0.20127
G1 X150.013 Y142.661 E0.20169
G1 X150.262 Y142.669 E0.21039
G1 X150.719 Y142.699 E0.22638
G1 X151.215 Y142.765 E0.24386
G1 X151.68 Y142.858 E0.26042
G1 X152.132 Y142.977 E0.27674
G1 X152.557 Y143.118 E0.29238
G1 X153.04 Y143.316 E0.31061
G1 X153.578 Y143.584 E0.3316
G1 X153.591 Y143.591 E0.33211
G1 X153.938 Y143.803 E0.34631
G1 X154.304 Y144.054 E0.36181
G1 X154.561 Y144.247 E0.37304
G1 X154.721 Y144.384 E0.38039
G1 X155.191 Y144.817 E0.40271
G1 X155.199 Y144.825 E0.40311
G1 X155.405 Y145.048 E0.41371
G1 X155.698 Y145.392 E0.42949
G1 X155.978 Y145.771 E0.44595
G1 X155.98 Y145.769 E0.44604
G1 X156.233 Y146.151 E0.46205
G1 X156.229 Y146.154 E0.46222
G1 X156.478 Y146.573 E0.47924
G1 X156.675 Y146.971 E0.49475
G1 X156.84 Y147.358 E0.50944
G1 X156.862 Y147.419 E0.51171
G1 X157.012 Y147.85 E0.52765
G1 X157.142 Y148.327 E0.54491
G1 X157.144 Y148.327 E0.54498
G1 X157.238 Y148.771 E0.56083
G1 X157.312 Y149.318 E0.58011
G1 X157.344 Y149.712 E0.59391
G1 X157.356 Y150.019 E0.60464
G1 X157.356 Y150.035 E0.6052
G1 X157.345 Y150.319 E0.61513
G1 X157.312 Y150.759 E0.63054
G1 X157.285 Y151.012 E0.63942
G1 X157.283 Y151.026 E0.63992
G1 X157.237 Y151.284 E0.64907
G1 X157.141 Y151.733 E0.6651
G1 X157.091 Y151.938 E0.67247
G1 X157.088 Y151.949 E0.67287
G1 X157.005 Y152.214 E0.68257
G1 X156.856 Y152.636 E0.6982
G1 X156.656 Y153.085 E0.71536
G1 X156.662 Y153.088 E0.7156
G1 X156.406 Y153.594 E0.7354
G1 X156.4 Y153.605 E0.73584
G1 X156.231 Y153.885 E0.74726
G1 X155.971 Y154.277 E0.76369
G1 X155.634 Y154.713 E0.78293
G1 X155.606 Y154.744 E0.78439
G1 X155.389 Y154.997 E0.79603
G1 X155.062 Y155.334 E0.81243
G1 X155.009 Y155.382 E0.81493
G1 X154.678 Y155.674 E0.83034
G1 X154.497 Y155.824 E0.83855
G1 X154.488 Y155.831 E0.83895
G1 X154.286 Y155.977 E0.84765
G1 X153.908 Y156.233 E0.8636
G1 X153.692 Y156.369 E0.87251
G1 X153.68 Y156.376 E0.873
G1 X153.416 Y156.516 E0.88343
G1 X152.957 Y156.737 E0.90122
G1 X152.944 Y156.743 E0.90172
G1 X152.526 Y156.907 E0.91741
G1 X152.095 Y157.047 E0.93323
G1 X151.636 Y157.165 E0.94978
G1 X151.187 Y157.251 E0.96575
G1 X150.816 Y157.303 E0.97883
G1 X150.704 Y157.312 E0.98276
G1 X150.252 Y157.341 E0.99857
G1 X150.009 Y157.349 E1.00706
G1 X149.998 Y157.349 E1.00745
G1 X149.787 Y157.343 E1.01482
G1 X149.204 Y157.308 E1.03522
G1 X149.193 Y157.307 E1.0356
G1 X148.829 Y157.256 E1.04844
G1 X148.235 Y157.141 E1.06957
G1 X148.222 Y157.138 E1.07003
G1 X147.903 Y157.049 E1.0816
G1 X147.481 Y156.912 E1.09709
G1 X147.062 Y156.748 E1.11281
G1 X146.986 Y156.713 E1.11573
G1 X146.585 Y156.519 E1.13129
G1 X146.2 Y156.304 E1.14669
G1 X146.094 Y156.234 E1.15112
G1 X145.723 Y155.982 E1.16679
G1 X145.525 Y155.839 E1.17532
G1 X145.516 Y155.832 E1.17571
G1 X145.334 Y155.68 E1.184
G1 X144.992 Y155.378 E1.19993
G1 X144.626 Y154.989 E1.21858
G1 X144.617 Y154.997 E1.219
G1 X144.325 Y154.657 E1.23465
G1 X144.038 Y154.27 E1.25148
G1 X144.035 Y154.272 E1.25161
G1 X143.746 Y153.835 E1.2699
G1 X143.739 Y153.824 E1.27036
G1 X143.545 Y153.48 E1.28415
G1 X143.289 Y152.963 E1.3043
G1 X143.283 Y152.95 E1.3048
G1 X143.147 Y152.615 E1.31743
G1 X142.998 Y152.19 E1.33315
G1 X142.874 Y151.706 E1.3506
G1 X142.864 Y151.708 E1.35096
G1 X142.77 Y151.264 E1.36681
G1 X142.726 Y151.014 E1.37567
G1 X142.724 Y151 E1.37617
G1 X142.696 Y150.743 E1.38519
G1 X142.663 Y150.297 E1.40081
G1 X142.653 Y150.017 E1.4106
G1 X142.653 Y150.001 E1.41116
G1 X142.664 Y149.715 E1.42115
G1 X142.697 Y149.278 E1.43646
G1 X142.724 Y149.027 E1.44527
G1 X142.726 Y149.013 E1.44577
G1 X142.767 Y148.778 E1.4541
G1 X142.861 Y148.325 E1.47026
G1 X142.916 Y148.097 E1.47845
G1 X142.919 Y148.086 E1.47884
G1 X142.993 Y147.846 E1.48762
G1 X143.14 Y147.42 E1.50335
G1 X143.282 Y147.068 E1.51661
G1 X143.325 Y146.977 E1.52012
G1 X143.528 Y146.562 E1.53626
G1 X143.773 Y146.151 E1.55297
G1 X143.765 Y146.146 E1.5533
G1 X144.014 Y145.765 E1.56919
G1 X144.195 Y145.511 E1.58009
G1 X144.284 Y145.402 E1.585
G0 F1080 X144.315 Y145.364
G0 X144.612 Y145.017
G0 X144.812 Y144.801
G0 F6000 X145.095 Y145.084
G1 F1200 X145.226 Y144.958 E1.59135
G1 X145.555 Y144.66 E1.60685
G1 X145.798 Y144.46 E1.61784
G1 X145.927 Y144.367 E1.62339
G1 X146.296 Y144.114 E1.63902
G1 X146.619 Y143.918 E1.65221
G1 X146.78 Y143.837 E1.65851
G1 X147.237 Y143.621 E1.67616
G1 X147.248 Y143.616 E1.67658
G1 X147.603 Y143.478 E1.68988
G1 X148.024 Y143.341 E1.70535
G1 X148.364 Y143.249 E1.71765
G1 X148.462 Y143.229 E1.72114
G1 X148.909 Y143.145 E1.73702
G1 X149.229 Y143.101 E1.7483
G1 X149.361 Y143.091 E1.75293
G1 X149.814 Y143.066 E1.76877
G1 X150.001 Y143.061 E1.7753
G1 X150.013 Y143.061 E1.77572
G1 X150.236 Y143.068 E1.78351
G1 X150.693 Y143.098 E1.79951
G1 X151.137 Y143.157 E1.81515
G1 X151.602 Y143.25 E1.83171
G1 X152.006 Y143.357 E1.84631
G1 X152.431 Y143.498 E1.86195
G1 X152.863 Y143.675 E1.87825
G1 X153.388 Y143.936 E1.89872
G1 X153.401 Y143.943 E1.89924
G1 X153.712 Y144.133 E1.91197
G1 X154.078 Y144.384 E1.92747
G1 X154.308 Y144.557 E1.93752
G1 X154.452 Y144.68 E1.94413
G1 X154.908 Y145.1 E1.96578
G1 X154.916 Y145.108 E1.96618
G1 X155.1 Y145.307 E1.97564
G1 X155.393 Y145.651 E1.99142
G1 X155.644 Y145.992 E2.00621
G1 X155.647 Y145.99 E2.00634
G1 X155.9 Y146.372 E2.02234
G1 X155.896 Y146.375 E2.02251
G1 X156.119 Y146.751 E2.03778
G1 X156.316 Y147.149 E2.05329
G1 X156.484 Y147.55 E2.06847
G1 X156.634 Y147.981 E2.08441
G1 X156.751 Y148.41 E2.09994
G1 X156.752 Y148.41 E2.09997
G1 X156.846 Y148.854 E2.11582
G1 X156.913 Y149.343 E2.13306
G1 X156.914 Y149.362 E2.13372
G1 X156.945 Y149.744 E2.14711
G1 X156.956 Y150.019 E2.15672
G1 X156.956 Y150.035 E2.15728
G1 X156.946 Y150.289 E2.16616
G1 X156.913 Y150.729 E2.18157
G1 X156.889 Y150.956 E2.18954
G1 X156.887 Y150.97 E2.19003
G1 X156.846 Y151.2 E2.19819
G1 X156.75 Y151.649 E2.21422
G1 X156.705 Y151.833 E2.22084
G1 X156.702 Y151.844 E2.22124
G1 X156.628 Y152.081 E2.22991
G1 X156.479 Y152.503 E2.24554
G1 X156.299 Y152.906 E2.26095
G1 X156.305 Y152.909 E2.26119
G1 X156.055 Y153.402 E2.28049
G1 X156.049 Y153.413 E2.28093
G1 X155.897 Y153.664 E2.29118
G1 X155.637 Y154.056 E2.3076
G1 X155.341 Y154.44 E2.32454
G1 X155.086 Y154.737 E2.33821
G1 X154.793 Y155.038 E2.35288
G1 X154.413 Y155.374 E2.37059
G1 X154.251 Y155.508 E2.37793
G1 X154.242 Y155.515 E2.37833
G1 X154.062 Y155.646 E2.38611
G1 X153.684 Y155.902 E2.40205
G1 X153.49 Y156.024 E2.41005
G1 X153.478 Y156.031 E2.41054
G1 X153.243 Y156.156 E2.41983
G1 X152.79 Y156.374 E2.43739
G1 X152.777 Y156.38 E2.43789
G1 X152.402 Y156.527 E2.45196
G1 X151.971 Y156.667 E2.46778
G1 X151.561 Y156.772 E2.48256
G1 X151.112 Y156.858 E2.49853
G1 X150.78 Y156.905 E2.51024
G1 X150.679 Y156.913 E2.51378
G1 X150.227 Y156.942 E2.52959
G1 X150.009 Y156.949 E2.53721
G1 X149.809 Y156.944 E2.5442
G1 X149.24 Y156.91 E2.56411
G1 X149.229 Y156.909 E2.56449
G1 X148.903 Y156.863 E2.57599
G1 X148.324 Y156.751 E2.59658
G1 X148.311 Y156.748 E2.59705
G1 X148.026 Y156.669 E2.60738
G1 X147.604 Y156.532 E2.62287
G1 X147.229 Y156.385 E2.63694
G1 X147.16 Y156.353 E2.6396
G1 X146.759 Y156.159 E2.65515
G1 X146.415 Y155.966 E2.66893
G1 X146.319 Y155.904 E2.67292
G1 X145.948 Y155.652 E2.68858
G1 X145.771 Y155.523 E2.69623
G1 X145.762 Y155.516 E2.69663
G1 X145.599 Y155.381 E2.70402
G1 X145.257 Y155.079 E2.71995
G1 X144.929 Y154.729 E2.73671
G1 X144.921 Y154.736 E2.73708
G1 X144.629 Y154.396 E2.75273
G1 X144.372 Y154.049 E2.76781
G1 X144.369 Y154.051 E2.76794
G1 X144.084 Y153.62 E2.78598
G1 X144.077 Y153.609 E2.78644
G1 X143.902 Y153.302 E2.79878
G1 X143.652 Y152.796 E2.81849
G1 X143.646 Y152.783 E2.81899
G1 X143.524 Y152.483 E2.8303
G1 X143.375 Y152.058 E2.84602
G1 X143.264 Y151.623 E2.8617
G1 X143.256 Y151.625 E2.86199
G1 X143.162 Y151.181 E2.87784
G1 X143.122 Y150.958 E2.88575
G1 X143.12 Y150.944 E2.88625
G1 X143.095 Y150.714 E2.89433
G1 X143.062 Y150.268 E2.90994
G1 X143.053 Y150.017 E2.91872
G1 X143.053 Y150.001 E2.91927
G1 X143.063 Y149.745 E2.92822
G1 X143.096 Y149.308 E2.94353
G1 X143.12 Y149.083 E2.95143
G1 X143.122 Y149.069 E2.95192
G1 X143.159 Y148.859 E2.95937
G1 X143.253 Y148.406 E2.97553
G1 X143.302 Y148.202 E2.98285
G1 X143.305 Y148.191 E2.98325
G1 X143.371 Y147.977 E2.99107
G1 X143.518 Y147.551 E3.00681
G1 X143.645 Y147.235 E3.0187
G1 X143.684 Y147.153 E3.02188
G1 X143.887 Y146.738 E3.03801
G1 X144.107 Y146.369 E3.05301
G1 X144.1 Y146.365 E3.05329
G1 X144.349 Y145.984 E3.06919
G1 X144.511 Y145.757 E3.07893
G1 X144.568 Y145.687 E3.08208
G0 F1080 X144.619 Y145.624
G0 X144.916 Y145.277
G0 X145.095 Y145.084
G0 F6000 X145.378 Y145.367
G1 F1200 X145.495 Y145.255 E3.08774
G1 X145.824 Y144.957 E3.10324
G1 X146.038 Y144.78 E3.11294
G1 X146.154 Y144.697 E3.11792
G1 X146.523 Y144.444 E3.13355
G1 X146.807 Y144.271 E3.14516
G1 X146.951 Y144.198 E3.1508
G1 X147.414 Y143.98 E3.16867
G1 X147.727 Y143.858 E3.1804
G1 X148.148 Y143.721 E3.19586
G1 X148.447 Y143.641 E3.20667
G1 X148.536 Y143.623 E3.20984
G1 X148.983 Y143.539 E3.22573
G1 X149.265 Y143.499 E3.23567
G1 X149.383 Y143.491 E3.2398
G1 X150.001 Y143.461 E3.26141
G1 X150.013 Y143.461 E3.26183
G1 X150.21 Y143.467 E3.26871
G1 X150.667 Y143.497 E3.28471
G1 X151.058 Y143.549 E3.29848
G1 X151.523 Y143.642 E3.31504
G1 X151.88 Y143.737 E3.32795
G1 X152.305 Y143.878 E3.34358
G1 X152.686 Y144.034 E3.35796
G1 X153.198 Y144.289 E3.37794
G1 X153.211 Y144.296 E3.37845
G1 X153.486 Y144.463 E3.38969
G1 X153.852 Y144.714 E3.40519
G1 X154.055 Y144.866 E3.41404
G1 X154.183 Y144.976 E3.41994
G1 X154.625 Y145.383 E3.44092
G1 X154.633 Y145.391 E3.44132
G1 X154.796 Y145.567 E3.44969
G1 X155.089 Y145.911 E3.46547
G1 X155.311 Y146.211 E3.47851
G1 X155.313 Y146.21 E3.47859
G1 X155.566 Y146.592 E3.49459
G1 X155.563 Y146.594 E3.49471
G1 X155.761 Y146.928 E3.50827
G1 X155.958 Y147.326 E3.52378
G1 X156.106 Y147.682 E3.53725
G1 X156.256 Y148.113 E3.55318
G1 X156.36 Y148.493 E3.56694
G1 X156.361 Y148.493 E3.56698
G1 X156.455 Y148.937 E3.58283
G1 X156.518 Y149.427 E3.60008
G1 X156.546 Y149.776 E3.61231
G1 X156.556 Y150.019 E3.6208
G1 X156.556 Y150.035 E3.62136
G1 X156.548 Y150.259 E3.62919
G1 X156.515 Y150.699 E3.6446
G1 X156.493 Y150.899 E3.65162
G1 X156.491 Y150.913 E3.65212
G1 X156.455 Y151.116 E3.65932
G1 X156.359 Y151.565 E3.67535
G1 X156.319 Y151.727 E3.68118
G1 X156.316 Y151.738 E3.68158
G1 X156.251 Y151.948 E3.68926
G1 X156.102 Y152.37 E3.70488
G1 X155.943 Y152.727 E3.71853
G1 X155.948 Y152.729 E3.71872
G1 X155.704 Y153.211 E3.73759
G1 X155.698 Y153.222 E3.73803
G1 X155.564 Y153.443 E3.74705
G1 X155.304 Y153.835 E3.76348
G1 X154.996 Y154.227 E3.78089
G1 X154.782 Y154.476 E3.79236
G1 X154.48 Y154.782 E3.80737
G1 X154.149 Y155.074 E3.82278
G1 X154.006 Y155.192 E3.82926
G1 X153.997 Y155.199 E3.82966
G1 X153.837 Y155.315 E3.83656
G1 X153.459 Y155.571 E3.8525
G1 X153.289 Y155.678 E3.85952
G1 X153.277 Y155.685 E3.86
G1 X153.069 Y155.796 E3.86824
G1 X152.622 Y156.011 E3.88556
G1 X152.609 Y156.017 E3.88606
G1 X152.279 Y156.146 E3.89843
G1 X151.848 Y156.286 E3.91426
G1 X151.485 Y156.379 E3.92735
G1 X151.036 Y156.465 E3.94331
G1 X150.744 Y156.507 E3.95361
G1 X150.653 Y156.514 E3.9568
G1 X150.201 Y156.543 E3.97262
G1 X150.009 Y156.549 E3.97933
G1 X149.832 Y156.544 E3.98551
G1 X149.276 Y156.512 E4.00496
G1 X149.265 Y156.511 E4.00535
G1 X148.978 Y156.47 E4.01547
G1 X148.414 Y156.361 E4.03553
G1 X148.401 Y156.358 E4.036
G1 X148.15 Y156.288 E4.0451
G1 X147.728 Y156.151 E4.06059
G1 X147.397 Y156.022 E4.073
G1 X147.334 Y155.993 E4.07542
G1 X146.933 Y155.799 E4.09098
G1 X146.629 Y155.629 E4.10314
G1 X146.543 Y155.573 E4.10673
G1 X146.172 Y155.321 E4.12239
G1 X146.016 Y155.207 E4.12914
G1 X146.007 Y155.2 E4.12953
G1 X145.863 Y155.081 E4.13606
G1 X145.521 Y154.779 E4.15199
G1 X145.231 Y154.47 E4.16679
G1 X145.224 Y154.476 E4.16711
G1 X144.932 Y154.136 E4.18277
G1 X144.704 Y153.828 E4.19615
G1 X144.702 Y153.829 E4.19623
G1 X144.421 Y153.406 E4.21396
G1 X144.414 Y153.395 E4.21442
G1 X144.26 Y153.123 E4.22533
G1 X144.015 Y152.628 E4.24462
G1 X144.009 Y152.615 E4.24512
G1 X143.902 Y152.351 E4.25507
G1 X143.753 Y151.926 E4.2708
G1 X143.654 Y151.54 E4.28471
G1 X143.647 Y151.542 E4.28497
G1 X143.553 Y151.098 E4.30082
G1 X143.518 Y150.901 E4.30781
G1 X143.516 Y150.887 E4.3083
G1 X143.494 Y150.684 E4.31543
G1 X143.461 Y150.238 E4.33105
G1 X143.453 Y150.017 E4.33877
G1 X143.453 Y150.001 E4.33933
G1 X143.462 Y149.775 E4.34723
G1 X143.495 Y149.338 E4.36253
G1 X143.516 Y149.14 E4.36949
G1 X143.518 Y149.126 E4.36998
G1 X143.551 Y148.94 E4.37658
G1 X143.645 Y148.487 E4.39274
G1 X143.688 Y148.308 E4.39917
G1 X143.691 Y148.297 E4.39956
G1 X143.749 Y148.107 E4.4065
G1 X143.896 Y147.681 E4.42224
G1 X144.008 Y147.403 E4.43271
G1 X144.043 Y147.329 E4.43556
G1 X144.246 Y146.914 E4.4517
G1 X144.441 Y146.588 E4.46497
G1 X144.435 Y146.584 E4.46522
G1 X144.684 Y146.203 E4.48111
G1 X144.827 Y146.002 E4.48973
G1 X144.853 Y145.97 E4.49117
G0 F1080 X144.923 Y145.884
G0 X145.22 Y145.537
G0 X145.378 Y145.367
G0 F6000 X145.661 Y145.65
G1 F1200 X145.764 Y145.551 E4.49616
G1 X146.093 Y145.253 E4.51166
G1 X146.278 Y145.1 E4.52004
G1 X146.38 Y145.027 E4.52442
G1 X146.749 Y144.774 E4.54005
G1 X146.995 Y144.624 E4.55011
G1 X147.122 Y144.56 E4.55508
G1 X147.579 Y144.344 E4.57273
G1 X147.85 Y144.239 E4.58288
G1 X148.271 Y144.102 E4.59834
G1 X148.531 Y144.032 E4.60774
G1 X148.61 Y144.016 E4.61056
G1 X149.057 Y143.932 E4.62644
G1 X149.302 Y143.898 E4.63508
G1 X149.405 Y143.89 E4.63869
G1 X150.001 Y143.861 E4.65953
G1 X150.013 Y143.861 E4.65995
G1 X150.183 Y143.867 E4.66589
G1 X150.64 Y143.897 E4.68188
G1 X150.98 Y143.941 E4.69385
G1 X151.445 Y144.034 E4.71042
G1 X151.754 Y144.116 E4.72158
G1 X152.179 Y144.257 E4.73722
G1 X152.509 Y144.393 E4.74968
G1 X153.009 Y144.641 E4.76917
G1 X153.022 Y144.648 E4.76969
G1 X153.259 Y144.793 E4.77939
G1 X153.625 Y145.044 E4.79489
G1 X153.801 Y145.176 E4.80257
G1 X153.914 Y145.272 E4.80775
G1 X154.342 Y145.666 E4.82807
G1 X154.35 Y145.674 E4.82846
G1 X154.491 Y145.826 E4.8357
G1 X154.784 Y146.17 E4.85149
G1 X154.978 Y146.432 E4.86287
G1 X154.98 Y146.431 E4.86295
G1 X155.233 Y146.813 E4.87895
G1 X155.23 Y146.815 E4.87908
G1 X155.402 Y147.106 E4.89088
G1 X155.599 Y147.504 E4.90639
G1 X155.712 Y147.768 E4.91642
G1 X155.729 Y147.813 E4.9181
G1 X155.879 Y148.244 E4.93404
G1 X155.969 Y148.575 E4.94602
G1 X155.97 Y148.575 E4.94605
G1 X156.064 Y149.019 E4.9619
G1 X156.115 Y149.394 E4.97512
G1 X156.12 Y149.473 E4.97788
G1 X156.147 Y149.809 E4.98965
G1 X156.156 Y150.019 E4.99699
G1 X156.156 Y150.035 E4.99755
G1 X156.149 Y150.229 E5.00433
G1 X156.116 Y150.669 E5.01974
G1 X156.097 Y150.843 E5.02585
G1 X156.095 Y150.857 E5.02635
