;FLAVOR:Marlin
M117 Time Left 1h19m47s
;Filament used: 2.59384m
;Layer height: 0.2
;MINX:133.173
;MINY:108.965
;MINZ:0.2
;MAXX:166.83
;MAXY:191.012
;MAXZ:6.2
;POSTPROCESSED
;Generated with Cura_SteamEngine 4.6.0
M140 S58
M105
M190 S58
M104 S195
M105
M109 S195
M82 ;absolute extrusion mode
M201 X500.00 Y500.00 Z100.00 E5000.00 ;Setup machine max acceleration
M203 X500.00 Y500.00 Z10.00 E50.00 ;Setup machine max feedrate
M204 P500.00 R1000.00 T500.00 ;Setup Print/Retract/Travel acceleration
M205 X8.00 Y8.00 Z0.40 E5.00 ;Setup Jerk
M220 S100 ;Reset Feedrate
M221 S100 ;Reset Flowrate

G28 ;Home

G92 E0 ;Reset Extruder
G1 Z2.0 F3000 ;Move Z Axis up
G1 X10.1 Y20 Z0.28 F5000.0 ;Move to start position
G1 X10.1 Y200.0 Z0.28 F1500.0 E15 ;Draw the first line
G1 X10.4 Y200.0 Z0.28 F5000.0 ;Move to side a little
G1 X10.4 Y20 Z0.28 F1500.0 E30 ;Draw the second line
G92 E0 ;Reset Extruder
G1 Z2.0 F3000 ;Move Z Axis up

G92 E0
G92 E0
G1 F1500 E-5.5
;LAYER_COUNT:31
;LAYER:0
M107
;MESH:2-back-top-element.stl
G0 F6000 X155.321 Y189.732 Z0.2
;TYPE:WALL-INNER
G1 F1500 E0
G1 F1200 X155.629 Y189.449 E0.01391
G1 X155.618 Y187.055 E0.09354
G1 X155.653 Y175.927 E0.46366
G1 X155.639 Y175.724 E0.47043
G1 X155.548 Y175.408 E0.48136
G1 X155.322 Y175.085 E0.49447
G1 X155.233 Y175.017 E0.4982
G1 X155.148 Y174.938 E0.50206
G1 X154.97 Y174.836 E0.50888
G1 X154.954 Y174.826 E0.50951
G1 X150.455 Y172.754 E0.67425
G1 X150.309 Y172.754 E0.67911
G1 X150.179 Y172.735 E0.68348
G1 X150.006 Y172.727 E0.68924
G1 X149.727 Y172.745 E0.69854
G1 X149.472 Y172.794 E0.70718
G1 X145.06 Y174.83 E0.86879
G1 X144.898 Y174.93 E0.87512
G1 X144.694 Y175.103 E0.88402
G1 X144.482 Y175.416 E0.89659
G1 X144.4 Y175.71 E0.90674
G1 X144.379 Y175.906 E0.9133
G1 X144.384 Y187.05 E1.28395
G1 X144.376 Y189.733 E1.37319
G1 X144.622 Y189.816 E1.38182
G1 X144.911 Y189.913 E1.39196
G1 X144.969 Y189.963 E1.39451
G1 X145.29 Y190.106 E1.4062
G1 X145.552 Y190.137 E1.41497
G1 X146.222 Y190.135 E1.43726
G1 X150.959 Y190.136 E1.59481
G1 X151.266 Y190.149 E1.60503
G1 X154.224 Y190.159 E1.70342
G1 X154.233 Y190.16 E1.70372
G1 X154.593 Y190.16 E1.71569
G1 X154.702 Y190.16 E1.71932
G0 F1080 X154.91 Y190.16
G0 X155.2 Y189.864
G0 X155.28 Y189.783
G0 X155.321 Y189.732
G0 F6000 X155.025 Y189.461
G1 F1200 X155.228 Y189.274 E1.7285
G1 X155.218 Y187.054 E1.80233
G1 X155.253 Y175.94 E2.17199
G1 X155.243 Y175.794 E2.17686
G1 X155.182 Y175.583 E2.18416
G1 X155.029 Y175.365 E2.19302
G1 X154.972 Y175.321 E2.19541
G1 X154.908 Y175.261 E2.19833
G1 X154.77 Y175.181 E2.20364
G1 X150.367 Y173.154 E2.36486
G1 X150.279 Y173.154 E2.36778
G1 X150.141 Y173.134 E2.37242
G1 X150.01 Y173.128 E2.37678
G1 X149.778 Y173.143 E2.38451
G1 X149.595 Y173.178 E2.39071
G1 X145.25 Y175.183 E2.54987
G1 X145.134 Y175.255 E2.55441
G1 X144.994 Y175.373 E2.5605
G1 X144.85 Y175.586 E2.56905
G1 X144.794 Y175.786 E2.57596
G1 X144.779 Y175.927 E2.58068
G1 X144.784 Y187.051 E2.95066
G1 X144.777 Y189.446 E3.03032
G1 X145.113 Y189.559 E3.04211
G1 X145.186 Y189.622 E3.04532
G1 X145.397 Y189.716 E3.053
G1 X145.575 Y189.737 E3.05896
G1 X146.221 Y189.735 E3.08045
G1 X150.976 Y189.736 E3.2386
G1 X151.275 Y189.749 E3.24856
G1 X154.25 Y189.759 E3.3475
G1 X154.258 Y189.76 E3.34777
G1 X154.353 Y189.76 E3.35093
G0 F1080 X154.742 Y189.76
G0 X154.98 Y189.517
G0 X155.025 Y189.461
G0 F6000 X154.827 Y189.1
;TYPE:WALL-OUTER
G1 F1200 X154.818 Y187.053 E3.41902
G1 X154.853 Y175.953 E3.78821
G1 X154.847 Y175.864 E3.79117
G1 X154.816 Y175.758 E3.79485
G1 X154.738 Y175.646 E3.79939
G1 X154.714 Y175.628 E3.80038
G1 X154.667 Y175.584 E3.80252
G1 X154.585 Y175.536 E3.80569
G1 X150.279 Y173.554 E3.96335
G1 X150.252 Y173.554 E3.96424
G1 X150.102 Y173.533 E3.96928
G1 X150.009 Y173.528 E3.97238
G1 X149.923 Y173.532 E3.97524
G1 X149.833 Y173.54 E3.97825
G1 X149.718 Y173.562 E3.98214
G1 X145.44 Y175.536 E4.13885
G1 X145.369 Y175.58 E4.14162
G1 X145.294 Y175.643 E4.14488
G1 X145.218 Y175.756 E4.14941
G1 X145.188 Y175.862 E4.15308
G1 X145.179 Y175.948 E4.15595
G1 X145.184 Y187.052 E4.52527
G1 X145.178 Y189.159 E4.59535
G1 X145.318 Y189.206 E4.60026
G1 X145.322 Y189.211 E4.60048
G1 X145.403 Y189.281 E4.60404
G1 X145.504 Y189.326 E4.60772
G1 X145.598 Y189.337 E4.61086
G1 X146.22 Y189.335 E4.63155
G1 X150.994 Y189.336 E4.79033
G1 X151.285 Y189.349 E4.80002
G1 X154.136 Y189.359 E4.89485
G0 F1080 X154.279 Y189.359
G0 X154.286 Y189.36
G0 X154.574 Y189.36
G0 X154.681 Y189.251
G0 X154.73 Y189.19
G0 X154.827 Y189.1
G0 F6000 X154.826 Y188.7
G0 X155.266 Y188.699
G0 X155.323 Y190.016
G0 X166.025 Y190.203
;TYPE:WALL-INNER
G1 F1200 X162.287 Y190.202 E5.01917
G1 X162.28 Y190.203 E5.01941
G1 X155.326 Y190.211 E5.2507
G1 X154.911 Y190.211 E5.25896
G1 X154.593 Y190.212 E5.26034
G1 X154.224 Y190.212 E5.26207
G1 X151.266 Y190.212 E5.27637
G1 X150.959 Y190.212 E5.27815
G1 X146.222 Y190.212 E5.30836
G1 X145.552 Y190.212 E5.31261
G1 X145.29 Y190.212 E5.31458
G1 X144.969 Y190.212 E5.31919
G1 X144.911 Y190.212 E5.31939
G1 X144.606 Y190.212 E5.32828
G1 X142.828 Y190.212 E5.38742
G1 X137.697 Y190.203 E5.55808
G1 X134.174 Y190.202 E5.67525
G1 X133.975 Y190.202 E5.68187
G1 X133.975 Y190.003 E5.68615
G1 X133.985 Y185.151 E5.84753
G1 X133.98 Y173.961 E6.21971
G1 X134.115 Y112.966 E8.24842
G1 X137.581 Y112.972 E8.3637
G1 X162.546 Y112.977 E9.19404
G1 X165.702 Y112.965 E9.29901
G1 X165.901 Y112.965 E9.30563
G1 X165.901 Y113.164 E9.30991
G1 X166.03 Y177.728 E11.45732
G1 X166.025 Y189.403 E11.84563
G0 F1080 X166.025 Y190.203
G0 F6000 X166.425 Y190.603
G1 F1200 X162.315 Y190.602 E11.98233
G1 X162.308 Y190.603 E11.98257
G1 X154.593 Y190.612 E12.23917
G1 X142.827 Y190.612 E12.63051
G1 X137.696 Y190.603 E12.80117
G1 X133.773 Y190.602 E12.93165
G1 X133.574 Y190.602 E12.93827
G1 X133.574 Y190.403 E12.94255
G1 X133.585 Y185.15 E13.11726
G1 X133.58 Y173.96 E13.48945
G1 X133.716 Y112.565 E15.53146
G1 X137.55 Y112.572 E15.65898
G1 X137.554 Y112.571 E15.65911
G1 X137.588 Y112.572 E15.66024
G1 X162.545 Y112.577 E16.49032
G1 X165.204 Y112.564 E16.57876
G1 X166.3 Y112.566 E16.61521
G1 X166.43 Y177.727 E18.78248
G1 X166.425 Y189.803 E19.18413
G0 F1080 X166.425 Y190.603
G0 F6000 X166.807 Y191.001
;TYPE:WALL-OUTER
G1 F1200 X166.805 Y191.003 E19.18422
G1 X162.348 Y191.002 E19.33246
G1 X162.342 Y191.003 E19.33266
G1 X154.593 Y191.012 E19.5904
G1 X142.826 Y191.012 E19.98177
G1 X137.695 Y191.003 E20.15243
G1 X133.207 Y191.002 E20.3017
G1 X133.183 Y190.966 E20.30314
G1 X133.173 Y190.914 E20.3049
G1 X133.185 Y185.15 E20.49661
G1 X133.177 Y176.242 E20.79289
G1 X133.18 Y176.175 E20.79512
G1 X133.18 Y173.96 E20.86879
G1 X133.317 Y112.167 E22.92404
G1 X133.343 Y112.164 E22.92491
G1 X137.525 Y112.172 E23.06401
G1 X137.533 Y112.171 E23.06428
G1 X137.591 Y112.172 E23.06621
G1 X162.544 Y112.177 E23.89615
G1 X165.203 Y112.164 E23.98459
G1 X166.699 Y112.167 E24.03434
G1 X166.83 Y177.726 E26.21485
G1 X166.825 Y190.205 E26.6299
G0 F1080 X166.825 Y190.97
G0 X166.807 Y191.001
G0 F6000 X166.805 Y191.003
G0 X166.407 Y191.003
G0 X166.407 Y190.563
G0 X165.634 Y190.092
G0 X165.635 Y189.813
;TYPE:SKIN
G1 F1200 X162.26 Y189.812 E26.74215
G1 X162.253 Y189.813 E26.74239
G1 X155.8 Y189.82 E26.95702
G1 X156.019 Y189.619 E26.9669
G1 X156.008 Y187.057 E27.05212
G1 X156.043 Y175.914 E27.42274
G1 X156.025 Y175.656 E27.43134
G1 X155.905 Y175.238 E27.4458
G1 X155.607 Y174.812 E27.46309
G1 X155.486 Y174.72 E27.46815
G1 X155.382 Y174.623 E27.47288
G1 X155.133 Y174.479 E27.48245
G1 X150.541 Y172.364 E27.6506
G1 X150.337 Y172.364 E27.65738
G1 X150.216 Y172.347 E27.66145
G1 X150.002 Y172.337 E27.66857
G1 X149.678 Y172.357 E27.67937
G1 X149.351 Y172.42 E27.69045
G1 X144.875 Y174.485 E27.8544
G1 X144.668 Y174.614 E27.86251
G1 X144.401 Y174.84 E27.87415
G1 X144.123 Y175.25 E27.89062
G1 X144.016 Y175.636 E27.90394
G1 X143.989 Y175.885 E27.91227
G1 X143.994 Y187.05 E28.28362
G1 X143.987 Y189.822 E28.37582
G1 X142.828 Y189.822 E28.41437
G1 X134.365 Y189.812 E28.69585
G1 X134.375 Y185.151 E28.85088
G1 X134.37 Y173.961 E29.22306
G1 X134.505 Y113.356 E31.23879
G1 X137.581 Y113.362 E31.3411
G1 X162.546 Y113.367 E32.17144
G1 X165.511 Y113.357 E32.27006
G1 X165.64 Y177.728 E34.41105
G1 X165.635 Y189.013 E34.78639
G0 F1080 X165.635 Y189.813
G1 F1500 E29.28639
G0 F6000 X165.634 Y190.092
G0 X134.778 Y190.092
G0 X134.779 Y189.65
G1 F1500 E34.78639
G1 F1200 X134.524 Y189.396 E34.79836
G0 F6000 X134.526 Y188.832
G1 F1200 X135.345 Y189.651 E34.83688
G0 F6000 X135.912 Y189.652
G1 F1200 X134.527 Y188.267 E34.90203
G0 F6000 X134.529 Y187.703
G1 F1200 X136.478 Y189.653 E34.99373
G0 F6000 X137.045 Y189.653
G1 F1200 X134.53 Y187.139 E35.112
G0 F6000 X134.532 Y186.575
G1 F1200 X137.611 Y189.654 E35.25683
G0 F6000 X138.177 Y189.655
G1 F1200 X134.533 Y186.01 E35.42826
G0 F6000 X134.534 Y185.446
G1 F1200 X138.744 Y189.655 E35.62626
G0 F6000 X139.31 Y189.656
G1 F1200 X134.534 Y184.88 E35.85091
G0 F6000 X134.534 Y184.315
G1 F1200 X139.877 Y189.657 E36.1022
G0 F6000 X140.442 Y189.657
G1 F1200 X134.534 Y183.749 E36.3801
G0 F6000 X134.534 Y183.183
G1 F1200 X141.009 Y189.658 E36.68466
G0 F6000 X141.575 Y189.658
G1 F1200 X134.534 Y182.617 E37.01585
G0 F6000 X134.534 Y182.051
G1 F1200 X142.141 Y189.659 E37.37368
G0 F6000 X142.708 Y189.66
G1 F1200 X134.533 Y181.485 E37.75821
G0 F6000 X134.533 Y180.919
G1 F1200 X143.274 Y189.66 E38.16936
G0 F6000 X143.829 Y189.649
G1 F1200 X134.532 Y180.353 E38.60664
G0 F6000 X134.532 Y179.787
G1 F1200 X143.829 Y189.084 E39.04394
G0 F6000 X143.831 Y188.52
G1 F1200 X134.532 Y179.221 E39.48133
G0 F6000 X134.532 Y178.655
G1 F1200 X143.832 Y187.956 E39.9188
G0 F6000 X143.833 Y187.391
G1 F1200 X134.532 Y178.089 E40.35632
G0 F6000 X134.532 Y177.524
G1 F1200 X143.834 Y186.826 E40.79385
G0 F6000 X143.834 Y186.26
G1 F1200 X134.531 Y176.957 E41.23144
G0 F6000 X134.531 Y176.392
G1 F1200 X143.834 Y185.694 E41.669
G0 F6000 X143.833 Y185.128
G1 F1200 X134.531 Y175.826 E42.10654
G0 F6000 X134.53 Y175.259
G1 F1200 X143.833 Y184.562 E42.54412
G0 F6000 X143.832 Y183.996
G1 F1200 X134.53 Y174.694 E42.98166
G0 F6000 X134.53 Y174.128
G1 F1200 X143.832 Y183.43 E43.4192
G0 F6000 X143.832 Y182.864
G1 F1200 X134.531 Y173.563 E43.85669
G0 F6000 X134.532 Y172.999
G1 F1200 X143.831 Y182.298 E44.29408
G0 F6000 X143.831 Y181.732
G1 F1200 X134.533 Y172.434 E44.73143
G0 F6000 X134.534 Y171.87
G1 F1200 X143.831 Y181.166 E45.16871
G0 F6000 X143.831 Y180.6
G1 F1200 X134.536 Y171.305 E45.60592
G0 F6000 X134.537 Y170.741
G1 F1200 X143.83 Y180.034 E46.04303
G0 F6000 X143.83 Y179.468
G1 F1200 X134.538 Y170.176 E46.4801
G0 F6000 X134.539 Y169.612
G1 F1200 X143.83 Y178.902 E46.9171
G0 F6000 X143.829 Y178.336
G1 F1200 X134.541 Y169.048 E47.35398
G0 F6000 X134.542 Y168.483
G1 F1200 X143.829 Y177.77 E47.79081
G0 F6000 X143.829 Y177.204
G1 F1200 X134.543 Y167.918 E48.22759
G0 F6000 X134.544 Y167.354
G1 F1200 X143.829 Y176.638 E48.66431
G0 F6000 X143.829 Y176.073
G1 F1200 X134.546 Y166.79 E49.10095
G0 F6000 X134.547 Y166.225
G1 F1200 X143.874 Y175.552 E49.53967
G0 F6000 X144.013 Y175.126
G1 F1200 X134.548 Y165.66 E49.98489
G0 F6000 X134.549 Y165.096
G1 F1200 X144.242 Y174.789 E50.44082
G0 F6000 X144.534 Y174.516
G1 F1200 X134.551 Y164.532 E50.91042
G0 F6000 X134.552 Y163.968
G1 F1200 X144.886 Y174.301 E51.39647
G0 F6000 X145.273 Y174.123
G1 F1200 X134.553 Y163.403 E51.90071
G0 F6000 X134.554 Y162.838
G1 F1200 X145.66 Y173.944 E52.4231
G0 F6000 X146.047 Y173.766
G1 F1200 X134.556 Y162.274 E52.96362
G0 F6000 X134.557 Y161.71
G1 F1200 X146.434 Y173.587 E53.52228
G0 F6000 X146.821 Y173.408
G1 F1200 X134.558 Y161.146 E54.09907
G0 F6000 X134.559 Y160.581
G1 F1200 X147.209 Y173.23 E54.69407
G0 F6000 X147.595 Y173.051
G1 F1200 X134.561 Y160.016 E55.30717
G0 F6000 X134.562 Y159.452
G1 F1200 X147.983 Y172.873 E55.93845
G0 F6000 X148.37 Y172.694
G1 F1200 X134.563 Y158.888 E56.58787
G0 F6000 X134.564 Y158.323
G1 F1200 X148.756 Y172.515 E57.25542
G0 F6000 X149.144 Y172.337
G1 F1200 X134.565 Y157.759 E57.94114
G0 F6000 X134.567 Y157.194
G1 F1200 X149.583 Y172.21 E58.64745
G0 F6000 X150.119 Y172.181
G1 F1200 X134.568 Y156.63 E59.37892
G0 F6000 X134.569 Y156.065
G1 F1200 X150.818 Y172.314 E60.14322
G0 F6000 X150.634 Y172.714
G0 X151.682 Y173.196
G0 X151.866 Y172.797
G1 F1200 X134.57 Y155.501 E60.95678
G0 F6000 X134.572 Y154.936
G1 F1200 X152.915 Y173.28 E61.8196
G0 F6000 X152.731 Y173.679
G0 X153.78 Y174.162
G0 X153.964 Y173.763
G1 F1200 X134.573 Y154.372 E62.73169
G0 F6000 X134.575 Y153.808
G1 F1200 X155.013 Y174.246 E63.69303
G0 F6000 X154.829 Y174.645
G0 X155.675 Y175.453
G0 X156.098 Y175.332
G1 F1200 X165.477 Y184.71 E64.13417
G0 F6000 X165.477 Y184.145
G1 F1200 X134.575 Y153.243 E65.5877
G0 F6000 X134.577 Y152.679
G1 F1200 X165.477 Y183.579 E67.04114
G0 F6000 X165.477 Y183.014
G1 F1200 X134.578 Y152.114 E68.49456
G0 F6000 X134.58 Y151.55
G1 F1200 X165.478 Y182.449 E69.94793
G0 F6000 X165.478 Y181.883
G1 F1200 X134.58 Y150.985 E71.40128
G0 F6000 X134.582 Y150.421
G1 F1200 X165.478 Y181.317 E72.85453
G0 F6000 X165.479 Y180.752
G1 F1200 X134.583 Y149.857 E74.30776
G0 F6000 X134.585 Y149.292
G1 F1200 X165.479 Y180.187 E75.76095
G0 F6000 X165.479 Y179.621
G1 F1200 X134.585 Y148.727 E77.2141
G0 F6000 X134.587 Y148.163
G1 F1200 X165.479 Y179.056 E78.66719
G0 F6000 X165.479 Y178.49
G1 F1200 X134.588 Y147.599 E80.12021
G0 F6000 X134.589 Y147.035
G1 F1200 X165.479 Y177.925 E81.57318
G0 F6000 X165.479 Y177.358
G1 F1200 X134.59 Y146.47 E83.02608
G0 F6000 X134.592 Y145.905
G1 F1200 X165.478 Y176.792 E84.47889
G0 F6000 X165.477 Y176.225
G1 F1200 X134.593 Y145.341 E85.93158
G0 F6000 X134.594 Y144.777
G1 F1200 X165.476 Y175.658 E87.38415
G0 F6000 X165.475 Y175.091
G1 F1200 X134.596 Y144.213 E88.83658
G0 F6000 X134.597 Y143.648
G1 F1200 X165.473 Y174.524 E90.28889
G0 F6000 X165.472 Y173.958
G1 F1200 X134.598 Y143.083 E91.74113
G0 F6000 X134.599 Y142.519
G1 F1200 X165.471 Y173.391 E93.19326
G0 F6000 X165.47 Y172.824
G1 F1200 X134.601 Y141.955 E94.64524
G0 F6000 X134.602 Y141.39
G1 F1200 X165.469 Y172.257 E96.09713
G0 F6000 X165.467 Y171.69
G1 F1200 X134.603 Y140.825 E97.5489
G0 F6000 X134.604 Y140.261
G1 F1200 X165.467 Y171.124 E99.0006
G0 F6000 X165.465 Y170.556
G1 F1200 X134.606 Y139.697 E100.45211
G0 F6000 X134.606 Y139.132
G1 F1200 X165.464 Y169.989 E101.90356
G0 F6000 X165.463 Y169.423
G1 F1200 X134.608 Y138.568 E103.35488
G0 F6000 X134.609 Y138.003
G1 F1200 X165.462 Y168.856 E104.80611
G0 F6000 X165.461 Y168.289
G1 F1200 X134.611 Y137.439 E106.2572
G0 F6000 X134.611 Y136.874
G1 F1200 X165.46 Y167.722 E107.70822
G0 F6000 X165.458 Y167.155
G1 F1200 X134.613 Y136.31 E109.15907
G0 F6000 X134.614 Y135.746
G1 F1200 X165.458 Y166.589 E110.60986
G0 F6000 X165.456 Y166.022
G1 F1200 X134.616 Y135.181 E112.0605
G0 F6000 X134.617 Y134.617
G1 F1200 X165.455 Y165.455 E113.51102
G0 F6000 X165.454 Y164.888
G1 F1200 X134.618 Y134.052 E114.96146
G0 F6000 X134.619 Y133.488
G1 F1200 X165.453 Y164.321 E116.41177
G0 F6000 X165.452 Y163.755
G1 F1200 X134.621 Y132.924 E117.86196
G0 F6000 X134.622 Y132.359
G1 F1200 X165.45 Y163.188 E119.31204
G0 F6000 X165.449 Y162.621
G1 F1200 X134.623 Y131.794 E120.76203
G0 F6000 X134.624 Y131.23
G1 F1200 X165.448 Y162.054 E122.21189
G0 F6000 X165.447 Y161.487
G1 F1200 X134.626 Y130.666 E123.66162
G0 F6000 X134.627 Y130.101
G1 F1200 X165.446 Y160.921 E125.11127
G0 F6000 X165.445 Y160.354
G1 F1200 X134.628 Y129.537 E126.56081
G0 F6000 X134.629 Y128.972
G1 F1200 X165.443 Y159.787 E128.01023
G0 F6000 X165.443 Y159.22
G1 F1200 X134.631 Y128.408 E129.45953
G0 F6000 X134.632 Y127.844
G1 F1200 X165.441 Y158.653 E130.90869
G0 F6000 X165.441 Y158.087
G1 F1200 X134.633 Y127.279 E132.35781
G0 F6000 X134.634 Y126.714
G1 F1200 X165.439 Y157.52 E133.8068
G0 F6000 X165.438 Y156.952
G1 F1200 X134.635 Y126.15 E135.25566
G0 F6000 X134.637 Y125.586
G1 F1200 X165.437 Y156.386 E136.7044
G0 F6000 X165.436 Y155.819
G1 F1200 X134.638 Y125.022 E138.15302
G0 F6000 X134.639 Y124.457
G1 F1200 X165.434 Y155.252 E139.60152
G0 F6000 X165.433 Y154.685
G1 F1200 X134.64 Y123.892 E141.04993
G0 F6000 X134.642 Y123.328
G1 F1200 X165.432 Y154.118 E142.49819
G0 F6000 X165.431 Y153.552
G1 F1200 X134.643 Y122.764 E143.94637
