;FLAVOR:Marlin
M117 Time Left 0h09m04s
;Filament used: 0.147249m
;Layer height: 0.2
;MINX:142.654
;MINY:142.664
;MINZ:0.2
;MAXX:157.354
;MAXY:157.346
;MAXZ:12.4
;POSTPROCESSED
;Generated with Cura_SteamEngine 4.6.0
M140 S58
M105
M190 S58
M104 S195
M105
M109 S195
M82 ;absolute extrusion mode
M201 X500.00 Y500.00 Z100.00 E5000.00 ;Setup machine max acceleration
M203 X500.00 Y500.00 Z10.00 E50.00 ;Setup machine max feedrate
M204 P500.00 R1000.00 T500.00 ;Setup Print/Retract/Travel acceleration
M205 X8.00 Y8.00 Z0.40 E5.00 ;Setup Jerk
M220 S100 ;Reset Feedrate
M221 S100 ;Reset Flowrate

G28 ;Home

G92 E0 ;Reset Extruder
G1 Z2.0 F3000 ;Move Z Axis up
G1 X10.1 Y20 Z0.28 F5000.0 ;Move to start position
G1 X10.1 Y200.0 Z0.28 F1500.0 E15 ;Draw the first line
G1 X10.4 Y200.0 Z0.28 F5000.0 ;Move to side a little
G1 X10.4 Y20 Z0.28 F1500.0 E30 ;Draw the second line
G92 E0 ;Reset Extruder
G1 Z2.0 F3000 ;Move Z Axis up

G92 E0
G92 E0
G1 F1500 E-5.5
;LAYER_COUNT:62
;LAYER:0
M107
G0 F6000 X144.683 Y144.935 Z0.2
;TYPE:SKIRT
G1 F1500 E0
G1 F1200 X144.981 Y144.639 E0.01467
G1 X145.318 Y144.339 E0.03043
G1 X145.329 Y144.329 E0.03094
G1 X145.723 Y144.023 E0.04837
G1 X146.092 Y143.773 E0.06393
G1 X146.308 Y143.637 E0.07285
G1 X146.32 Y143.63 E0.07333
G1 X146.587 Y143.488 E0.08389
G1 X147.143 Y143.224 E0.10539
G1 X147.157 Y143.218 E0.10592
G1 X147.481 Y143.097 E0.118
G1 X147.903 Y142.96 E0.13349
G1 X148.28 Y142.858 E0.14713
G1 X148.833 Y142.753 E0.16679
G1 X149.245 Y142.698 E0.18131
G1 X149.364 Y142.69 E0.18547
G1 X150.001 Y142.664 E0.20774
G1 X150.012 Y142.664 E0.20812
G1 X150.263 Y142.672 E0.21689
G1 X150.717 Y142.702 E0.23278
G1 X151.182 Y142.762 E0.24915
G1 X151.779 Y142.879 E0.2704
G1 X151.792 Y142.882 E0.27087
G1 X152.129 Y142.977 E0.28309
G1 X152.553 Y143.117 E0.29869
G1 X153.114 Y143.353 E0.31994
G1 X153.146 Y143.37 E0.32121
G1 X153.451 Y143.519 E0.33306
G1 X153.665 Y143.633 E0.34153
G1 X153.679 Y143.641 E0.34209
G1 X153.962 Y143.819 E0.35377
G1 X154.319 Y144.067 E0.36895
G1 X154.557 Y144.247 E0.37937
G1 X154.7 Y144.369 E0.38593
G1 X155.042 Y144.676 E0.40198
G1 X155.191 Y144.817 E0.40915
G1 X155.2 Y144.826 E0.40959
G1 X155.406 Y145.049 E0.4202
G1 X155.699 Y145.393 E0.43598
G1 X155.846 Y145.577 E0.4442
G1 X155.852 Y145.585 E0.44455
G1 X155.979 Y145.765 E0.45224
G1 X156.231 Y146.145 E0.46817
G1 X156.346 Y146.33 E0.47577
G1 X156.353 Y146.342 E0.47626
G1 X156.486 Y146.591 E0.48612
G1 X156.687 Y147.003 E0.50213
G1 X156.864 Y147.43 E0.51827
G1 X157.061 Y148.009 E0.53963
G1 X157.064 Y148.019 E0.53999
G1 X157.139 Y148.314 E0.55062
G1 X157.236 Y148.766 E0.56677
G1 X157.311 Y149.289 E0.58522
G1 X157.344 Y149.745 E0.60119
G1 X157.354 Y150.019 E0.61076
G1 X157.354 Y150.034 E0.61129
G1 X157.343 Y150.325 E0.62146
G1 X157.309 Y150.767 E0.63694
G1 X157.282 Y151.013 E0.64558
G1 X157.28 Y151.027 E0.64607
G1 X157.235 Y151.279 E0.65501
G1 X157.141 Y151.722 E0.67083
G1 X157.09 Y151.933 E0.67841
G1 X157.087 Y151.944 E0.67881
G1 X157.006 Y152.203 E0.68829
G1 X156.856 Y152.63 E0.70409
G1 X156.67 Y153.07 E0.72077
G1 X156.464 Y153.482 E0.73686
G1 X156.271 Y153.823 E0.75054
G1 X155.973 Y154.274 E0.76942
G1 X155.627 Y154.721 E0.78916
G1 X155.581 Y154.772 E0.79156
G1 X155.36 Y155.026 E0.80332
G1 X155.027 Y155.364 E0.81989
G1 X154.699 Y155.657 E0.83525
G1 X154.297 Y155.97 E0.85304
G1 X153.907 Y156.234 E0.86949
G1 X153.692 Y156.369 E0.87836
G1 X153.68 Y156.376 E0.87884
G1 X153.416 Y156.516 E0.88928
G1 X152.957 Y156.737 E0.90707
G1 X152.944 Y156.743 E0.90757
G1 X152.538 Y156.903 E0.92281
G1 X152.118 Y157.041 E0.93825
G1 X151.786 Y157.134 E0.95029
G1 X151.773 Y157.137 E0.95075
G1 X151.589 Y157.174 E0.95731
G1 X151.12 Y157.258 E0.97395
G1 X150.828 Y157.299 E0.98425
G1 X150.678 Y157.312 E0.9895
G1 X150.247 Y157.339 E1.00458
G1 X150.009 Y157.346 E1.0129
G1 X149.998 Y157.346 E1.01328
G1 X149.787 Y157.34 E1.02066
G1 X149.222 Y157.306 E1.04042
G1 X149.211 Y157.305 E1.04081
G1 X148.872 Y157.259 E1.05276
G1 X148.418 Y157.176 E1.06887
G1 X147.955 Y157.061 E1.08553
G1 X147.503 Y156.918 E1.10209
G1 X147.187 Y156.803 E1.11384
G1 X147.175 Y156.798 E1.11429
G1 X146.983 Y156.711 E1.12165
G1 X146.586 Y156.519 E1.13705
G1 X146.2 Y156.304 E1.15248
G1 X146.094 Y156.234 E1.15692
G1 X145.723 Y155.982 E1.17258
G1 X145.525 Y155.839 E1.18111
G1 X145.516 Y155.832 E1.18151
G1 X145.331 Y155.678 E1.18991
G1 X144.992 Y155.378 E1.20572
G1 X144.623 Y155.002 E1.22412
G1 X144.321 Y154.649 E1.24035
G1 X144.168 Y154.459 E1.24887
G1 X144.162 Y154.451 E1.24921
G1 X144.035 Y154.271 E1.25691
G1 X143.746 Y153.834 E1.2752
G1 X143.739 Y153.823 E1.27566
G1 X143.55 Y153.489 E1.28906
G1 X143.345 Y153.081 E1.30501
G1 X143.232 Y152.837 E1.3144
G1 X143.227 Y152.825 E1.31485
G1 X143.151 Y152.625 E1.32232
G1 X143 Y152.196 E1.33821
G1 X142.897 Y151.856 E1.35061
G1 X142.858 Y151.683 E1.35681
G1 X142.734 Y151.055 E1.37916
G1 X142.732 Y151.042 E1.37962
G1 X142.699 Y150.752 E1.38982
G1 X142.665 Y150.304 E1.40551
G1 X142.654 Y150.016 E1.41557
G1 X142.654 Y150 E1.41613
G1 X142.664 Y149.723 E1.42581
G1 X142.696 Y149.285 E1.44115
G1 X142.73 Y148.984 E1.45173
G1 X142.765 Y148.786 E1.45875
G1 X142.857 Y148.337 E1.47475
G1 X142.948 Y147.982 E1.48755
G1 X142.994 Y147.843 E1.49267
G1 X143.142 Y147.416 E1.50845
G1 X143.282 Y147.068 E1.52155
G1 X143.325 Y146.977 E1.52506
G1 X143.528 Y146.562 E1.5412
G1 X143.773 Y146.151 E1.55791
G1 X143.765 Y146.146 E1.55824
G1 X144.014 Y145.765 E1.57413
G1 X144.168 Y145.549 E1.5834
G0 F1080 X144.195 Y145.511
G0 X144.312 Y145.368
G0 X144.674 Y144.945
G0 X144.683 Y144.935
G0 F6000 X144.981 Y145.203
G1 F1200 X145.247 Y144.937 E1.59653
G1 X145.584 Y144.637 E1.61229
G1 X145.595 Y144.628 E1.61279
G1 X145.947 Y144.354 E1.62837
G1 X146.316 Y144.104 E1.64393
G1 X146.51 Y143.982 E1.65193
G1 X146.522 Y143.975 E1.65242
G1 X146.76 Y143.849 E1.66182
G1 X147.301 Y143.592 E1.68274
G1 X147.315 Y143.586 E1.68327
G1 X147.604 Y143.477 E1.69406
G1 X148.026 Y143.34 E1.70955
G1 X148.364 Y143.249 E1.72178
G1 X148.907 Y143.146 E1.74108
G1 X149.275 Y143.097 E1.75405
G1 X149.384 Y143.09 E1.75786
G1 X150.001 Y143.064 E1.77943
G1 X150.012 Y143.064 E1.77981
G1 X150.236 Y143.071 E1.78764
G1 X150.69 Y143.101 E1.80353
G1 X151.106 Y143.155 E1.81818
G1 X151.69 Y143.269 E1.83896
G1 X151.703 Y143.272 E1.83942
G1 X152.004 Y143.356 E1.85034
G1 X152.428 Y143.496 E1.86593
G1 X152.981 Y143.735 E1.88697
G1 X153.275 Y143.879 E1.8984
G1 X153.467 Y143.98 E1.90598
G1 X153.481 Y143.988 E1.90654
G1 X153.734 Y144.148 E1.917
G1 X154.091 Y144.396 E1.93218
G1 X154.304 Y144.557 E1.9415
G1 X154.433 Y144.667 E1.94742
G1 X154.908 Y145.1 E1.96987
G1 X154.917 Y145.109 E1.97031
G1 X155.101 Y145.308 E1.97978
G1 X155.394 Y145.652 E1.99556
G1 X155.526 Y145.817 E2.00294
G1 X155.532 Y145.825 E2.00329
G1 X155.646 Y145.986 E2.01018
G1 X155.898 Y146.366 E2.0261
G1 X156.001 Y146.532 E2.03292
G1 X156.008 Y146.544 E2.03341
G1 X156.127 Y146.766 E2.0422
G1 X156.328 Y147.178 E2.05821
G1 X156.486 Y147.56 E2.07265
G1 X156.678 Y148.124 E2.09346
G1 X156.681 Y148.134 E2.09382
G1 X156.748 Y148.398 E2.10333
G1 X156.845 Y148.85 E2.11948
G1 X156.912 Y149.318 E2.13599
G1 X156.945 Y149.774 E2.15196
G1 X156.954 Y150.019 E2.16052
G1 X156.954 Y150.034 E2.16104
G1 X156.944 Y150.295 E2.17016
G1 X156.91 Y150.737 E2.18564
G1 X156.886 Y150.957 E2.19337
G1 X156.884 Y150.971 E2.19387
G1 X156.844 Y151.196 E2.20185
G1 X156.75 Y151.639 E2.21766
G1 X156.704 Y151.828 E2.22446
G1 X156.701 Y151.839 E2.22486
G1 X156.629 Y152.071 E2.23334
G1 X156.479 Y152.498 E2.24914
G1 X156.312 Y152.892 E2.26409
G1 X156.106 Y153.304 E2.28018
G1 X155.933 Y153.608 E2.29239
G1 X155.893 Y153.671 E2.295
G1 X155.64 Y154.053 E2.311
G1 X155.33 Y154.453 E2.32867
G1 X155.058 Y154.764 E2.3431
G1 X154.76 Y155.066 E2.35792
G1 X154.432 Y155.359 E2.37328
G1 X154.073 Y155.639 E2.38918
G1 X153.683 Y155.903 E2.40562
G1 X153.49 Y156.024 E2.41358
G1 X153.478 Y156.031 E2.41406
G1 X153.243 Y156.156 E2.42336
G1 X152.79 Y156.374 E2.44092
G1 X152.777 Y156.38 E2.44142
G1 X152.413 Y156.523 E2.45507
G1 X151.993 Y156.661 E2.47051
G1 X151.697 Y156.744 E2.48125
G1 X151.518 Y156.781 E2.48763
G1 X151.049 Y156.865 E2.50427
G1 X150.788 Y156.901 E2.51347
G1 X150.653 Y156.912 E2.5182
G1 X150.222 Y156.939 E2.53329
G1 X150.009 Y156.946 E2.54073
G1 X149.809 Y156.941 E2.54772
G1 X149.258 Y156.908 E2.56699
G1 X149.247 Y156.907 E2.56738
G1 X148.944 Y156.866 E2.57806
G1 X148.49 Y156.783 E2.59417
G1 X148.075 Y156.68 E2.60911
G1 X147.623 Y156.537 E2.62566
G1 X147.341 Y156.433 E2.63616
G1 X147.157 Y156.351 E2.6432
G1 X146.76 Y156.159 E2.6586
G1 X146.415 Y155.966 E2.6724
G1 X146.319 Y155.904 E2.67639
G1 X145.948 Y155.652 E2.69206
G1 X145.771 Y155.523 E2.6997
G1 X145.762 Y155.516 E2.7001
G1 X145.596 Y155.378 E2.70764
G1 X145.257 Y155.078 E2.72345
G1 X144.926 Y154.742 E2.73992
G1 X144.624 Y154.389 E2.75615
G1 X144.488 Y154.219 E2.76375
G1 X144.482 Y154.211 E2.7641
G1 X144.368 Y154.05 E2.77099
G1 X144.084 Y153.619 E2.78901
G1 X144.077 Y153.608 E2.78947
G1 X143.907 Y153.309 E2.80148
G1 X143.702 Y152.901 E2.81743
G1 X143.602 Y152.683 E2.8258
G1 X143.597 Y152.671 E2.82626
G1 X143.528 Y152.492 E2.83296
G1 X143.377 Y152.063 E2.84884
G1 X143.286 Y151.759 E2.85992
G1 X143.25 Y151.603 E2.86551
G1 X143.13 Y150.994 E2.88719
G1 X143.128 Y150.981 E2.88765
G1 X143.098 Y150.721 E2.89679
G1 X143.064 Y150.273 E2.91248
G1 X143.054 Y150.016 E2.92146
G1 X143.054 Y150 E2.92202
G1 X143.063 Y149.752 E2.93069
G1 X143.095 Y149.314 E2.94602
G1 X143.126 Y149.045 E2.95548
G1 X143.157 Y148.867 E2.96179
G1 X143.249 Y148.418 E2.9778
G1 X143.33 Y148.1 E2.98926
G1 X143.371 Y147.974 E2.99388
G1 X143.519 Y147.547 E3.00967
G1 X143.645 Y147.235 E3.02142
G1 X143.684 Y147.153 E3.02459
G1 X143.887 Y146.738 E3.04072
G1 X144.107 Y146.369 E3.05573
G1 X144.1 Y146.365 E3.05601
G1 X144.349 Y145.984 E3.0719
G1 X144.468 Y145.818 E3.07904
G0 F1080 X144.511 Y145.757
G0 X144.616 Y145.628
G0 X144.972 Y145.213
G0 X144.981 Y145.203
G0 F6000 X145.278 Y145.47
G1 F1200 X145.513 Y145.236 E3.09062
G1 X145.85 Y144.936 E3.10637
G1 X145.861 Y144.927 E3.10687
G1 X146.171 Y144.685 E3.12061
G1 X146.54 Y144.435 E3.13617
G1 X146.711 Y144.328 E3.14322
G1 X146.723 Y144.321 E3.1437
G1 X146.934 Y144.209 E3.15204
G1 X147.458 Y143.96 E3.1723
G1 X147.472 Y143.954 E3.17284
G1 X147.728 Y143.858 E3.18238
G1 X148.15 Y143.721 E3.19788
G1 X148.447 Y143.641 E3.20862
G1 X148.535 Y143.623 E3.21176
G1 X148.981 Y143.539 E3.22761
G1 X149.306 Y143.496 E3.23906
G1 X149.403 Y143.49 E3.24245
G1 X150.001 Y143.464 E3.26335
G1 X150.012 Y143.464 E3.26374
G1 X150.21 Y143.471 E3.27066
G1 X150.664 Y143.501 E3.28655
G1 X151.031 Y143.548 E3.29947
G1 X151.6 Y143.659 E3.31971
G1 X151.613 Y143.662 E3.32018
G1 X151.879 Y143.736 E3.32982
G1 X152.303 Y143.876 E3.34542
G1 X152.745 Y144.063 E3.36218
G1 X152.8 Y144.092 E3.36435
G1 X153.099 Y144.238 E3.37597
G1 X153.268 Y144.327 E3.38264
G1 X153.282 Y144.335 E3.3832
G1 X153.506 Y144.476 E3.39245
G1 X153.863 Y144.724 E3.40763
G1 X154.051 Y144.866 E3.41585
G1 X154.166 Y144.965 E3.42115
G1 X154.625 Y145.383 E3.44283
G1 X154.634 Y145.392 E3.44328
G1 X154.797 Y145.568 E3.45166
G1 X155.09 Y145.912 E3.46744
G1 X155.206 Y146.057 E3.47392
G1 X155.212 Y146.065 E3.47427
G1 X155.312 Y146.207 E3.48034
G1 X155.655 Y146.733 E3.50227
G1 X155.662 Y146.745 E3.50275
G1 X155.767 Y146.942 E3.51055
G1 X155.968 Y147.354 E3.52656
G1 X156.108 Y147.691 E3.5393
G1 X156.294 Y148.239 E3.55951
G1 X156.297 Y148.249 E3.55988
G1 X156.357 Y148.482 E3.56828
G1 X156.454 Y148.934 E3.58442
G1 X156.513 Y149.346 E3.59896
G1 X156.546 Y149.802 E3.61493
G1 X156.554 Y150.019 E3.62251
G1 X156.554 Y150.034 E3.62303
G1 X156.545 Y150.264 E3.63107
G1 X156.511 Y150.706 E3.64655
G1 X156.49 Y150.9 E3.65337
G1 X156.488 Y150.914 E3.65386
G1 X156.453 Y151.113 E3.66092
G1 X156.359 Y151.556 E3.67673
G1 X156.318 Y151.722 E3.6827
G1 X156.315 Y151.733 E3.6831
G1 X156.251 Y151.938 E3.6906
G1 X156.101 Y152.365 E3.70641
G1 X155.954 Y152.713 E3.7196
G1 X155.748 Y153.125 E3.73569
G1 X155.596 Y153.394 E3.74648
G1 X155.306 Y153.833 E3.76485
G1 X155.033 Y154.185 E3.78041
G1 X155.021 Y154.198 E3.78103
G1 X154.757 Y154.501 E3.79506
G1 X154.494 Y154.767 E3.80813
G1 X154.166 Y155.06 E3.82349
G1 X153.849 Y155.307 E3.83752
G1 X153.459 Y155.571 E3.85397
G1 X153.289 Y155.678 E3.86098
G1 X153.277 Y155.685 E3.86147
G1 X153.069 Y155.796 E3.8697
G1 X152.622 Y156.011 E3.88702
G1 X152.609 Y156.017 E3.88752
G1 X152.288 Y156.143 E3.89957
G1 X151.868 Y156.281 E3.91501
G1 X151.607 Y156.354 E3.92447
G1 X151.448 Y156.387 E3.93014
G1 X150.979 Y156.471 E3.94678
G1 X150.749 Y156.503 E3.95489
G1 X150.628 Y156.513 E3.95913
G1 X150.197 Y156.54 E3.97421
G1 X150.009 Y156.546 E3.98078
G1 X149.832 Y156.541 E3.98696
G1 X149.294 Y156.51 E4.00578
G1 X149.283 Y156.509 E4.00617
G1 X149.015 Y156.472 E4.01562
G1 X148.561 Y156.389 E4.03174
G1 X148.196 Y156.298 E4.04487
G1 X147.744 Y156.155 E4.06143
G1 X147.495 Y156.064 E4.07069
G1 X147.331 Y155.991 E4.07696
G1 X146.934 Y155.799 E4.09236
G1 X146.629 Y155.629 E4.10455
G1 X146.543 Y155.573 E4.10814
G1 X146.172 Y155.321 E4.1238
G1 X146.016 Y155.207 E4.13055
G1 X146.007 Y155.2 E4.13095
G1 X145.861 Y155.079 E4.13757
G1 X145.522 Y154.779 E4.15338
G1 X145.23 Y154.482 E4.16792
G1 X144.928 Y154.129 E4.18415
G1 X144.808 Y153.979 E4.19085
G1 X144.802 Y153.971 E4.1912
G1 X144.702 Y153.829 E4.19727
G1 X144.421 Y153.405 E4.21503
G1 X144.414 Y153.394 E4.21549
G1 X144.264 Y153.13 E4.22609
G1 X144.059 Y152.722 E4.24204
G1 X143.971 Y152.529 E4.24945
G1 X143.905 Y152.359 E4.25582
G1 X143.754 Y151.93 E4.2717
G1 X143.674 Y151.662 E4.28147
G1 X143.642 Y151.523 E4.28645
G1 X143.525 Y150.933 E4.30745
G1 X143.523 Y150.92 E4.30791
G1 X143.497 Y150.691 E4.31596
G1 X143.463 Y150.243 E4.33165
G1 X143.454 Y150.016 E4.33959
G1 X143.454 Y150 E4.34014
G1 X143.462 Y149.781 E4.3478
G1 X143.494 Y149.343 E4.36313
G1 X143.521 Y149.106 E4.37146
G1 X143.549 Y148.947 E4.3771
G1 X143.641 Y148.498 E4.39311
G1 X143.713 Y148.218 E4.40321
G1 X143.749 Y148.105 E4.40735
G1 X143.897 Y147.678 E4.42313
G1 X144.008 Y147.403 E4.43349
G1 X144.043 Y147.329 E4.43635
G1 X144.246 Y146.914 E4.45248
G1 X144.441 Y146.588 E4.46575
G1 X144.435 Y146.584 E4.466
G1 X144.684 Y146.203 E4.48189
G1 X144.767 Y146.086 E4.4869
G0 F1080 X144.827 Y146.002
G0 X144.92 Y145.887
G0 X145.269 Y145.48
G0 X145.278 Y145.47
G0 F6000 X145.575 Y145.738
G1 F1200 X145.779 Y145.535 E4.49695
G1 X146.116 Y145.235 E4.51271
G1 X146.127 Y145.226 E4.51321
G1 X146.396 Y145.016 E4.52512
G1 X146.765 Y144.766 E4.54069
G1 X146.913 Y144.673 E4.54679
G1 X146.925 Y144.666 E4.54728
G1 X147.107 Y144.569 E4.55448
G1 X147.616 Y144.327 E4.57416
G1 X147.63 Y144.321 E4.5747
G1 X147.851 Y144.238 E4.58294
G1 X148.273 Y144.101 E4.59844
G1 X148.531 Y144.032 E4.60776
G1 X148.609 Y144.016 E4.61054
G1 X149.055 Y143.932 E4.62639
G1 X149.337 Y143.895 E4.63633
G1 X149.423 Y143.889 E4.63934
G1 X150.001 Y143.864 E4.65954
G1 X150.012 Y143.864 E4.65993
G1 X150.183 Y143.87 E4.6659
G1 X150.637 Y143.9 E4.68179
G1 X150.956 Y143.941 E4.69302
G1 X151.51 Y144.049 E4.71273
G1 X151.523 Y144.052 E4.7132
G1 X151.753 Y144.116 E4.72154
G1 X152.177 Y144.256 E4.73713
G1 X152.561 Y144.418 E4.75169
G1 X152.602 Y144.439 E4.75329
G1 X152.924 Y144.597 E4.76582
G1 X153.07 Y144.675 E4.7716
G1 X153.084 Y144.683 E4.77216
G1 X153.277 Y144.805 E4.78014
G1 X153.634 Y145.053 E4.79532
G1 X153.797 Y145.176 E4.80245
G1 X153.899 Y145.262 E4.80711
G1 X154.342 Y145.666 E4.82805
G1 X154.351 Y145.675 E4.82849
G1 X154.492 Y145.827 E4.83573
G1 X154.886 Y146.297 E4.85715
G1 X154.979 Y146.428 E4.86276
G1 X155.31 Y146.935 E4.88391
G1 X155.317 Y146.947 E4.88439
G1 X155.408 Y147.117 E4.89113
G1 X155.609 Y147.529 E4.90714
G1 X155.73 Y147.821 E4.91817
G1 X155.911 Y148.354 E4.93783
G1 X155.914 Y148.364 E4.9382
G1 X155.966 Y148.565 E4.94545
G1 X156.063 Y149.017 E4.96159
G1 X156.114 Y149.375 E4.97422
G1 X156.147 Y149.831 E4.99019
G1 X156.154 Y150.019 E4.99676
G1 X156.154 Y150.034 E4.99728
G1 X156.146 Y150.233 E5.00424
G1 X156.094 Y150.844 E5.02565
G1 X156.092 Y150.858 E5.02615
G1 X156.061 Y151.03 E5.03225
G1 X155.932 Y151.617 E5.05324
G1 X155.929 Y151.628 E5.05364
G1 X155.874 Y151.806 E5.06014
