;FLAVOR:Marlin
M117 Time Left 0h12m11s
;Filament used: 0.191572m
;Layer height: 0.2
;MINX:142.653
;MINY:142.66
;MINZ:0.2
;MAXX:157.357
;MAXY:157.349
;MAXZ:20
;POSTPROCESSED
;Generated with Cura_SteamEngine 4.6.0
M140 S58
M105
M190 S58
M104 S195
M105
M109 S195
M82 ;absolute extrusion mode
M201 X500.00 Y500.00 Z100.00 E5000.00 ;Setup machine max acceleration
M203 X500.00 Y500.00 Z10.00 E50.00 ;Setup machine max feedrate
M204 P500.00 R1000.00 T500.00 ;Setup Print/Retract/Travel acceleration
M205 X8.00 Y8.00 Z0.40 E5.00 ;Setup Jerk
M220 S100 ;Reset Feedrate
M221 S100 ;Reset Flowrate

G28 ;Home

G92 E0 ;Reset Extruder
G1 Z2.0 F3000 ;Move Z Axis up
G1 X10.1 Y20 Z0.28 F5000.0 ;Move to start position
G1 X10.1 Y200.0 Z0.28 F1500.0 E15 ;Draw the first line
G1 X10.4 Y200.0 Z0.28 F5000.0 ;Move to side a little
G1 X10.4 Y20 Z0.28 F1500.0 E30 ;Draw the second line
G92 E0 ;Reset Extruder
G1 Z2.0 F3000 ;Move Z Axis up

G92 E0
G92 E0
G1 F1500 E-5.5
;LAYER_COUNT:100
;LAYER:0
M107
G0 F6000 X144.812 Y144.799 Z0.2
;TYPE:SKIRT
G1 F1500 E0
G1 F1200 X144.954 Y144.663 E0.00687
G1 X145.282 Y144.365 E0.02234
G1 X145.463 Y144.211 E0.03064
G1 X145.473 Y144.203 E0.03109
G1 X145.726 Y144.017 E0.04206
G1 X146.105 Y143.762 E0.05801
G1 X146.311 Y143.633 E0.0665
G1 X146.323 Y143.626 E0.06698
G1 X146.59 Y143.484 E0.07754
G1 X147.144 Y143.221 E0.09896
G1 X147.158 Y143.215 E0.09949
G1 X147.487 Y143.092 E0.11176
G1 X147.908 Y142.956 E0.12721
G1 X148.154 Y142.885 E0.13615
G1 X148.166 Y142.882 E0.13658
G1 X148.404 Y142.831 E0.14508
G1 X148.852 Y142.749 E0.16099
G1 X149.192 Y142.703 E0.17297
G1 X149.331 Y142.692 E0.17784
G1 X149.787 Y142.666 E0.19379
G1 X150.003 Y142.66 E0.20134
G1 X150.015 Y142.66 E0.20176
G1 X150.257 Y142.668 E0.21021
G1 X150.712 Y142.697 E0.22614
G1 X151.211 Y142.762 E0.24371
G1 X151.674 Y142.854 E0.26019
G1 X152.137 Y142.977 E0.27693
G1 X152.571 Y143.122 E0.29291
G1 X153.138 Y143.364 E0.31443
G1 X153.172 Y143.382 E0.31578
G1 X153.439 Y143.512 E0.32615
G1 X153.659 Y143.629 E0.33485
G1 X153.673 Y143.637 E0.33541
G1 X153.942 Y143.805 E0.34649
G1 X154.317 Y144.063 E0.36239
G1 X154.569 Y144.253 E0.37341
G1 X154.724 Y144.385 E0.38052
G1 X155.05 Y144.68 E0.39587
G1 X155.187 Y144.811 E0.40249
G1 X155.196 Y144.82 E0.40294
G1 X155.399 Y145.039 E0.41337
G1 X155.807 Y145.523 E0.43547
G1 X155.814 Y145.532 E0.43587
G1 X155.99 Y145.778 E0.44643
G1 X156.241 Y146.16 E0.4624
G1 X156.24 Y146.161 E0.46245
G1 X156.478 Y146.573 E0.47906
G1 X156.679 Y146.98 E0.49492
G1 X156.819 Y147.299 E0.50708
G1 X156.87 Y147.439 E0.51229
G1 X157.064 Y148.011 E0.53338
G1 X157.067 Y148.021 E0.53374
G1 X157.144 Y148.324 E0.54466
G1 X157.238 Y148.767 E0.56048
G1 X157.315 Y149.343 E0.58077
G1 X157.317 Y149.374 E0.58186
G1 X157.344 Y149.701 E0.59332
G1 X157.357 Y150.017 E0.60436
G1 X157.357 Y150.033 E0.60492
G1 X157.345 Y150.333 E0.6154
G1 X157.31 Y150.775 E0.63089
G1 X157.284 Y151.012 E0.63922
G1 X157.282 Y151.026 E0.63971
G1 X157.237 Y151.278 E0.64865
G1 X157.143 Y151.721 E0.66446
G1 X157.092 Y151.932 E0.67205
G1 X157.089 Y151.943 E0.67244
G1 X157.007 Y152.205 E0.68203
G1 X156.856 Y152.634 E0.69791
G1 X156.731 Y152.944 E0.70959
G1 X156.664 Y153.086 E0.71507
G1 X156.46 Y153.493 E0.73097
G1 X156.269 Y153.83 E0.7445
G1 X156.219 Y153.907 E0.7477
G1 X155.972 Y154.278 E0.76327
G1 X155.821 Y154.489 E0.77233
G1 X155.811 Y154.502 E0.7729
G1 X155.664 Y154.682 E0.78102
G1 X155.372 Y155.017 E0.79654
G1 X155.047 Y155.347 E0.81271
G1 X154.702 Y155.657 E0.82891
G1 X154.283 Y155.983 E0.84745
G1 X153.907 Y156.236 E0.86328
G1 X153.701 Y156.365 E0.87177
G1 X153.689 Y156.372 E0.87225
G1 X153.426 Y156.512 E0.88266
G1 X152.863 Y156.78 E0.90443
G1 X152.849 Y156.786 E0.90497
G1 X152.538 Y156.903 E0.91657
G1 X152.121 Y157.04 E0.9319
G1 X151.731 Y157.146 E0.94601
G1 X151.187 Y157.251 E0.96536
G1 X150.816 Y157.303 E0.97844
G1 X150.705 Y157.312 E0.98233
G1 X150.254 Y157.341 E0.99812
G1 X150.01 Y157.349 E1.00664
G1 X149.998 Y157.349 E1.00706
G1 X149.771 Y157.342 E1.01499
G1 X149.203 Y157.306 E1.03487
G1 X149.192 Y157.305 E1.03526
G1 X148.836 Y157.256 E1.0478
G1 X148.388 Y157.172 E1.06372
G1 X148.088 Y157.103 E1.07447
G1 X147.919 Y157.053 E1.08063
G1 X147.497 Y156.918 E1.0961
G1 X147.193 Y156.807 E1.1074
G1 X147.181 Y156.802 E1.10786
G1 X146.991 Y156.716 E1.11514
G1 X146.589 Y156.522 E1.13073
G1 X146.201 Y156.306 E1.14624
G1 X146.111 Y156.247 E1.15
G1 X145.733 Y155.993 E1.1659
G1 X145.478 Y155.806 E1.17694
G1 X145.468 Y155.798 E1.17739
G1 X145.3 Y155.656 E1.18507
G1 X144.97 Y155.359 E1.20058
G1 X144.945 Y155.336 E1.20176
G1 X144.614 Y154.995 E1.21836
G1 X144.323 Y154.655 E1.23399
G1 X144.054 Y154.28 E1.25011
G1 X144.045 Y154.286 E1.25049
G1 X143.789 Y153.903 E1.26657
G1 X143.666 Y153.706 E1.27468
G1 X143.659 Y153.694 E1.27517
G1 X143.542 Y153.478 E1.28375
G1 X143.338 Y153.07 E1.29968
G1 X143.229 Y152.833 E1.30879
G1 X143.224 Y152.821 E1.30924
G1 X143.143 Y152.609 E1.31717
G1 X142.995 Y152.184 E1.33289
G1 X142.866 Y151.709 E1.35007
G1 X142.864 Y151.709 E1.35014
G1 X142.77 Y151.267 E1.36593
G1 X142.725 Y151.014 E1.3749
G1 X142.723 Y151 E1.37539
G1 X142.695 Y150.734 E1.38473
G1 X142.663 Y150.286 E1.40042
G1 X142.653 Y150.015 E1.40989
G1 X142.653 Y150 E1.41041
G1 X142.663 Y149.727 E1.41996
G1 X142.695 Y149.283 E1.4355
G1 X142.763 Y148.789 E1.45292
G1 X142.857 Y148.333 E1.46918
G1 X142.913 Y148.1 E1.47754
G1 X142.916 Y148.089 E1.47794
G1 X142.994 Y147.836 E1.48719
G1 X143.148 Y147.395 E1.5035
G1 X143.327 Y146.969 E1.51964
G1 X143.529 Y146.559 E1.5356
G1 X143.754 Y146.164 E1.55148
G1 X144.079 Y145.669 E1.57216
G1 X144.086 Y145.659 E1.57258
G1 X144.285 Y145.401 E1.58396
G0 F1080 X144.307 Y145.373
G0 X144.607 Y145.021
G0 X144.812 Y144.799
G0 F6000 X145.095 Y145.082
G1 F1200 X145.223 Y144.96 E1.59014
G1 X145.551 Y144.662 E1.60561
G1 X145.713 Y144.523 E1.61307
G1 X145.723 Y144.515 E1.61352
G1 X145.949 Y144.349 E1.62331
G1 X146.328 Y144.094 E1.63926
G1 X146.513 Y143.978 E1.64689
G1 X146.525 Y143.971 E1.64737
G1 X146.763 Y143.844 E1.65679
G1 X147.302 Y143.589 E1.67762
G1 X147.316 Y143.583 E1.67815
G1 X147.61 Y143.473 E1.68911
G1 X148.031 Y143.337 E1.70456
G1 X148.251 Y143.274 E1.71255
G1 X148.263 Y143.271 E1.71299
G1 X148.476 Y143.225 E1.7206
G1 X148.924 Y143.143 E1.7365
G1 X149.228 Y143.101 E1.74722
G1 X149.353 Y143.092 E1.7516
G1 X149.809 Y143.066 E1.76755
G1 X150.003 Y143.06 E1.77433
G1 X150.015 Y143.06 E1.77474
G1 X150.231 Y143.067 E1.78229
G1 X150.686 Y143.096 E1.79821
G1 X151.133 Y143.154 E1.81396
G1 X151.596 Y143.246 E1.83044
G1 X152.01 Y143.356 E1.8454
G1 X152.444 Y143.501 E1.86138
G1 X152.952 Y143.718 E1.88067
G1 X153.014 Y143.751 E1.88313
G1 X153.263 Y143.872 E1.89279
G1 X153.461 Y143.976 E1.9006
G1 X153.475 Y143.984 E1.90117
G1 X153.715 Y144.135 E1.91107
G1 X154.09 Y144.393 E1.92697
G1 X154.316 Y144.563 E1.93684
G1 X154.455 Y144.682 E1.94323
G1 X154.904 Y145.094 E1.96451
G1 X154.913 Y145.103 E1.96496
G1 X155.095 Y145.299 E1.9743
G1 X155.491 Y145.769 E1.99576
G1 X155.498 Y145.778 E1.99616
G1 X155.655 Y145.998 E2.0056
G1 X155.894 Y146.361 E2.02078
G1 X155.9 Y146.37 E2.02116
G1 X156.12 Y146.75 E2.03649
G1 X156.321 Y147.157 E2.05234
G1 X156.445 Y147.442 E2.0632
G1 X156.492 Y147.569 E2.06793
G1 X156.681 Y148.126 E2.08847
G1 X156.684 Y148.136 E2.08883
G1 X156.753 Y148.407 E2.0986
G1 X156.847 Y148.85 E2.11441
G1 X156.916 Y149.365 E2.13256
G1 X156.92 Y149.433 E2.13494
G1 X156.945 Y149.735 E2.14552
G1 X156.957 Y150.017 E2.15538
G1 X156.957 Y150.033 E2.15594
G1 X156.946 Y150.301 E2.16531
G1 X156.911 Y150.743 E2.18079
G1 X156.888 Y150.956 E2.18827
G1 X156.886 Y150.97 E2.18877
G1 X156.846 Y151.195 E2.19675
G1 X156.752 Y151.638 E2.21256
G1 X156.706 Y151.827 E2.21936
G1 X156.703 Y151.838 E2.21975
G1 X156.63 Y152.072 E2.22831
G1 X156.479 Y152.501 E2.2442
G1 X156.367 Y152.779 E2.25466
G1 X156.307 Y152.907 E2.2596
G1 X156.103 Y153.314 E2.2755
G1 X155.931 Y153.615 E2.28761
G1 X155.886 Y153.685 E2.29051
G1 X155.639 Y154.056 E2.30608
G1 X155.504 Y154.245 E2.31419
G1 X155.494 Y154.258 E2.31476
G1 X155.362 Y154.419 E2.32203
G1 X155.07 Y154.754 E2.33755
G1 X154.779 Y155.049 E2.35202
G1 X154.434 Y155.359 E2.36822
G1 X154.06 Y155.651 E2.38479
G1 X153.684 Y155.904 E2.40062
G1 X153.499 Y156.02 E2.40825
G1 X153.487 Y156.027 E2.40873
G1 X153.252 Y156.152 E2.41803
G1 X152.705 Y156.412 E2.43918
G1 X152.691 Y156.418 E2.43971
G1 X152.413 Y156.523 E2.45009
G1 X151.996 Y156.66 E2.46542
G1 X151.647 Y156.755 E2.47805
G1 X151.112 Y156.858 E2.49708
G1 X150.78 Y156.905 E2.50879
G1 X150.679 Y156.913 E2.51232
G1 X150.228 Y156.942 E2.52811
G1 X150.01 Y156.949 E2.53572
G1 X149.998 Y156.949 E2.53614
G1 X149.795 Y156.943 E2.54324
G1 X149.239 Y156.908 E2.56269
G1 X149.228 Y156.907 E2.56308
G1 X148.909 Y156.863 E2.57432
G1 X148.461 Y156.779 E2.59024
G1 X148.193 Y156.717 E2.59985
G1 X148.041 Y156.672 E2.60538
G1 X147.619 Y156.537 E2.62086
G1 X147.347 Y156.437 E2.63098
G1 X147.165 Y156.356 E2.63793
G1 X146.763 Y156.162 E2.65352
G1 X146.416 Y155.968 E2.66741
G1 X146.334 Y155.915 E2.67082
G1 X145.956 Y155.661 E2.68672
G1 X145.728 Y155.494 E2.69659
G1 X145.718 Y155.486 E2.69704
G1 X145.568 Y155.358 E2.70392
G1 X145.238 Y155.061 E2.71943
G1 X145.214 Y155.04 E2.72054
G1 X144.918 Y154.735 E2.73539
G1 X144.627 Y154.395 E2.75101
G1 X144.385 Y154.058 E2.7655
G1 X144.377 Y154.063 E2.76583
G1 X144.121 Y153.68 E2.78192
G1 X144.011 Y153.504 E2.78917
G1 X144.004 Y153.492 E2.78966
G1 X143.9 Y153.3 E2.79728
G1 X143.696 Y152.892 E2.81321
G1 X143.599 Y152.679 E2.82139
G1 X143.594 Y152.667 E2.82184
G1 X143.521 Y152.477 E2.82895
G1 X143.373 Y152.052 E2.84466
G1 X143.257 Y151.626 E2.86008
G1 X143.255 Y151.626 E2.86015
G1 X143.161 Y151.184 E2.87593
G1 X143.121 Y150.958 E2.88395
G1 X143.119 Y150.944 E2.88444
G1 X143.094 Y150.705 E2.89284
G1 X143.062 Y150.257 E2.90852
G1 X143.053 Y150.015 E2.91698
G1 X143.053 Y150 E2.9175
G1 X143.062 Y149.756 E2.92603
G1 X143.094 Y149.312 E2.94158
G1 X143.155 Y148.87 E2.95716
G1 X143.249 Y148.414 E2.97342
G1 X143.299 Y148.205 E2.98092
G1 X143.302 Y148.194 E2.98132
G1 X143.372 Y147.968 E2.98958
G1 X143.526 Y147.527 E3.0059
G1 X143.686 Y147.145 E3.02036
G1 X143.888 Y146.735 E3.03632
G1 X144.089 Y146.382 E3.05051
G1 X144.407 Y145.898 E3.07073
G1 X144.414 Y145.888 E3.07116
G1 X144.571 Y145.686 E3.08009
G0 F1080 X144.611 Y145.633
G0 X144.911 Y145.281
G0 X145.095 Y145.082
G0 F6000 X145.378 Y145.365
G1 F1200 X145.492 Y145.256 E3.0856
G1 X145.82 Y144.958 E3.10108
G1 X145.963 Y144.835 E3.10767
G1 X145.973 Y144.827 E3.10811
G1 X146.172 Y144.681 E3.11673
G1 X146.551 Y144.426 E3.13268
G1 X146.714 Y144.324 E3.1394
G1 X146.726 Y144.317 E3.13989
G1 X146.937 Y144.205 E3.14823
G1 X147.459 Y143.957 E3.16841
G1 X147.473 Y143.951 E3.16894
G1 X147.733 Y143.853 E3.17865
G1 X148.154 Y143.717 E3.1941
G1 X148.348 Y143.662 E3.20114
G1 X148.36 Y143.659 E3.20157
G1 X148.548 Y143.618 E3.20829
G1 X148.996 Y143.536 E3.2242
G1 X149.264 Y143.499 E3.23364
G1 X149.376 Y143.491 E3.23757
G1 X150.003 Y143.46 E3.25949
G1 X150.015 Y143.46 E3.25991
G1 X150.206 Y143.466 E3.26658
G1 X150.661 Y143.495 E3.2825
G1 X151.055 Y143.547 E3.29638
G1 X151.518 Y143.639 E3.31287
G1 X151.884 Y143.736 E3.32609
G1 X152.318 Y143.881 E3.34207
G1 X152.765 Y144.072 E3.35905
G1 X152.806 Y144.093 E3.36066
G1 X153.088 Y144.231 E3.37162
G1 X153.262 Y144.323 E3.3785
G1 X153.276 Y144.331 E3.37906
G1 X153.488 Y144.464 E3.3878
G1 X153.863 Y144.722 E3.40369
G1 X154.063 Y144.872 E3.41243
G1 X154.187 Y144.979 E3.41815
G1 X154.621 Y145.377 E3.43871
G1 X154.63 Y145.386 E3.43915
G1 X154.79 Y145.559 E3.44738
G1 X155.175 Y146.014 E3.4682
G1 X155.182 Y146.023 E3.4686
G1 X155.321 Y146.218 E3.47696
G1 X155.561 Y146.583 E3.49222
G1 X155.567 Y146.592 E3.49259
G1 X155.761 Y146.928 E3.50614
G1 X155.962 Y147.335 E3.522
G1 X156.072 Y147.586 E3.53157
G1 X156.114 Y147.699 E3.53578
G1 X156.297 Y148.241 E3.55575
G1 X156.3 Y148.251 E3.55612
G1 X156.362 Y148.49 E3.56474
G1 X156.456 Y148.933 E3.58056
G1 X156.516 Y149.388 E3.59659
G1 X156.516 Y149.396 E3.59686
G1 X156.547 Y149.768 E3.6099
G1 X156.557 Y150.017 E3.6186
G1 X156.557 Y150.033 E3.61916
G1 X156.548 Y150.27 E3.62745
G1 X156.513 Y150.712 E3.64293
G1 X156.492 Y150.899 E3.6495
G1 X156.49 Y150.913 E3.65
G1 X156.455 Y151.112 E3.65705
G1 X156.361 Y151.555 E3.67287
G1 X156.32 Y151.721 E3.67884
G1 X156.317 Y151.732 E3.67924
G1 X156.253 Y151.939 E3.6868
G1 X156.102 Y152.368 E3.70269
G1 X156.003 Y152.613 E3.71191
G1 X155.949 Y152.727 E3.71632
G1 X155.745 Y153.134 E3.73222
G1 X155.594 Y153.401 E3.74293
G1 X155.306 Y153.835 E3.76112
G1 X155.187 Y154.001 E3.76826
G1 X155.177 Y154.014 E3.76883
G1 X155.06 Y154.156 E3.77525
G1 X154.768 Y154.491 E3.79077
G1 X154.512 Y154.751 E3.80352
G1 X154.167 Y155.061 E3.81971
G1 X153.837 Y155.319 E3.83434
G1 X153.461 Y155.572 E3.85017
G1 X153.298 Y155.674 E3.85688
G1 X153.286 Y155.681 E3.85737
G1 X153.078 Y155.792 E3.8656
G1 X152.548 Y156.044 E3.8861
G1 X152.534 Y156.05 E3.88663
G1 X152.288 Y156.143 E3.89581
G1 X151.871 Y156.28 E3.91114
G1 X151.564 Y156.363 E3.92225
G1 X151.036 Y156.465 E3.94103
G1 X150.744 Y156.507 E3.95133
G1 X150.654 Y156.514 E3.95449
G1 X150.203 Y156.543 E3.97027
G1 X150.01 Y156.549 E3.97701
G1 X149.819 Y156.544 E3.98368
G1 X149.275 Y156.51 E4.00272
G1 X149.264 Y156.509 E4.00311
G1 X148.983 Y156.47 E4.01301
G1 X148.535 Y156.386 E4.02893
G1 X148.299 Y156.331 E4.03739
G1 X148.163 Y156.291 E4.04234
G1 X147.741 Y156.156 E4.05782
G1 X147.501 Y156.068 E4.06674
G1 X147.339 Y155.996 E4.07294
G1 X146.937 Y155.802 E4.08852
G1 X146.63 Y155.631 E4.1008
G1 X146.179 Y155.329 E4.11975
G1 X145.978 Y155.182 E4.12845
G1 X145.968 Y155.174 E4.1289
G1 X145.835 Y155.061 E4.13499
G1 X145.505 Y154.764 E4.1505
G1 X145.483 Y154.744 E4.15153
G1 X145.222 Y154.475 E4.16462
G1 X144.931 Y154.135 E4.18025
G1 X144.717 Y153.837 E4.19307
G1 X144.71 Y153.841 E4.19335
G1 X144.454 Y153.458 E4.20944
G1 X144.357 Y153.303 E4.21582
G1 X144.35 Y153.291 E4.21631
G1 X144.258 Y153.121 E4.22306
G1 X144.054 Y152.713 E4.23899
G1 X143.968 Y152.525 E4.24621
G1 X143.963 Y152.513 E4.24666
G1 X143.899 Y152.346 E4.25291
G1 X143.751 Y151.921 E4.26862
G1 X143.648 Y151.543 E4.28231
G1 X143.639 Y151.507 E4.2836
G1 X143.553 Y151.101 E4.29809
G1 X143.517 Y150.901 E4.30519
G1 X143.515 Y150.887 E4.30569
G1 X143.493 Y150.677 E4.31306
G1 X143.461 Y150.229 E4.32874
G1 X143.453 Y150.015 E4.33622
G1 X143.453 Y150 E4.33675
G1 X143.461 Y149.784 E4.3443
G1 X143.493 Y149.34 E4.35984
G1 X143.547 Y148.95 E4.37359
G1 X143.641 Y148.494 E4.38985
G1 X143.685 Y148.311 E4.39643
G1 X143.688 Y148.3 E4.39682
G1 X143.75 Y148.1 E4.40414
G1 X143.904 Y147.659 E4.42045
G1 X144.045 Y147.322 E4.43321
G1 X144.247 Y146.912 E4.44917
G1 X144.424 Y146.601 E4.46167
G1 X144.734 Y146.128 E4.48142
G1 X144.741 Y146.118 E4.48184
G1 X144.855 Y145.971 E4.48834
G0 F1080 X144.916 Y145.892
G0 X145.216 Y145.54
G0 X145.378 Y145.365
G0 F6000 X145.661 Y145.648
G1 F1200 X145.761 Y145.552 E4.49318
G1 X146.213 Y145.148 E4.51435
G1 X146.223 Y145.14 E4.5148
G1 X146.396 Y145.013 E4.52229
G1 X146.916 Y144.669 E4.54407
G1 X146.928 Y144.662 E4.54455
G1 X147.11 Y144.565 E4.55176
G1 X147.617 Y144.324 E4.57136
G1 X147.631 Y144.318 E4.57189
G1 X147.856 Y144.234 E4.58028
G1 X148.277 Y144.098 E4.59573
G1 X148.445 Y144.05 E4.60183
G1 X148.62 Y144.011 E4.60809
G1 X149.068 Y143.929 E4.624
G1 X149.301 Y143.898 E4.63221
G1 X149.399 Y143.89 E4.63564
G1 X150.003 Y143.86 E4.65676
G1 X150.18 Y143.865 E4.66294
G1 X150.635 Y143.894 E4.67887
G1 X150.977 Y143.939 E4.69091
G1 X151.44 Y144.031 E4.7074
G1 X151.757 Y144.115 E4.71885
G1 X152.191 Y144.26 E4.73483
G1 X152.579 Y144.426 E4.74957
G1 X152.636 Y144.456 E4.75182
G1 X152.913 Y144.591 E4.76258
G1 X153.064 Y144.671 E4.76855
G1 X153.078 Y144.679 E4.76911
G1 X153.262 Y144.794 E4.77669
G1 X153.637 Y145.052 E4.79259
G1 X153.809 Y145.182 E4.80012
G1 X153.919 Y145.275 E4.80515
G1 X154.338 Y145.66 E4.82502
G1 X154.347 Y145.669 E4.82546
G1 X154.486 Y145.819 E4.8326
G1 X154.859 Y146.26 E4.85278
G1 X154.866 Y146.269 E4.85317
G1 X154.987 Y146.437 E4.8604
G1 X155.238 Y146.819 E4.87637
G1 X155.237 Y146.82 E4.87642
G1 X155.402 Y147.105 E4.88792
G1 X155.603 Y147.512 E4.90377
G1 X155.699 Y147.73 E4.91209
