;FLAVOR:Marlin
M117 Time Left 0h09m04s
;Filament used: 0.147212m
;Layer height: 0.2
;MINX:142.654
;MINY:142.662
;MINZ:0.2
;MAXX:157.354
;MAXY:157.346
;MAXZ:12.4
;POSTPROCESSED
;Generated with Cura_SteamEngine 4.6.0
M140 S58
M105
M190 S58
M104 S195
M105
M109 S195
M82 ;absolute extrusion mode
M201 X500.00 Y500.00 Z100.00 E5000.00 ;Setup machine max acceleration
M203 X500.00 Y500.00 Z10.00 E50.00 ;Setup machine max feedrate
M204 P500.00 R1000.00 T500.00 ;Setup Print/Retract/Travel acceleration
M205 X8.00 Y8.00 Z0.40 E5.00 ;Setup Jerk
M220 S100 ;Reset Feedrate
M221 S100 ;Reset Flowrate

G28 ;Home

G92 E0 ;Reset Extruder
G1 Z2.0 F3000 ;Move Z Axis up
G1 X10.1 Y20 Z0.28 F5000.0 ;Move to start position
G1 X10.1 Y200.0 Z0.28 F1500.0 E15 ;Draw the first line
G1 X10.4 Y200.0 Z0.28 F5000.0 ;Move to side a little
G1 X10.4 Y20 Z0.28 F1500.0 E30 ;Draw the second line
G92 E0 ;Reset Extruder
G1 Z2.0 F3000 ;Move Z Axis up

G92 E0
G92 E0
G1 F1500 E-5.5
;LAYER_COUNT:62
;LAYER:0
M107
G0 F6000 X144.963 Y144.655 Z0.2
;TYPE:SKIRT
G1 F1500 E0
G1 F1200 X145.3 Y144.352 E0.01583
G1 X145.561 Y144.138 E0.02761
G1 X145.573 Y144.129 E0.02814
G1 X145.73 Y144.018 E0.03485
G1 X146.104 Y143.766 E0.0506
G1 X146.312 Y143.635 E0.05919
G1 X146.324 Y143.628 E0.05967
G1 X146.587 Y143.488 E0.07008
G1 X147.144 Y143.223 E0.09162
G1 X147.158 Y143.217 E0.09215
G1 X147.484 Y143.095 E0.10431
G1 X147.904 Y142.959 E0.11972
G1 X148.279 Y142.858 E0.13329
G1 X148.387 Y142.836 E0.13714
G1 X148.834 Y142.752 E0.15302
G1 X149.192 Y142.703 E0.16564
G1 X149.347 Y142.691 E0.17107
G1 X149.802 Y142.667 E0.18698
G1 X150.002 Y142.662 E0.19397
G1 X150.013 Y142.662 E0.19435
G1 X150.269 Y142.671 E0.2033
G1 X150.728 Y142.702 E0.21936
G1 X151.202 Y142.764 E0.23606
G1 X151.662 Y142.854 E0.25243
G1 X152.124 Y142.975 E0.26911
G1 X152.557 Y143.118 E0.28503
G1 X153.128 Y143.36 E0.30669
G1 X153.172 Y143.383 E0.30842
G1 X153.449 Y143.519 E0.3192
G1 X153.66 Y143.631 E0.32754
G1 X153.674 Y143.639 E0.32811
G1 X153.939 Y143.805 E0.33903
G1 X154.312 Y144.061 E0.35482
G1 X154.568 Y144.253 E0.366
G1 X154.728 Y144.39 E0.37336
G1 X155.187 Y144.813 E0.39516
G1 X155.195 Y144.821 E0.39555
G1 X155.398 Y145.04 E0.40598
G1 X155.696 Y145.389 E0.42201
G1 X155.846 Y145.577 E0.4304
G1 X155.852 Y145.585 E0.43075
G1 X155.978 Y145.763 E0.43837
G1 X156.323 Y146.291 E0.4604
G1 X156.329 Y146.301 E0.4608
G1 X156.483 Y146.583 E0.47203
G1 X156.685 Y146.995 E0.48805
G1 X156.684 Y146.996 E0.4881
G1 X156.877 Y147.458 E0.50559
G1 X157.02 Y147.88 E0.52115
G1 X157.087 Y148.1 E0.52918
G1 X157.09 Y148.111 E0.52958
G1 X157.139 Y148.312 E0.5368
G1 X157.236 Y148.763 E0.55291
G1 X157.311 Y149.288 E0.57143
G1 X157.344 Y149.744 E0.5874
G1 X157.354 Y150.018 E0.59697
G1 X157.354 Y150.033 E0.5975
G1 X157.345 Y150.3 E0.60683
G1 X157.314 Y150.74 E0.62223
G1 X157.285 Y151.01 E0.63172
G1 X157.283 Y151.024 E0.63221
G1 X157.237 Y151.282 E0.64136
G1 X157.141 Y151.731 E0.6574
G1 X157.091 Y151.936 E0.66477
G1 X157.088 Y151.947 E0.66516
G1 X157.001 Y152.225 E0.67534
G1 X156.8 Y152.778 E0.69589
G1 X156.796 Y152.788 E0.69626
G1 X156.668 Y153.073 E0.70717
G1 X156.464 Y153.482 E0.72313
G1 X156.27 Y153.826 E0.73693
G1 X156.214 Y153.913 E0.74054
G1 X155.964 Y154.286 E0.75622
G1 X155.692 Y154.644 E0.77192
G1 X155.391 Y154.995 E0.78807
G1 X155.017 Y155.373 E0.80664
G1 X154.657 Y155.69 E0.82339
G1 X154.266 Y155.992 E0.84065
G1 X153.903 Y156.236 E0.85592
G1 X153.698 Y156.364 E0.86436
G1 X153.686 Y156.371 E0.86485
G1 X153.444 Y156.501 E0.87444
G1 X152.935 Y156.748 E0.8942
G1 X152.924 Y156.753 E0.89462
G1 X152.53 Y156.907 E0.90939
G1 X152.11 Y157.044 E0.92482
G1 X151.786 Y157.134 E0.93657
G1 X151.773 Y157.137 E0.93703
G1 X151.589 Y157.174 E0.94359
G1 X151.12 Y157.258 E0.96023
G1 X150.828 Y157.299 E0.97052
G1 X150.678 Y157.312 E0.97578
G1 X150.247 Y157.339 E0.99086
G1 X150.009 Y157.346 E0.99918
G1 X149.998 Y157.346 E0.99956
G1 X149.77 Y157.339 E1.00753
G1 X149.187 Y157.301 E1.02793
G1 X149.177 Y157.3 E1.02828
G1 X148.876 Y157.258 E1.0389
G1 X148.408 Y157.173 E1.05551
G1 X147.938 Y157.056 E1.07242
G1 X147.506 Y156.919 E1.08825
G1 X147.193 Y156.805 E1.09988
G1 X147.181 Y156.8 E1.10034
G1 X146.991 Y156.714 E1.10762
G1 X146.589 Y156.52 E1.12321
G1 X146.201 Y156.304 E1.13872
G1 X145.73 Y155.988 E1.15853
G1 X145.316 Y155.666 E1.17684
G1 X144.976 Y155.361 E1.19279
G1 X144.946 Y155.334 E1.1942
G1 X144.611 Y154.989 E1.211
G1 X144.32 Y154.648 E1.22665
G1 X144.171 Y154.461 E1.235
G1 X144.165 Y154.453 E1.23535
G1 X144.039 Y154.275 E1.24297
G1 X143.744 Y153.829 E1.26164
G1 X143.737 Y153.818 E1.2621
G1 X143.544 Y153.477 E1.27578
G1 X143.34 Y153.069 E1.29171
G1 X143.231 Y152.832 E1.30082
G1 X143.226 Y152.82 E1.30128
G1 X143.147 Y152.613 E1.30901
G1 X142.998 Y152.187 E1.32478
G1 X142.874 Y151.7 E1.34233
G1 X142.864 Y151.702 E1.34268
G1 X142.77 Y151.255 E1.35863
G1 X142.727 Y151.01 E1.36732
G1 X142.725 Y150.996 E1.36782
G1 X142.697 Y150.741 E1.37677
G1 X142.664 Y150.297 E1.39232
G1 X142.654 Y150.015 E1.40218
G1 X142.654 Y150 E1.4027
G1 X142.664 Y149.724 E1.41235
G1 X142.696 Y149.284 E1.42775
G1 X142.724 Y149.023 E1.43692
G1 X142.726 Y149.009 E1.43741
G1 X142.769 Y148.767 E1.446
G1 X142.863 Y148.318 E1.46202
G1 X142.916 Y148.097 E1.46996
G1 X142.919 Y148.086 E1.47035
G1 X142.991 Y147.852 E1.4789
G1 X143.139 Y147.421 E1.49482
G1 X143.283 Y147.063 E1.50829
G1 X143.325 Y146.973 E1.51176
G1 X143.523 Y146.568 E1.52751
G1 X143.769 Y146.156 E1.54426
G1 X143.761 Y146.151 E1.54459
G1 X144.014 Y145.764 E1.56074
G1 X144.195 Y145.51 E1.57163
G1 X144.313 Y145.365 E1.57816
G1 X144.419 Y145.241 E1.58386
G0 F1080 X144.656 Y144.965
G0 X144.664 Y144.956
G0 X144.963 Y144.655
G0 F6000 X145.231 Y144.953
G1 F1200 X145.568 Y144.65 E1.59969
G1 X145.801 Y144.458 E1.61023
G1 X145.953 Y144.349 E1.61676
G1 X146.327 Y144.097 E1.63251
G1 X146.514 Y143.98 E1.64021
G1 X146.526 Y143.973 E1.6407
G1 X146.761 Y143.848 E1.65
G1 X147.302 Y143.591 E1.67091
G1 X147.316 Y143.585 E1.67144
G1 X147.608 Y143.475 E1.68234
G1 X148.028 Y143.339 E1.69776
G1 X148.363 Y143.249 E1.70987
G1 X148.461 Y143.229 E1.71337
G1 X148.908 Y143.145 E1.72925
G1 X149.228 Y143.101 E1.74053
G1 X149.368 Y143.091 E1.74543
G1 X150.002 Y143.062 E1.7676
G1 X150.013 Y143.062 E1.76798
G1 X150.242 Y143.07 E1.77598
G1 X150.701 Y143.101 E1.79205
G1 X151.125 Y143.156 E1.80698
G1 X151.585 Y143.246 E1.82335
G1 X151.998 Y143.355 E1.83827
G1 X152.431 Y143.498 E1.85419
G1 X152.943 Y143.714 E1.8736
G1 X153.005 Y143.746 E1.87604
G1 X153.273 Y143.878 E1.88647
G1 X153.462 Y143.978 E1.89394
G1 X153.476 Y143.986 E1.8945
G1 X153.713 Y144.135 E1.90428
G1 X154.086 Y144.391 E1.92007
G1 X154.315 Y144.563 E1.93008
G1 X154.459 Y144.686 E1.93669
G1 X154.904 Y145.096 E1.95782
G1 X154.912 Y145.104 E1.95822
G1 X155.094 Y145.3 E1.96756
G1 X155.392 Y145.649 E1.98358
G1 X155.526 Y145.817 E1.99109
G1 X155.532 Y145.825 E1.99144
G1 X155.644 Y145.984 E1.99823
G1 X155.98 Y146.497 E2.01965
G1 X155.986 Y146.507 E2.02005
G1 X156.124 Y146.759 E2.03009
G1 X156.326 Y147.171 E2.04611
G1 X156.325 Y147.171 E2.04615
G1 X156.498 Y147.587 E2.06188
G1 X156.641 Y148.009 E2.07744
G1 X156.701 Y148.205 E2.0846
G1 X156.748 Y148.396 E2.09147
G1 X156.845 Y148.847 E2.10758
G1 X156.912 Y149.317 E2.12416
G1 X156.945 Y149.773 E2.14013
G1 X156.954 Y150.018 E2.14869
G1 X156.954 Y150.033 E2.14921
G1 X156.946 Y150.272 E2.15756
G1 X156.915 Y150.712 E2.17297
G1 X156.889 Y150.954 E2.18147
G1 X156.887 Y150.968 E2.18196
G1 X156.846 Y151.198 E2.19012
G1 X156.75 Y151.647 E2.20616
G1 X156.705 Y151.831 E2.21277
G1 X156.702 Y151.842 E2.21317
G1 X156.624 Y152.091 E2.22228
G1 X156.429 Y152.63 E2.2423
G1 X156.425 Y152.64 E2.24268
G1 X156.311 Y152.895 E2.25243
G1 X156.107 Y153.304 E2.26839
G1 X155.932 Y153.611 E2.28073
G1 X155.881 Y153.69 E2.28402
G1 X155.631 Y154.063 E2.2997
G1 X155.388 Y154.383 E2.31373
G1 X155.087 Y154.734 E2.32988
G1 X154.753 Y155.073 E2.3465
G1 X154.393 Y155.39 E2.36325
G1 X154.043 Y155.66 E2.37869
G1 X153.68 Y155.904 E2.39396
G1 X153.496 Y156.019 E2.40154
G1 X153.484 Y156.026 E2.40203
G1 X153.268 Y156.142 E2.41059
G1 X152.77 Y156.384 E2.42993
G1 X152.759 Y156.389 E2.43035
G1 X152.406 Y156.526 E2.44357
G1 X151.986 Y156.663 E2.459
G1 X151.697 Y156.744 E2.46948
G1 X151.518 Y156.781 E2.47586
G1 X151.049 Y156.865 E2.4925
G1 X150.788 Y156.901 E2.50171
G1 X150.653 Y156.912 E2.50644
G1 X150.222 Y156.939 E2.52152
G1 X150.009 Y156.946 E2.52896
G1 X149.998 Y156.946 E2.52934
G1 X149.794 Y156.94 E2.53647
G1 X149.227 Y156.903 E2.55631
G1 X149.217 Y156.902 E2.55667
G1 X148.947 Y156.864 E2.56619
G1 X148.479 Y156.779 E2.5828
G1 X148.059 Y156.675 E2.59791
G1 X147.627 Y156.538 E2.61374
G1 X147.347 Y156.435 E2.62416
G1 X147.165 Y156.354 E2.63111
G1 X146.763 Y156.16 E2.6467
G1 X146.416 Y155.966 E2.66059
G1 X146.33 Y155.911 E2.66415
G1 X145.953 Y155.657 E2.68003
G1 X145.583 Y155.368 E2.69642
G1 X145.243 Y155.063 E2.71237
G1 X145.215 Y155.038 E2.71368
G1 X144.916 Y154.729 E2.7287
G1 X144.625 Y154.388 E2.74436
G1 X144.491 Y154.221 E2.75183
G1 X144.485 Y154.213 E2.75218
G1 X144.373 Y154.054 E2.75898
G1 X144.082 Y153.614 E2.7774
G1 X144.075 Y153.603 E2.77785
G1 X143.902 Y153.299 E2.79007
G1 X143.698 Y152.891 E2.806
G1 X143.601 Y152.678 E2.81417
G1 X143.596 Y152.666 E2.81463
G1 X143.525 Y152.481 E2.82155
G1 X143.376 Y152.055 E2.83731
G1 X143.264 Y151.618 E2.85306
G1 X143.256 Y151.62 E2.85335
G1 X143.162 Y151.173 E2.8693
G1 X143.123 Y150.954 E2.87707
G1 X143.121 Y150.94 E2.87756
G1 X143.096 Y150.711 E2.88561
G1 X143.063 Y150.267 E2.90116
G1 X143.054 Y150.015 E2.90996
G1 X143.054 Y150 E2.91049
G1 X143.063 Y149.753 E2.91912
G1 X143.095 Y149.313 E2.93453
G1 X143.12 Y149.079 E2.94275
G1 X143.122 Y149.065 E2.94324
G1 X143.16 Y148.849 E2.9509
G1 X143.254 Y148.4 E2.96692
G1 X143.302 Y148.202 E2.97403
G1 X143.305 Y148.191 E2.97443
G1 X143.369 Y147.982 E2.98207
G1 X143.517 Y147.551 E2.99798
G1 X143.646 Y147.23 E3.01006
G1 X143.684 Y147.149 E3.01319
G1 X143.882 Y146.744 E3.02893
G1 X144.102 Y146.374 E3.04396
G1 X144.096 Y146.37 E3.04422
G1 X144.349 Y145.983 E3.06036
G1 X144.511 Y145.756 E3.0701
G1 X144.617 Y145.625 E3.07599
G1 X144.689 Y145.541 E3.07985
G0 F1080 X144.955 Y145.231
G0 X144.963 Y145.222
G0 X145.231 Y144.953
G0 F6000 X145.498 Y145.25
G1 F1200 X145.835 Y144.947 E3.09568
G1 X146.041 Y144.778 E3.10498
G1 X146.177 Y144.681 E3.11082
G1 X146.551 Y144.429 E3.12657
G1 X146.715 Y144.326 E3.13333
G1 X146.727 Y144.319 E3.13381
G1 X146.935 Y144.208 E3.14205
G1 X147.459 Y143.959 E3.16231
G1 X147.473 Y143.953 E3.16284
G1 X147.731 Y143.856 E3.17247
G1 X148.151 Y143.72 E3.18788
G1 X148.446 Y143.641 E3.19855
G1 X148.535 Y143.623 E3.20172
G1 X148.982 Y143.539 E3.2176
G1 X149.264 Y143.499 E3.22755
G1 X149.389 Y143.49 E3.23193
G1 X150.002 Y143.462 E3.25336
G1 X150.013 Y143.462 E3.25374
G1 X150.215 Y143.469 E3.2608
G1 X150.674 Y143.5 E3.27687
G1 X151.048 Y143.549 E3.29004
G1 X151.508 Y143.639 E3.30641
G1 X151.873 Y143.734 E3.31958
G1 X152.306 Y143.877 E3.33551
G1 X152.757 Y144.069 E3.35262
G1 X152.791 Y144.087 E3.35397
G1 X153.097 Y144.237 E3.36587
G1 X153.263 Y144.325 E3.37243
G1 X153.277 Y144.333 E3.37299
G1 X153.487 Y144.465 E3.38166
G1 X153.86 Y144.721 E3.39746
G1 X154.062 Y144.872 E3.40626
G1 X154.19 Y144.982 E3.41216
G1 X154.621 Y145.379 E3.43262
G1 X154.629 Y145.387 E3.43302
G1 X154.789 Y145.56 E3.44125
G1 X155.087 Y145.909 E3.45727
G1 X155.206 Y146.057 E3.46391
G1 X155.311 Y146.205 E3.47024
G1 X155.637 Y146.703 E3.49103
G1 X155.643 Y146.713 E3.49144
G1 X155.765 Y146.935 E3.50028
G1 X155.967 Y147.347 E3.51631
G1 X155.966 Y147.348 E3.51636
G1 X156.119 Y147.715 E3.53024
G1 X156.262 Y148.137 E3.5458
G1 X156.315 Y148.311 E3.55216
G1 X156.357 Y148.48 E3.55824
G1 X156.454 Y148.931 E3.57435
G1 X156.513 Y149.345 E3.58895
G1 X156.546 Y149.801 E3.60492
G1 X156.554 Y150.018 E3.6125
G1 X156.554 Y150.033 E3.61303
G1 X156.547 Y150.244 E3.6204
G1 X156.516 Y150.684 E3.6358
G1 X156.493 Y150.897 E3.64329
G1 X156.491 Y150.911 E3.64378
G1 X156.455 Y151.114 E3.65098
G1 X156.359 Y151.563 E3.66701
G1 X156.319 Y151.725 E3.67284
G1 X156.316 Y151.736 E3.67324
G1 X156.247 Y151.956 E3.68129
G1 X156.057 Y152.481 E3.70079
G1 X156.053 Y152.491 E3.70117
G1 X155.953 Y152.716 E3.70977
G1 X155.749 Y153.125 E3.72573
G1 X155.595 Y153.397 E3.73664
G1 X155.299 Y153.84 E3.75525
G1 X155.084 Y154.123 E3.76766
G1 X154.783 Y154.474 E3.78381
G1 X154.489 Y154.773 E3.79845
G1 X154.129 Y155.09 E3.81521
G1 X153.82 Y155.328 E3.82883
G1 X153.457 Y155.572 E3.8441
G1 X153.295 Y155.673 E3.85077
G1 X153.283 Y155.68 E3.85125
G1 X153.091 Y155.783 E3.85886
G1 X152.604 Y156.02 E3.87778
G1 X152.593 Y156.025 E3.8782
G1 X152.282 Y156.146 E3.88985
G1 X151.862 Y156.283 E3.90528
G1 X151.607 Y156.354 E3.91453
G1 X151.448 Y156.387 E3.9202
G1 X150.979 Y156.471 E3.93684
G1 X150.749 Y156.503 E3.94495
G1 X150.628 Y156.513 E3.94919
G1 X150.197 Y156.54 E3.96427
G1 X150.009 Y156.546 E3.97084
G1 X149.818 Y156.541 E3.97751
G1 X149.266 Y156.505 E3.99683
G1 X149.256 Y156.504 E3.99718
G1 X149.019 Y156.471 E4.00554
G1 X148.551 Y156.386 E4.02215
G1 X148.18 Y156.294 E4.0355
G1 X147.748 Y156.157 E4.05132
G1 X147.501 Y156.066 E4.06052
G1 X147.339 Y155.994 E4.06671
G1 X146.937 Y155.8 E4.0823
G1 X146.63 Y155.629 E4.09457
G1 X146.177 Y155.325 E4.11362
G1 X145.85 Y155.07 E4.1281
G1 X145.51 Y154.765 E4.14405
G1 X145.484 Y154.742 E4.14527
G1 X145.22 Y154.469 E4.15853
G1 X144.929 Y154.128 E4.17418
G1 X144.811 Y153.981 E4.18077
G1 X144.706 Y153.833 E4.1871
G1 X144.419 Y153.4 E4.20525
G1 X144.412 Y153.389 E4.2057
G1 X144.26 Y153.12 E4.21649
G1 X144.056 Y152.712 E4.23242
G1 X143.97 Y152.524 E4.23964
G1 X143.902 Y152.348 E4.24623
G1 X143.753 Y151.922 E4.26199
G1 X143.654 Y151.535 E4.27594
G1 X143.647 Y151.537 E4.2762
G1 X143.553 Y151.09 E4.29215
G1 X143.519 Y150.897 E4.29899
G1 X143.517 Y150.883 E4.29949
G1 X143.495 Y150.681 E4.30658
G1 X143.462 Y150.237 E4.32213
G1 X143.454 Y150.015 E4.32989
G1 X143.454 Y150 E4.33041
G1 X143.462 Y149.782 E4.33803
G1 X143.494 Y149.342 E4.35344
G1 X143.516 Y149.136 E4.36067
G1 X143.518 Y149.122 E4.36117
G1 X143.552 Y148.931 E4.36794
G1 X143.646 Y148.482 E4.38396
G1 X143.688 Y148.308 E4.39021
G1 X143.691 Y148.297 E4.39061
G1 X143.748 Y148.112 E4.39737
G1 X143.896 Y147.681 E4.41329
G1 X144.009 Y147.398 E4.42393
G1 X144.044 Y147.324 E4.42679
G1 X144.242 Y146.919 E4.44253
G1 X144.437 Y146.592 E4.45583
G1 X144.431 Y146.588 E4.45608
G1 X144.684 Y146.201 E4.47223
G1 X144.827 Y146.001 E4.48081
G1 X144.921 Y145.885 E4.48603
G1 X144.959 Y145.84 E4.48808
G0 F1080 X145.254 Y145.497
G0 X145.262 Y145.488
G0 X145.498 Y145.25
G0 F6000 X145.766 Y145.548
G1 F1200 X146.103 Y145.245 E4.50391
G1 X146.281 Y145.098 E4.51197
G1 X146.4 Y145.013 E4.51708
G1 X146.774 Y144.761 E4.53283
G1 X146.917 Y144.671 E4.53873
G1 X146.929 Y144.664 E4.53922
G1 X147.109 Y144.568 E4.54634
G1 X147.617 Y144.326 E4.56599
G1 X147.631 Y144.32 E4.56652
G1 X147.854 Y144.236 E4.57485
G1 X148.274 Y144.1 E4.59026
G1 X148.53 Y144.032 E4.59951
G1 X148.609 Y144.016 E4.60233
G1 X149.056 Y143.932 E4.61821
G1 X149.301 Y143.898 E4.62685
G1 X149.41 Y143.89 E4.63067
G1 X150.002 Y143.862 E4.65137
G1 X150.013 Y143.862 E4.65175
G1 X150.188 Y143.868 E4.65786
G1 X150.647 Y143.899 E4.67393
G1 X150.971 Y143.941 E4.68534
G1 X151.431 Y144.031 E4.70171
G1 X151.747 Y144.114 E4.71312
G1 X152.18 Y144.257 E4.72904
G1 X152.571 Y144.423 E4.74388
G1 X152.608 Y144.442 E4.74533
G1 X152.921 Y144.596 E4.75751
G1 X153.065 Y144.673 E4.76322
G1 X153.079 Y144.681 E4.76378
G1 X153.26 Y144.794 E4.77123
G1 X153.633 Y145.05 E4.78703
G1 X153.808 Y145.182 E4.79469
G1 X153.921 Y145.278 E4.79986
G1 X154.338 Y145.662 E4.81966
G1 X154.346 Y145.67 E4.82006
G1 X154.485 Y145.82 E4.8272
G1 X154.886 Y146.297 E4.84896
G1 X154.978 Y146.427 E4.85452
G1 X155.294 Y146.908 E4.87462
G1 X155.3 Y146.918 E4.87503
G1 X155.406 Y147.111 E4.88272
G1 X155.608 Y147.523 E4.89874
G1 X155.607 Y147.523 E4.89878
G1 X155.74 Y147.844 E4.91091
G1 X155.929 Y148.416 E4.93195
G1 X155.966 Y148.564 E4.93728
G1 X156.063 Y149.015 E4.95339
G1 X156.114 Y149.374 E4.96605
G1 X156.147 Y149.83 E4.98202
G1 X156.154 Y150.018 E4.98859
G1 X156.154 Y150.033 E4.98911
G1 X156.148 Y150.216 E4.99551
