;FLAVOR:Marlin
M117 Time Left 0h35m47s
;Filament used: 1.0706m
;Layer height: 0.2
;MINX:138.913
;MINY:139.208
;MINZ:0.2
;MAXX:161.082
;MAXY:160.794
;MAXZ:22.8
;POSTPROCESSED
;Generated with Cura_SteamEngine 4.6.0
M140 S58
M105
M190 S58
M104 S195
M105
M109 S195
M82 ;absolute extrusion mode
M201 X500.00 Y500.00 Z100.00 E5000.00 ;Setup machine max acceleration
M203 X500.00 Y500.00 Z10.00 E50.00 ;Setup machine max feedrate
M204 P500.00 R1000.00 T500.00 ;Setup Print/Retract/Travel acceleration
M205 X8.00 Y8.00 Z0.40 E5.00 ;Setup Jerk
M220 S100 ;Reset Feedrate
M221 S100 ;Reset Flowrate

G28 ;Home

G92 E0 ;Reset Extruder
G1 Z2.0 F3000 ;Move Z Axis up
G1 X10.1 Y20 Z0.28 F5000.0 ;Move to start position
G1 X10.1 Y200.0 Z0.28 F1500.0 E15 ;Draw the first line
G1 X10.4 Y200.0 Z0.28 F5000.0 ;Move to side a little
G1 X10.4 Y20 Z0.28 F1500.0 E30 ;Draw the second line
G92 E0 ;Reset Extruder
G1 Z2.0 F3000 ;Move Z Axis up

G92 E0
G92 E0
G1 F1500 E-5.5
;LAYER_COUNT:114
;LAYER:0
M107
G0 F6000 X142.815 Y141.832 Z0.2
;TYPE:SKIRT
G1 F1500 E0
G1 F1200 X143.159 Y141.485 E0.01706
G1 X143.16 Y141.486 E0.01711
G1 X143.219 Y141.425 E0.02008
G1 X143.683 Y140.977 E0.0426
G1 X144.106 Y140.624 E0.06184
G1 X144.575 Y140.336 E0.08106
G1 X144.885 Y140.193 E0.09299
G1 X145.125 Y140.095 E0.10204
G1 X145.631 Y139.929 E0.12064
G1 X145.779 Y139.891 E0.12597
G1 X146.579 Y139.676 E0.1549
G1 X146.679 Y139.657 E0.15846
G1 X146.678 Y139.652 E0.15864
G1 X146.981 Y139.579 E0.16952
G1 X146.985 Y139.577 E0.16968
G1 X147.146 Y139.541 E0.17544
G1 X147.518 Y139.465 E0.1887
G1 X147.629 Y139.454 E0.19259
G1 X147.627 Y139.445 E0.19292
G1 X148.038 Y139.373 E0.20749
G1 X148.038 Y139.375 E0.20756
G1 X148.193 Y139.349 E0.21305
G1 X148.61 Y139.293 E0.22774
G1 X148.775 Y139.282 E0.23351
G1 X148.774 Y139.275 E0.23376
G1 X149.203 Y139.236 E0.24881
G1 X149.203 Y139.239 E0.24891
G1 X149.461 Y139.22 E0.25794
G1 X149.998 Y139.208 E0.2767
G1 X150.089 Y139.209 E0.27988
G1 X150.53 Y139.219 E0.29529
G1 X150.788 Y139.234 E0.30431
G1 X151.39 Y139.292 E0.32543
G1 X151.981 Y139.375 E0.34627
G1 X152.408 Y139.452 E0.36143
G1 X152.408 Y139.455 E0.36153
G1 X152.537 Y139.476 E0.3661
G1 X153.087 Y139.596 E0.38576
G1 X153.419 Y139.677 E0.39769
G1 X153.418 Y139.681 E0.39783
G1 X153.514 Y139.701 E0.40126
G1 X154.458 Y139.957 E0.43542
G1 X154.799 Y140.068 E0.44794
G1 X154.996 Y140.142 E0.45529
G1 X155.497 Y140.372 E0.47454
G1 X155.958 Y140.673 E0.49377
G1 X156.234 Y140.904 E0.50634
G1 X156.449 Y141.102 E0.51655
G1 X156.447 Y141.105 E0.51667
G1 X156.573 Y141.219 E0.52261
G1 X157.237 Y141.886 E0.55548
G1 X157.286 Y141.944 E0.55813
G1 X157.289 Y141.941 E0.55828
G1 X157.525 Y142.187 E0.57018
G1 X157.618 Y142.299 E0.57526
G1 X157.623 Y142.295 E0.57549
G1 X157.877 Y142.58 E0.58882
G1 X157.87 Y142.586 E0.58914
G1 X157.97 Y142.686 E0.59408
G1 X158.303 Y143.092 E0.61242
G1 X158.304 Y143.091 E0.61247
G1 X158.605 Y143.479 E0.62962
G1 X158.674 Y143.574 E0.63372
G1 X158.922 Y143.926 E0.64876
G1 X159.034 Y144.102 E0.65604
G1 X159.037 Y144.1 E0.65617
G1 X159.274 Y144.477 E0.67172
G1 X159.43 Y144.756 E0.68288
G1 X159.431 Y144.755 E0.68293
G1 X159.669 Y145.201 E0.70059
G1 X159.724 Y145.315 E0.70501
G1 X159.901 Y145.699 E0.71977
G1 X159.899 Y145.7 E0.71985
G1 X159.965 Y145.845 E0.72541
G1 X160.13 Y146.245 E0.74053
G1 X160.2 Y146.428 E0.74737
G1 X160.37 Y146.907 E0.76512
G1 X160.361 Y146.91 E0.76545
G1 X160.426 Y147.073 E0.77158
G1 X160.634 Y147.755 E0.79648
G1 X160.656 Y147.853 E0.79999
G1 X160.66 Y147.852 E0.80013
G1 X160.788 Y148.313 E0.81684
G1 X160.787 Y148.313 E0.81687
G1 X160.818 Y148.419 E0.82073
G1 X160.972 Y149.038 E0.84301
G1 X161.08 Y149.774 E0.86899
G1 X161.082 Y149.816 E0.87046
G1 X161.068 Y150.367 E0.8897
G1 X161.026 Y150.672 E0.90046
G1 X160.989 Y150.877 E0.90773
G1 X160.899 Y151.266 E0.92167
G1 X160.888 Y151.309 E0.92322
G1 X160.62 Y152.294 E0.95887
G1 X160.622 Y152.294 E0.95894
G1 X160.55 Y152.538 E0.96783
G1 X160.549 Y152.538 E0.96786
G1 X160.508 Y152.684 E0.97316
G1 X160.292 Y153.323 E0.99672
G1 X160.254 Y153.414 E1.00016
G1 X160.257 Y153.415 E1.00027
G1 X160.186 Y153.609 E1.00749
G1 X160.184 Y153.608 E1.00756
G1 X160.129 Y153.756 E1.01308
G1 X159.966 Y154.151 E1.028
G1 X159.965 Y154.15 E1.02805
G1 X159.903 Y154.295 E1.03356
G1 X159.723 Y154.686 E1.04859
G1 X159.617 Y154.875 E1.05616
G1 X159.626 Y154.88 E1.05652
G1 X159.415 Y155.278 E1.07225
G1 X159.316 Y155.453 E1.07927
G1 X159.274 Y155.522 E1.08209
G1 X158.94 Y156.047 E1.10382
G1 X158.614 Y156.51 E1.1236
G1 X158.313 Y156.899 E1.14077
G1 X158.309 Y156.896 E1.14095
G1 X158.214 Y157.021 E1.14643
G1 X157.908 Y157.384 E1.16301
G1 X157.811 Y157.484 E1.16788
G1 X157.816 Y157.488 E1.1681
G1 X157.503 Y157.829 E1.18427
G1 X157.504 Y157.83 E1.18432
G1 X157.076 Y158.277 E1.20593
G1 X157.071 Y158.272 E1.20618
G1 X156.987 Y158.367 E1.2106
G1 X156.344 Y158.997 E1.24204
G1 X155.924 Y159.353 E1.26127
G1 X155.304 Y159.721 E1.28645
G1 X155.149 Y159.794 E1.29243
G1 X154.552 Y160.016 E1.31468
G1 X154.355 Y160.071 E1.32182
G1 X154.323 Y160.081 E1.32299
G1 X153.734 Y160.241 E1.34431
G1 X153.732 Y160.235 E1.34453
G1 X153.662 Y160.261 E1.34713
G1 X153.365 Y160.336 E1.35783
G1 X153.005 Y160.423 E1.37077
G1 X152.989 Y160.427 E1.37134
G1 X152.975 Y160.43 E1.37184
G1 X152.366 Y160.553 E1.39354
G1 X152.267 Y160.563 E1.39701
G1 X152.268 Y160.571 E1.3973
G1 X151.845 Y160.643 E1.41228
G1 X151.718 Y160.654 E1.41673
G1 X151.719 Y160.662 E1.41701
G1 X151.42 Y160.703 E1.42755
G1 X151.413 Y160.704 E1.4278
G1 X151.196 Y160.729 E1.43543
G1 X150.77 Y160.765 E1.45036
G1 X150.584 Y160.773 E1.45686
G1 X150.584 Y160.776 E1.45697
G1 X150.004 Y160.794 E1.47723
G1 X149.869 Y160.792 E1.48195
G1 X149.423 Y160.777 E1.49753
G1 X149.423 Y160.774 E1.49764
G1 X149.226 Y160.765 E1.50452
G1 X148.606 Y160.708 E1.52627
G1 X148.074 Y160.633 E1.54503
G1 X147.994 Y160.62 E1.54786
G1 X147.438 Y160.518 E1.5676
G1 X147.124 Y160.452 E1.57881
G1 X147.125 Y160.448 E1.57895
G1 X146.991 Y160.422 E1.58372
G1 X146.206 Y160.223 E1.612
G1 X146.205 Y160.225 E1.61208
G1 X145.372 Y159.989 E1.64231
G1 X145.172 Y159.923 E1.64967
G1 X144.663 Y159.712 E1.66891
G1 X144.063 Y159.339 E1.69358
G1 X143.992 Y159.285 E1.6967
G1 X143.703 Y159.041 E1.70991
G1 X143.529 Y158.879 E1.71821
G1 X143.431 Y158.77 E1.72333
G1 X143.424 Y158.777 E1.72368
G1 X142.764 Y158.115 E1.75632
G1 X142.769 Y158.11 E1.75657
G1 X142.699 Y158.049 E1.75981
G1 X142.45 Y157.787 E1.77243
G1 X142.451 Y157.786 E1.77248
G1 X142.34 Y157.666 E1.77819
G1 X141.971 Y157.237 E1.79795
G1 X141.969 Y157.239 E1.79805
G1 X141.691 Y156.9 E1.81336
G1 X141.695 Y156.897 E1.81354
G1 X141.623 Y156.816 E1.81732
G1 X141.389 Y156.513 E1.83069
G1 X141.322 Y156.421 E1.83467
G1 X141.077 Y156.074 E1.8495
G1 X140.964 Y155.885 E1.85719
G1 X140.955 Y155.89 E1.85755
G1 X140.716 Y155.507 E1.87332
G1 X140.594 Y155.266 E1.88275
G1 X140.582 Y155.272 E1.88322
G1 X140.333 Y154.801 E1.90183
G1 X140.286 Y154.704 E1.90559
G1 X140.102 Y154.31 E1.92078
G1 X140.104 Y154.309 E1.92085
G1 X140.026 Y154.138 E1.92742
G1 X139.816 Y153.613 E1.94717
G1 X139.62 Y153.063 E1.96756
G1 X139.595 Y152.987 E1.97035
G1 X139.381 Y152.299 E1.99551
G1 X139.382 Y152.299 E1.99555
G1 X139.282 Y151.951 E2.00819
G1 X139.284 Y151.95 E2.00827
G1 X139.254 Y151.847 E2.01202
G1 X139.029 Y150.957 E2.04408
G1 X138.933 Y150.415 E2.0633
G1 X138.914 Y150.109 E2.07401
G1 X138.913 Y150.063 E2.07561
G1 X138.941 Y149.512 E2.09488
G1 X138.987 Y149.229 E2.10489
G1 X139.035 Y148.991 E2.11337
G1 X139.101 Y148.755 E2.12193
G1 X139.096 Y148.754 E2.12211
G1 X139.326 Y147.895 E2.15317
G1 X139.329 Y147.896 E2.15328
G1 X139.358 Y147.766 E2.15793
G1 X139.487 Y147.342 E2.1734
G1 X139.522 Y147.25 E2.17684
G1 X139.518 Y147.249 E2.17699
G1 X139.662 Y146.814 E2.19299
G1 X139.665 Y146.803 E2.19339
G1 X139.714 Y146.665 E2.1985
G1 X139.895 Y146.188 E2.21632
G1 X140.088 Y145.728 E2.23374
G1 X140.093 Y145.73 E2.23393
G1 X140.153 Y145.581 E2.23954
G1 X140.336 Y145.194 E2.25449
G1 X140.389 Y145.091 E2.25853
G1 X140.621 Y144.659 E2.27566
G1 X140.711 Y144.502 E2.28198
G1 X140.947 Y144.122 E2.2976
G1 X140.954 Y144.127 E2.2979
G1 X141.065 Y143.941 E2.30546
G1 X141.385 Y143.49 E2.32478
G1 X141.425 Y143.437 E2.3271
G1 X141.691 Y143.094 E2.34225
G1 X141.694 Y143.096 E2.34238
G1 X141.804 Y142.954 E2.34865
G1 X142.133 Y142.568 E2.36637
G1 X142.252 Y142.453 E2.37214
G1 X142.243 Y142.445 E2.37257
G1 X142.269 Y142.417 E2.3739
G0 F1080 X142.815 Y141.832
G0 F6000 X143.099 Y142.113
G1 F1200 X143.443 Y141.766 E2.39096
G1 X143.447 Y141.77 E2.39116
G1 X143.496 Y141.713 E2.39379
G1 X143.96 Y141.265 E2.41631
G1 X144.362 Y140.933 E2.43452
G1 X145.037 Y140.563 E2.4614
G1 X145.277 Y140.465 E2.47045
G1 X145.729 Y140.317 E2.48706
G1 X145.863 Y140.283 E2.49189
G1 X146.683 Y140.062 E2.52155
G1 X146.773 Y140.045 E2.52475
G1 X146.772 Y140.041 E2.52489
G1 X147.226 Y139.933 E2.54119
G1 X147.598 Y139.857 E2.55445
G1 X147.697 Y139.847 E2.55793
G1 X147.696 Y139.839 E2.55821
G1 X148.107 Y139.767 E2.57278
G1 X148.107 Y139.768 E2.57281
G1 X148.246 Y139.745 E2.57773
G1 X148.663 Y139.689 E2.59243
G1 X148.811 Y139.679 E2.59761
G1 X148.81 Y139.673 E2.59782
G1 X149.239 Y139.634 E2.61287
G1 X149.239 Y139.637 E2.61297
G1 X149.471 Y139.62 E2.62109
G1 X149.998 Y139.608 E2.6395
G1 X150.521 Y139.619 E2.65777
G1 X150.752 Y139.632 E2.66585
G1 X151.337 Y139.688 E2.68638
G1 X151.91 Y139.769 E2.70659
G1 X152.337 Y139.846 E2.72174
G1 X152.335 Y139.855 E2.72206
G1 X152.452 Y139.867 E2.72617
G1 X152.992 Y139.985 E2.74547
G1 X153.324 Y140.066 E2.75741
G1 X153.323 Y140.07 E2.75755
G1 X153.409 Y140.088 E2.76062
G1 X154.353 Y140.344 E2.79478
G1 X154.659 Y140.442 E2.806
G1 X154.856 Y140.516 E2.81335
G1 X155.328 Y140.736 E2.83153
G1 X155.761 Y141.026 E2.84973
G1 X155.963 Y141.198 E2.859
G1 X156.178 Y141.396 E2.86921
G1 X156.177 Y141.398 E2.86928
G1 X156.29 Y141.501 E2.87462
G1 X156.999 Y142.22 E2.90989
G1 X157.001 Y142.218 E2.90999
G1 X157.237 Y142.464 E2.92189
G1 X157.316 Y142.568 E2.92645
G1 X157.324 Y142.561 E2.92682
G1 X157.578 Y142.846 E2.94016
G1 X157.572 Y142.851 E2.94043
G1 X157.662 Y142.941 E2.94487
G1 X157.987 Y143.337 E2.96277
G1 X157.988 Y143.336 E2.96281
G1 X158.285 Y143.719 E2.97974
G1 X158.595 Y144.157 E2.99848
G1 X158.695 Y144.314 E3.00498
G1 X158.698 Y144.312 E3.00511
G1 X158.935 Y144.689 E3.02066
G1 X159.078 Y144.945 E3.0309
G1 X159.079 Y144.944 E3.03095
G1 X159.311 Y145.379 E3.04817
G1 X159.361 Y145.483 E3.0522
G1 X159.538 Y145.867 E3.06696
G1 X159.536 Y145.868 E3.06704
G1 X159.595 Y145.997 E3.07199
G1 X159.76 Y146.397 E3.08711
G1 X159.823 Y146.562 E3.09327
G1 X159.993 Y147.041 E3.11102
G1 X159.985 Y147.044 E3.11132
G1 X160.043 Y147.19 E3.11681
G1 X160.251 Y147.872 E3.14171
G1 X160.271 Y147.96 E3.14486
G1 X160.275 Y147.959 E3.145
G1 X160.403 Y148.42 E3.16171
G1 X160.395 Y148.422 E3.162
G1 X160.429 Y148.515 E3.16546
G1 X160.583 Y149.134 E3.18774
G1 X160.68 Y149.793 E3.211
G1 X160.682 Y149.835 E3.21247
G1 X160.632 Y150.601 E3.23927
G1 X160.595 Y150.806 E3.24655
G1 X160.512 Y151.167 E3.25949
G1 X160.501 Y151.205 E3.26087
G1 X160.237 Y152.181 E3.29618
G1 X160.238 Y152.181 E3.29621
G1 X160.166 Y152.425 E3.3051
G1 X160.159 Y152.423 E3.30535
G1 X160.129 Y152.556 E3.31011
G1 X159.913 Y153.195 E3.33367
G1 X159.878 Y153.277 E3.33678
G1 X159.881 Y153.278 E3.33689
G1 X159.81 Y153.472 E3.34411
G1 X159.808 Y153.471 E3.34419
G1 X159.759 Y153.603 E3.3491
G1 X159.539 Y154.128 E3.36898
G1 X159.359 Y154.519 E3.38401
G1 X159.264 Y154.688 E3.39078
G1 X159.273 Y154.693 E3.39114
G1 X159.062 Y155.091 E3.40688
G1 X158.973 Y155.247 E3.41315
G1 X158.936 Y155.309 E3.41567
G1 X158.612 Y155.818 E3.43674
G1 X158.294 Y156.27 E3.45604
G1 X158.257 Y156.319 E3.45819
G1 X157.997 Y156.654 E3.473
G1 X157.993 Y156.651 E3.47317
G1 X157.909 Y156.763 E3.47806
G1 X157.603 Y157.126 E3.49464
G1 X157.515 Y157.215 E3.49901
G1 X157.519 Y157.219 E3.49921
G1 X157.214 Y157.552 E3.51498
G1 X157.215 Y157.553 E3.51503
G1 X156.787 Y158 E3.53664
G1 X156.783 Y157.996 E3.53684
G1 X156.707 Y158.082 E3.54085
G1 X156.064 Y158.712 E3.57228
G1 X155.665 Y159.047 E3.59048
G1 X155.134 Y159.359 E3.61199
G1 X154.979 Y159.432 E3.61797
G1 X154.444 Y159.631 E3.63791
G1 X154.247 Y159.686 E3.64505
G1 X154.218 Y159.695 E3.64611
G1 X153.629 Y159.855 E3.66742
G1 X153.628 Y159.85 E3.6676
G1 X153.564 Y159.874 E3.66999
G1 X153.267 Y159.949 E3.68069
G1 X153.229 Y159.957 E3.68204
G1 X152.881 Y160.041 E3.69454
G1 X152.881 Y160.04 E3.69458
G1 X152.736 Y160.073 E3.69977
G1 X152.289 Y160.161 E3.71568
G1 X152.2 Y160.17 E3.71881
G1 X152.201 Y160.177 E3.71905
G1 X151.778 Y160.249 E3.73404
G1 X151.664 Y160.259 E3.73804
G1 X151.665 Y160.266 E3.73828
G1 X151.162 Y160.33 E3.75599
G1 X150.736 Y160.366 E3.77092
G1 X150.57 Y160.373 E3.77672
G1 X150.57 Y160.376 E3.77683
G1 X150.004 Y160.394 E3.7966
G1 X149.883 Y160.392 E3.80083
G1 X149.437 Y160.377 E3.81642
G1 X149.437 Y160.374 E3.81652
G1 X149.26 Y160.367 E3.82271
G1 X148.835 Y160.331 E3.8376
G1 X148.66 Y160.311 E3.84375
G1 X148.065 Y160.226 E3.86474
G1 X147.521 Y160.126 E3.88406
G1 X147.207 Y160.06 E3.89527
G1 X147.208 Y160.057 E3.89538
G1 X147.087 Y160.033 E3.89968
G1 X146.313 Y159.838 E3.92756
G1 X146.312 Y159.84 E3.92764
G1 X145.498 Y159.609 E3.95719
G1 X145.298 Y159.543 E3.96454
G1 X144.817 Y159.342 E3.98275
G1 X144.305 Y159.02 E4.00387
G1 X144.234 Y158.966 E4.00699
G1 X143.975 Y158.748 E4.01881
G1 X143.801 Y158.586 E4.02711
G1 X143.713 Y158.489 E4.03169
G1 X143.707 Y158.495 E4.03198
G1 X143.047 Y157.833 E4.06463
G1 X143.052 Y157.828 E4.06487
G1 X142.988 Y157.773 E4.06782
G1 X142.739 Y157.511 E4.08044
G1 X142.741 Y157.51 E4.08052
G1 X142.641 Y157.403 E4.08564
G1 X142.28 Y156.984 E4.10495
G1 X142.278 Y156.985 E4.10503
G1 X142 Y156.646 E4.12034
G1 X142.003 Y156.643 E4.12049
G1 X141.939 Y156.571 E4.12385
G1 X141.649 Y156.19 E4.14057
G1 X141.404 Y155.843 E4.15541
G1 X141.302 Y155.673 E4.16233
G1 X141.295 Y155.678 E4.16263
G1 X141.056 Y155.295 E4.1784
G1 X140.946 Y155.078 E4.1869
G1 X140.935 Y155.084 E4.18733
G1 X140.691 Y154.623 E4.20555
G1 X140.648 Y154.535 E4.20897
G1 X140.464 Y154.141 E4.22416
G1 X140.466 Y154.14 E4.22423
G1 X140.396 Y153.986 E4.23014
G1 X140.192 Y153.478 E4.24926
G1 X139.999 Y152.936 E4.26935
G1 X139.977 Y152.868 E4.27185
G1 X139.763 Y152.18 E4.29701
G1 X139.764 Y152.18 E4.29705
G1 X139.737 Y152.091 E4.30029
G1 X139.667 Y151.843 E4.30929
G1 X139.669 Y151.842 E4.30937
G1 X139.642 Y151.749 E4.31275
G1 X139.417 Y150.859 E4.34481
G1 X139.314 Y150.1 E4.37156
G1 X139.313 Y150.054 E4.37317
G1 X139.379 Y149.308 E4.39932
G1 X139.427 Y149.07 E4.4078
G1 X139.487 Y148.859 E4.41546
G1 X139.483 Y148.858 E4.41561
G1 X139.74 Y147.882 E4.45085
G1 X139.869 Y147.458 E4.46633
G1 X139.901 Y147.376 E4.46941
G1 X139.897 Y147.375 E4.46955
G1 X140.041 Y146.94 E4.48555
G1 X140.044 Y146.93 E4.48592
G1 X140.088 Y146.806 E4.49051
G1 X140.266 Y146.336 E4.50806
G1 X140.456 Y145.883 E4.52522
G1 X140.461 Y145.885 E4.52541
G1 X140.515 Y145.751 E4.53045
G1 X140.694 Y145.372 E4.54509
G1 X140.742 Y145.28 E4.54871
G1 X141.054 Y144.708 E4.57147
G1 X141.086 Y144.654 E4.57366
G1 X141.286 Y144.333 E4.58687
G1 X141.293 Y144.338 E4.58717
G1 X141.393 Y144.171 E4.59397
G1 X141.741 Y143.682 E4.61493
G1 X142.007 Y143.339 E4.63009
G1 X142.009 Y143.341 E4.63018
G1 X142.108 Y143.213 E4.63584
G1 X142.437 Y142.827 E4.65355
G1 X142.544 Y142.723 E4.65876
G1 X142.537 Y142.717 E4.65908
G1 X142.555 Y142.698 E4.66
G0 F1080 X143.099 Y142.113
G0 F6000 X143.383 Y142.395
G1 F1200 X143.727 Y142.048 E4.67706
G1 X143.73 Y142.051 E4.67721
G1 X143.774 Y142.001 E4.67953
G1 X144.238 Y141.553 E4.70206
G1 X144.617 Y141.243 E4.71916
G1 X145.188 Y140.934 E4.74183
G1 X145.428 Y140.836 E4.75089
G1 X145.827 Y140.704 E4.76556
G1 X145.989 Y140.663 E4.7714
G1 X146.787 Y140.448 E4.80026
G1 X146.867 Y140.433 E4.8031
G1 X146.866 Y140.429 E4.80325
G1 X147.196 Y140.349 E4.81511
G1 X147.196 Y140.35 E4.81514
G1 X147.307 Y140.325 E4.81911
G1 X147.679 Y140.249 E4.83237
G1 X147.766 Y140.24 E4.83543
G1 X147.765 Y140.233 E4.83568
G1 X148.176 Y140.161 E4.85025
G1 X148.176 Y140.162 E4.85028
G1 X148.3 Y140.142 E4.85467
G1 X148.717 Y140.086 E4.86936
G1 X148.847 Y140.077 E4.87391
