;FLAVOR:Marlin
M117 Time Left 1h40m54s
;Filament used: 3.77152m
;Layer height: 0.2
;MINX:137.019
;MINY:58.719
;MINZ:0.2
;MAXX:162.986
;MAXY:239.601
;MAXZ:9.2
;POSTPROCESSED
;Generated with Cura_SteamEngine 4.6.0
M140 S58
M105
M190 S58
M104 S195
M105
M109 S195
M82 ;absolute extrusion mode
M201 X500.00 Y500.00 Z100.00 E5000.00 ;Setup machine max acceleration
M203 X500.00 Y500.00 Z10.00 E50.00 ;Setup machine max feedrate
M204 P500.00 R1000.00 T500.00 ;Setup Print/Retract/Travel acceleration
M205 X8.00 Y8.00 Z0.40 E5.00 ;Setup Jerk
M220 S100 ;Reset Feedrate
M221 S100 ;Reset Flowrate

G28 ;Home

G92 E0 ;Reset Extruder
G1 Z2.0 F3000 ;Move Z Axis up
G1 X10.1 Y20 Z0.28 F5000.0 ;Move to start position
G1 X10.1 Y200.0 Z0.28 F1500.0 E15 ;Draw the first line
G1 X10.4 Y200.0 Z0.28 F5000.0 ;Move to side a little
G1 X10.4 Y20 Z0.28 F1500.0 E30 ;Draw the second line
G92 E0 ;Reset Extruder
G1 Z2.0 F3000 ;Move Z Axis up

G92 E0
G92 E0
G1 F1500 E-5.5
;LAYER_COUNT:46
;LAYER:0
M107
G0 F6000 X145.495 Y61.033 Z0.2
;TYPE:SKIRT
G1 F1500 E0
G1 F1200 X145.763 Y60.552 E0.01923
G1 X146.253 Y59.949 E0.04636
G1 X146.37 Y59.832 E0.05214
G1 X146.787 Y59.472 E0.07138
G1 X147.251 Y59.175 E0.09062
G1 X147.754 Y58.949 E0.10988
G1 X148.284 Y58.798 E0.12913
G1 X149.057 Y58.719 E0.15626
G1 X151.202 Y58.719 E0.23117
G1 X151.752 Y58.759 E0.25043
G1 X152.29 Y58.878 E0.26967
G1 X152.805 Y59.074 E0.28892
G1 X153.286 Y59.342 E0.30815
G1 X153.889 Y59.832 E0.33528
G1 X154.006 Y59.949 E0.34106
G1 X154.366 Y60.366 E0.3603
G1 X154.663 Y60.83 E0.37954
G1 X154.889 Y61.333 E0.3988
G1 X155.04 Y61.863 E0.41804
G1 X155.119 Y62.636 E0.44518
G1 X155.119 Y85.922 E1.2584
G1 X155.178 Y86.02 E1.26239
G1 X155.391 Y86.528 E1.28163
G1 X155.528 Y87.061 E1.30085
G1 X155.587 Y87.608 E1.32006
G1 X155.623 Y88.652 E1.35655
G1 X155.809 Y89.071 E1.37255
G1 X155.899 Y89.356 E1.38299
G1 X155.994 Y89.72 E1.39613
G1 X156.081 Y90.104 E1.40988
G1 X156.164 Y90.649 E1.42913
G1 X156.168 Y91.2 E1.44838
G1 X156.092 Y91.745 E1.46759
G1 X156.06 Y91.869 E1.47207
G1 X156.04 Y92.143 E1.48166
G1 X156.038 Y92.152 E1.48198
G1 X156.024 Y92.583 E1.49704
G1 X155.987 Y92.797 E1.50463
G1 X156.202 Y93.275 E1.52293
G1 X156.353 Y93.805 E1.54218
G1 X156.425 Y94.352 E1.56144
G1 X156.418 Y94.903 E1.58069
G1 X156.331 Y95.447 E1.59993
G1 X156.318 Y95.491 E1.60153
G1 X156.422 Y95.648 E1.60811
G1 X156.684 Y96.132 E1.62733
G1 X156.873 Y96.65 E1.64658
G1 X157.01 Y97.449 E1.6749
G1 X157.021 Y97.622 E1.68095
G1 X157.029 Y97.863 E1.68937
G1 X157.025 Y101.652 E1.82169
G1 X157.016 Y101.858 E1.82889
G1 X156.952 Y102.405 E1.84813
G1 X156.81 Y102.937 E1.86736
G1 X156.592 Y103.444 E1.88663
G1 X156.388 Y103.79 E1.90066
G1 X156.29 Y103.938 E1.90686
G1 X155.954 Y104.374 E1.92608
G1 X155.557 Y104.757 E1.94535
G1 X155.11 Y105.079 E1.96458
G1 X154.941 Y105.166 E1.97122
G1 X154.941 Y151.905 E3.6035
G1 X155.107 Y152.18 E3.61471
G1 X155.32 Y152.688 E3.63395
G1 X155.391 Y152.963 E3.64387
G1 X155.486 Y153.135 E3.65073
G1 X155.632 Y153.499 E3.66443
G1 X155.74 Y153.815 E3.67609
G1 X155.88 Y154.348 E3.69534
G1 X155.911 Y154.566 E3.70303
G1 X156.176 Y154.874 E3.71722
G1 X156.31 Y155.061 E3.72525
G1 X156.597 Y155.531 E3.74448
G1 X156.814 Y156.037 E3.76371
G1 X156.955 Y156.57 E3.78296
G1 X157.019 Y157.152 E3.80341
G1 X157.025 Y157.398 E3.81201
G1 X157.033 Y178.358 E4.54399
G1 X156.993 Y178.907 E4.56322
G1 X156.874 Y179.445 E4.58246
G1 X156.815 Y179.602 E4.58832
G1 X156.844 Y222.694 E6.09323
G1 X156.86 Y229.811 E6.34178
G1 X156.82 Y230.361 E6.36103
G1 X156.701 Y230.899 E6.38028
G1 X156.505 Y231.414 E6.39952
G1 X156.349 Y231.692 E6.41065
G1 X156.357 Y232.261 E6.43053
G1 X156.325 Y232.811 E6.44977
G1 X156.214 Y233.351 E6.46902
G1 X156.026 Y233.869 E6.48826
G1 X155.765 Y234.354 E6.5075
G1 X155.436 Y234.797 E6.52677
G1 X155.047 Y235.187 E6.54601
G1 X154.606 Y235.517 E6.56524
G1 X154.122 Y235.78 E6.58448
G1 X153.605 Y235.97 E6.60372
G1 X153.166 Y236.068 E6.61942
G1 X152.969 Y236.1 E6.62639
G1 X152.42 Y236.149 E6.64564
G1 X151.87 Y236.117 E6.66488
G1 X151.33 Y236.007 E6.68413
G1 X150.812 Y235.82 E6.70336
G1 X150.327 Y235.559 E6.7226
G1 X150.055 Y235.358 E6.73441
G1 X150.031 Y235.379 E6.73552
G1 X149.571 Y235.683 E6.75478
G1 X149.072 Y235.918 E6.77404
G1 X148.545 Y236.078 E6.79327
G1 X148 Y236.16 E6.81252
G1 X147.566 Y236.168 E6.82768
G1 X147.354 Y236.16 E6.83509
G1 X146.806 Y236.1 E6.85434
G1 X146.273 Y235.96 E6.87359
G1 X145.766 Y235.746 E6.89281
G1 X145.295 Y235.46 E6.91205
G1 X144.87 Y235.109 E6.9313
G1 X144.5 Y234.7 E6.95056
G1 X144.194 Y234.242 E6.9698
G1 X143.957 Y233.744 E6.98906
G1 X143.794 Y233.218 E7.00829
G1 X143.71 Y232.674 E7.02751
G1 X143.698 Y232.266 E7.04177
G1 X143.712 Y231.702 E7.06147
G1 X143.656 Y231.613 E7.06514
G1 X143.432 Y231.109 E7.0844
G1 X143.283 Y230.579 E7.10363
G1 X143.208 Y229.936 E7.12624
G1 X143.203 Y229.714 E7.13399
G1 X143.227 Y218.511 E7.52524
G1 X143.176 Y218.38 E7.53015
G1 X143.052 Y217.843 E7.54939
G1 X143.007 Y217.258 E7.56988
G1 X143.029 Y163.378 E9.45154
G1 X143.029 Y163.371 E9.45179
G1 X143.043 Y157.266 E9.66499
G1 X143.084 Y156.717 E9.68422
G1 X143.204 Y156.179 E9.70347
G1 X143.509 Y155.452 E9.731
G1 X143.585 Y155.313 E9.73654
G1 X143.884 Y154.85 E9.75578
G1 X144.159 Y154.535 E9.77039
G1 X144.171 Y154.411 E9.77474
G1 X144.269 Y153.988 E9.7899
G1 X144.279 Y153.954 E9.79114
G1 X144.524 Y153.331 E9.81452
G1 X144.627 Y153.124 E9.82259
G1 X144.71 Y152.75 E9.83597
G1 X144.906 Y152.235 E9.85522
G1 X145.174 Y151.754 E9.87445
G1 X145.189 Y151.734 E9.87532
G1 X145.189 Y105.216 E11.49987
G1 X144.762 Y104.959 E11.51728
G1 X144.336 Y104.609 E11.53653
G1 X143.876 Y104.084 E11.56091
G1 X143.76 Y103.924 E11.56781
G1 X143.47 Y103.456 E11.58704
G1 X143.251 Y102.951 E11.60626
G1 X143.107 Y102.419 E11.62551
G1 X143.037 Y101.75 E11.649
G1 X143.034 Y101.548 E11.65606
G1 X143.036 Y97.798 E11.78702
G1 X143.044 Y97.56 E11.79533
G1 X143.103 Y97.012 E11.81458
G1 X143.24 Y96.479 E11.8338
G1 X143.452 Y95.97 E11.85306
G1 X143.72 Y95.522 E11.87129
G1 X143.738 Y95.497 E11.87237
G1 X143.672 Y95.233 E11.88187
G1 X143.617 Y94.684 E11.90114
G1 X143.643 Y94.134 E11.92037
G1 X143.747 Y93.593 E11.93961
G1 X143.929 Y93.073 E11.95885
G1 X144.083 Y92.778 E11.97047
G1 X144.083 Y92.738 E11.97186
G1 X144.046 Y92.526 E11.97938
G1 X144.035 Y92.122 E11.99349
G1 X144.017 Y92.03 E11.99677
G1 X144.009 Y91.846 E12.0032
G1 X143.927 Y91.449 E12.01736
G1 X143.894 Y90.898 E12.03663
G1 X143.973 Y90.175 E12.06203
G1 X144.054 Y89.785 E12.07594
G1 X144.136 Y89.463 E12.08755
G1 X144.213 Y89.207 E12.09689
G1 X144.41 Y88.693 E12.11611
G1 X144.443 Y88.633 E12.1185
G1 X144.486 Y87.42 E12.16089
G1 X144.545 Y86.872 E12.18014
G1 X144.683 Y86.339 E12.19936
G1 X144.897 Y85.831 E12.21862
G1 X145.14 Y85.427 E12.23508
G1 X145.14 Y62.636 E13.03101
G1 X145.18 Y62.086 E13.05027
G1 X145.246 Y61.791 E13.06083
G0 F1080 X145.299 Y61.548
G0 X145.495 Y61.033
G0 F6000 X145.894 Y61.126
G1 F1200 X146.16 Y60.678 E13.07902
G1 X146.536 Y60.232 E13.0994
G1 X146.653 Y60.115 E13.10518
G1 X147.049 Y59.776 E13.12338
G1 X147.491 Y59.501 E13.14156
G1 X147.971 Y59.297 E13.15977
G1 X148.476 Y59.169 E13.17797
G1 X149.057 Y59.119 E13.19833
G1 X151.202 Y59.119 E13.27324
G1 X151.722 Y59.159 E13.29146
G1 X152.229 Y59.278 E13.30964
G1 X152.712 Y59.473 E13.32784
G1 X153.16 Y59.739 E13.34603
G1 X153.606 Y60.115 E13.3664
G1 X153.723 Y60.232 E13.37218
G1 X154.062 Y60.628 E13.39039
G1 X154.337 Y61.07 E13.40857
G1 X154.541 Y61.55 E13.42678
G1 X154.669 Y62.055 E13.44497
G1 X154.719 Y62.636 E13.46534
G1 X154.719 Y86.021 E14.28202
G1 X154.748 Y86.064 E14.28383
G1 X154.969 Y86.536 E14.30203
G1 X155.116 Y87.036 E14.32023
G1 X155.187 Y87.622 E14.34085
G1 X155.226 Y88.742 E14.37998
G1 X155.233 Y88.756 E14.38053
G1 X155.513 Y89.461 E14.40702
G1 X155.604 Y89.808 E14.41955
G1 X155.691 Y90.193 E14.43333
G1 X155.767 Y90.708 E14.45151
G1 X155.764 Y91.23 E14.46974
G1 X155.67 Y91.723 E14.48727
G1 X155.643 Y92.075 E14.4996
G1 X155.643 Y92.076 E14.49964
G1 X155.619 Y92.597 E14.51785
G1 X155.579 Y92.816 E14.52562
G1 X155.576 Y92.895 E14.52838
G1 X155.676 Y93.063 E14.53521
G1 X155.872 Y93.546 E14.55342
G1 X155.991 Y94.053 E14.5716
G1 X156.032 Y94.573 E14.58982
G1 X155.993 Y95.092 E14.608
G1 X155.873 Y95.579 E14.62551
G1 X156.027 Y95.772 E14.63414
G1 X156.085 Y95.863 E14.6379
G1 X156.331 Y96.322 E14.65609
G1 X156.503 Y96.814 E14.67429
G1 X156.611 Y97.474 E14.69765
G1 X156.622 Y97.647 E14.7037
G1 X156.629 Y97.863 E14.71125
G1 X156.626 Y101.634 E14.84295
G1 X156.617 Y101.84 E14.85015
G1 X156.554 Y102.358 E14.86837
G1 X156.413 Y102.86 E14.88658
G1 X156.197 Y103.334 E14.90477
G1 X156.055 Y103.569 E14.91436
G1 X155.957 Y103.717 E14.92056
G1 X155.637 Y104.128 E14.93875
G1 X155.257 Y104.486 E14.95698
G1 X154.828 Y104.781 E14.97516
G1 X154.541 Y104.919 E14.98629
G1 X154.541 Y152.022 E16.63127
G1 X154.677 Y152.224 E16.63978
G1 X154.898 Y152.696 E16.65798
G1 X155.038 Y153.172 E16.6753
G1 X155.253 Y153.628 E16.69291
G1 X155.361 Y153.944 E16.70457
G1 X155.492 Y154.449 E16.72279
G1 X155.528 Y154.712 E16.73206
G1 X155.53 Y154.732 E16.73276
G1 X155.851 Y155.107 E16.75
G1 X155.985 Y155.294 E16.75804
G1 X156.255 Y155.739 E16.77622
G1 X156.454 Y156.221 E16.79443
G1 X156.577 Y156.727 E16.81261
G1 X156.619 Y157.165 E16.82798
G1 X156.625 Y157.398 E16.83612
G1 X156.633 Y178.358 E17.56811
G1 X156.593 Y178.877 E17.58629
G1 X156.475 Y179.385 E17.6045
G1 X156.415 Y179.535 E17.61014
G1 X156.444 Y222.695 E19.11743
G1 X156.46 Y229.811 E19.36594
G1 X156.42 Y230.331 E19.38415
G1 X156.301 Y230.838 E19.40234
G1 X156.106 Y231.321 E19.42053
G1 X155.947 Y231.596 E19.43162
G1 X155.957 Y232.267 E19.45506
G1 X155.924 Y232.787 E19.47326
G1 X155.813 Y233.296 E19.49145
G1 X155.625 Y233.783 E19.50968
G1 X155.365 Y234.234 E19.52786
G1 X155.039 Y234.641 E19.54607
G1 X154.655 Y234.993 E19.56426
G1 X154.221 Y235.282 E19.58247
G1 X153.748 Y235.501 E19.60068
G1 X153.102 Y235.673 E19.62402
G1 X152.905 Y235.705 E19.63099
G1 X152.386 Y235.749 E19.64918
G1 X151.866 Y235.713 E19.66739
G1 X151.358 Y235.598 E19.68558
G1 X150.873 Y235.407 E19.70378
G1 X150.423 Y235.143 E19.722
G1 X150.048 Y234.837 E19.7389
G1 X149.65 Y235.163 E19.75687
G1 X149.2 Y235.427 E19.77509
G1 X148.716 Y235.619 E19.79328
G1 X148.207 Y235.734 E19.8115
G1 X147.581 Y235.769 E19.8334
G1 X147.369 Y235.761 E19.8408
G1 X146.851 Y235.701 E19.85902
G1 X146.348 Y235.563 E19.87723
G1 X145.873 Y235.35 E19.89541
G1 X145.435 Y235.067 E19.91362
G1 X145.046 Y234.72 E19.93183
G1 X144.715 Y234.318 E19.95001
G1 X144.449 Y233.87 E19.96821
G1 X144.255 Y233.386 E19.98642
G1 X144.136 Y232.878 E20.00464
G1 X144.098 Y232.276 E20.02571
G1 X144.116 Y231.591 E20.04964
G1 X143.995 Y231.399 E20.05756
G1 X143.789 Y230.92 E20.07577
G1 X143.659 Y230.416 E20.09395
G1 X143.608 Y229.924 E20.11122
G1 X143.603 Y229.715 E20.11852
G1 X143.627 Y218.435 E20.51246
G1 X143.542 Y218.208 E20.52092
G1 X143.435 Y217.698 E20.53912
G1 X143.407 Y217.259 E20.55448
G1 X143.429 Y163.379 E22.43614
G1 X143.429 Y163.372 E22.43639
G1 X143.443 Y157.267 E22.64959
G1 X143.484 Y156.748 E22.66778
G1 X143.604 Y156.241 E22.68597
G1 X143.86 Y155.644 E22.70866
G1 X143.936 Y155.505 E22.71419
G1 X144.22 Y155.068 E22.73239
G1 X144.543 Y154.707 E22.74931
G1 X144.57 Y154.452 E22.75826
G1 X144.653 Y154.101 E22.77086
G1 X144.663 Y154.067 E22.7721
G1 X144.882 Y153.51 E22.793
G1 X145.003 Y153.267 E22.80248
G1 X145.11 Y152.811 E22.81883
G1 X145.305 Y152.328 E22.83703
G1 X145.571 Y151.88 E22.85522
G1 X145.589 Y151.858 E22.85621
G1 X145.589 Y104.957 E24.49414
G1 X145.34 Y104.847 E24.50365
G1 X144.901 Y104.565 E24.52187
G1 X144.511 Y104.22 E24.54006
G1 X144.2 Y103.85 E24.55694
G1 X144.084 Y103.69 E24.56384
G1 X143.812 Y103.246 E24.58202
G1 X143.61 Y102.765 E24.60024
G1 X143.484 Y102.259 E24.61845
G1 X143.437 Y101.744 E24.63651
G1 X143.434 Y101.542 E24.64357
G1 X143.436 Y97.812 E24.77383
G1 X143.444 Y97.574 E24.78215
G1 X143.501 Y97.056 E24.80035
G1 X143.637 Y96.553 E24.81854
G1 X143.848 Y96.076 E24.83676
G1 X144.049 Y95.75 E24.85013
G1 X144.117 Y95.652 E24.8543
G1 X144.17 Y95.587 E24.85723
G1 X144.057 Y95.109 E24.87438
G1 X144.016 Y94.589 E24.8926
G1 X144.055 Y94.069 E24.91081
G1 X144.173 Y93.562 E24.92899
G1 X144.367 Y93.078 E24.9472
G1 X144.482 Y92.884 E24.95508
G1 X144.483 Y92.706 E24.96129
G1 X144.441 Y92.458 E24.97008
G1 X144.436 Y92.085 E24.9831
G1 X144.411 Y91.954 E24.98776
G1 X144.405 Y91.784 E24.9937
G1 X144.32 Y91.368 E25.00853
G1 X144.295 Y90.847 E25.02675
G1 X144.365 Y90.257 E25.0475
G1 X144.446 Y89.867 E25.06141
G1 X144.519 Y89.579 E25.07178
G1 X144.596 Y89.323 E25.08112
G1 X144.784 Y88.837 E25.09932
G1 X144.84 Y88.739 E25.10326
G1 X144.886 Y87.434 E25.14886
G1 X144.944 Y86.916 E25.16706
G1 X145.081 Y86.413 E25.18527
G1 X145.293 Y85.937 E25.20347
G1 X145.54 Y85.553 E25.21941
G1 X145.54 Y62.636 E26.01975
G1 X145.58 Y62.116 E26.03796
G1 X145.635 Y61.882 E26.04636
G0 F1080 X145.699 Y61.609
G0 X145.894 Y61.126
G0 F6000 X146.293 Y61.224
G1 F1200 X146.558 Y60.812 E26.06346
G1 X146.819 Y60.515 E26.07727
G1 X146.936 Y60.398 E26.08305
G1 X147.309 Y60.081 E26.10014
G1 X147.729 Y59.829 E26.11725
G1 X148.184 Y59.649 E26.13434
G1 X148.662 Y59.545 E26.15142
G1 X149.057 Y59.519 E26.16525
G1 X151.202 Y59.519 E26.24016
G1 X151.69 Y59.559 E26.25726
G1 X152.165 Y59.678 E26.27436
G1 X152.614 Y59.872 E26.29144
G1 X153.026 Y60.137 E26.30855
G1 X153.323 Y60.398 E26.32235
G1 X153.44 Y60.515 E26.32813
G1 X153.757 Y60.888 E26.34523
G1 X154.009 Y61.308 E26.36233
G1 X154.189 Y61.763 E26.37942
G1 X154.293 Y62.241 E26.39651
G1 X154.319 Y62.636 E26.41033
G1 X154.319 Y86.13 E27.23081
G1 X154.332 Y86.147 E27.23156
G1 X154.557 Y86.582 E27.24867
G1 X154.708 Y87.047 E27.26574
G1 X154.787 Y87.635 E27.28646
G1 X154.829 Y88.854 E27.32906
G1 X154.864 Y88.914 E27.33148
G1 X154.88 Y88.944 E27.33267
G1 X155.127 Y89.567 E27.35607
G1 X155.214 Y89.896 E27.36796
G1 X155.301 Y90.282 E27.38178
G1 X155.37 Y90.766 E27.39885
G1 X155.36 Y91.256 E27.41597
G1 X155.272 Y91.693 E27.43153
G1 X155.24 Y92.08 E27.4451
G1 X155.244 Y92.118 E27.44643
G1 X155.215 Y92.607 E27.46354
G1 X155.183 Y92.773 E27.46944
G1 X155.17 Y92.988 E27.47696
G1 X155.369 Y93.349 E27.49136
G1 X155.532 Y93.81 E27.50844
G1 X155.618 Y94.292 E27.52553
G1 X155.625 Y94.781 E27.54261
G1 X155.552 Y95.265 E27.55971
G1 X155.471 Y95.545 E27.56989
G1 X155.433 Y95.657 E27.57402
G1 X155.69 Y95.987 E27.58862
G1 X155.748 Y96.078 E27.59239
G1 X155.976 Y96.51 E27.60945
G1 X156.131 Y96.975 E27.62657
G1 X156.212 Y97.5 E27.64512
G1 X156.223 Y97.673 E27.65118
G1 X156.229 Y97.863 E27.65781
G1 X156.226 Y101.617 E27.78892
G1 X156.217 Y101.823 E27.79612
G1 X156.156 Y102.309 E27.81322
G1 X156.017 Y102.778 E27.83031
G1 X155.721 Y103.348 E27.85274
G1 X155.623 Y103.496 E27.85893
G1 X155.321 Y103.881 E27.87602
G1 X154.96 Y104.211 E27.8931
G1 X154.549 Y104.479 E27.91024
G1 X154.141 Y104.658 E27.9258
G1 X154.141 Y152.146 E29.58423
G1 X154.261 Y152.307 E29.59124
G1 X154.486 Y152.742 E29.60835
G1 X154.637 Y153.207 E29.62542
G1 X154.641 Y153.243 E29.62668
G1 X154.875 Y153.758 E29.64644
G1 X154.983 Y154.074 E29.6581
G1 X155.13 Y154.751 E29.6823
G1 X155.146 Y154.913 E29.68798
G1 X155.211 Y154.968 E29.69095
G1 X155.526 Y155.34 E29.70798
G1 X155.66 Y155.527 E29.71601
G1 X155.911 Y155.946 E29.73307
G1 X156.091 Y156.402 E29.75019
G1 X156.195 Y156.88 E29.76727
G1 X156.219 Y157.178 E29.77771
G1 X156.225 Y157.398 E29.7854
G1 X156.233 Y178.358 E30.51739
G1 X156.193 Y178.846 E30.53449
G1 X156.075 Y179.321 E30.55158
G1 X156.015 Y179.46 E30.55687
G1 X156.044 Y222.696 E32.06681
G1 X156.06 Y229.811 E32.31529
G1 X156.02 Y230.299 E32.33238
G1 X155.901 Y230.774 E32.34949
G1 X155.707 Y231.223 E32.36657
G1 X155.554 Y231.478 E32.37695
G1 X155.544 Y231.493 E32.37758
G1 X155.547 Y231.59 E32.38097
G1 X155.557 Y232.273 E32.40483
G1 X155.524 Y232.761 E32.42191
G1 X155.412 Y233.238 E32.43902
G1 X155.224 Y233.69 E32.45612
G1 X154.966 Y234.106 E32.47321
G1 X154.643 Y234.473 E32.49028
G1 X154.264 Y234.784 E32.50741
G1 X153.84 Y235.029 E32.52451
G1 X153.382 Y235.201 E32.54159
G1 X153.038 Y235.278 E32.5539
G1 X152.841 Y235.31 E32.56087
G1 X152.353 Y235.349 E32.57797
G1 X151.865 Y235.308 E32.59507
