;FLAVOR:Marlin
M117 Time Left 6h03m20s
;Filament used: 18.2456m
;Layer height: 0.2
;MINX:79.7
;MINY:58.749
;MINZ:0.2
;MAXX:220.302
;MAXY:241.29
;MAXZ:95.8
;POSTPROCESSED
;Generated with Cura_SteamEngine 4.6.0
M140 S58
M105
M190 S58
M104 S195
M105
M109 S195
M82 ;absolute extrusion mode
M201 X500.00 Y500.00 Z100.00 E5000.00 ;Setup machine max acceleration
M203 X500.00 Y500.00 Z10.00 E50.00 ;Setup machine max feedrate
M204 P500.00 R1000.00 T500.00 ;Setup Print/Retract/Travel acceleration
M205 X8.00 Y8.00 Z0.40 E5.00 ;Setup Jerk
M220 S100 ;Reset Feedrate
M221 S100 ;Reset Flowrate

G28 ;Home

G92 E0 ;Reset Extruder
G1 Z2.0 F3000 ;Move Z Axis up
G1 X10.1 Y20 Z0.28 F5000.0 ;Move to start position
G1 X10.1 Y200.0 Z0.28 F1500.0 E15 ;Draw the first line
G1 X10.4 Y200.0 Z0.28 F5000.0 ;Move to side a little
G1 X10.4 Y20 Z0.28 F1500.0 E30 ;Draw the second line
G92 E0 ;Reset Extruder
G1 Z2.0 F3000 ;Move Z Axis up

G92 E0
G92 E0
G1 F1500 E-5.5
;LAYER_COUNT:479
;LAYER:0
M107
;MESH:26-stand.stl
G0 F6000 X157.326 Y238.884 Z0.2
;TYPE:WALL-INNER
G1 F1500 E0
G1 F1200 X150.007 Y240.47 E0.24908
G1 X149.998 Y240.469 E0.24938
G1 X142.568 Y238.992 E0.50134
G1 X138.459 Y174.08 E2.66464
G1 X138.448 Y173.813 E2.67353
G1 X138.449 Y173.537 E2.68271
G1 X138.441 Y172.927 E2.703
G1 X138.442 Y172.922 E2.70317
G1 X138.399 Y165.65 E2.94504
G1 X138.4 Y165.641 E2.94534
G1 X138.401 Y165.352 E2.95496
G1 X138.388 Y164.85 E2.97166
G1 X138.354 Y164.584 E2.98058
G1 X138.272 Y164.404 E2.98716
G1 X138.112 Y164.102 E2.99852
G1 X137.749 Y163.457 E3.02314
G1 X104.94 Y105.624 E5.23465
G1 X80.906 Y63.225 E6.85565
G1 X80.807 Y63.051 E6.86231
G1 X80.982 Y62.954 E6.8666
G1 X86.613 Y59.826 E7.08085
G1 X122.43 Y114.493 E9.25458
G1 X146.631 Y151.435 E10.72346
G1 X148.97 Y154.982 E10.86477
G1 X149.326 Y155.481 E10.88516
G1 X150.356 Y155.741 E10.92049
G1 X150.774 Y155.2 E10.94323
G1 X150.951 Y154.956 E10.95326
G1 X151.347 Y154.357 E10.97714
G1 X153.321 Y151.374 E11.09611
G1 X188.293 Y98.191 E13.21316
G1 X213.469 Y59.935 E14.73637
G1 X219.028 Y63.061 E14.94849
G1 X219.029 Y63.062 E14.94854
G1 X219.202 Y63.159 E14.95513
G1 X219.104 Y63.332 E14.9594
G1 X186.181 Y121.138 E17.172
G1 X161.706 Y164.116 E18.817
G1 X161.545 Y164.417 E18.82835
G1 X161.465 Y164.651 E18.83657
G1 X161.439 Y164.897 E18.8448
G1 X161.427 Y165.244 E18.85635
G1 X161.427 Y165.247 E18.85645
G1 X161.257 Y173.376 E19.12688
G1 X161.256 Y173.38 E19.12702
G1 X161.247 Y173.741 E19.13903
G1 X161.232 Y174.098 E19.15091
G1 X161.207 Y174.502 E19.16437
G1 X161.165 Y175.264 E19.18976
G1 X161.087 Y176.552 E19.23268
G1 X157.374 Y238.086 E21.28303
G0 F1080 X157.326 Y238.884
G0 F6000 X157.511 Y239.253
G1 F1200 X150.148 Y240.851 E21.53362
G1 X150.005 Y240.876 E21.53845
G1 X149.927 Y240.862 E21.54109
G1 X142.19 Y239.324 E21.80346
G1 X142.181 Y239.2 E21.80759
G1 X142.17 Y239.018 E21.81365
G1 X138.059 Y174.096 E23.97729
G1 X138.048 Y173.829 E23.98618
G1 X138.049 Y173.54 E23.99579
G1 X138.044 Y173.266 E24.00491
G1 X138.041 Y172.896 E24.01722
G1 X138.042 Y172.89 E24.01742
G1 X137.999 Y165.627 E24.25899
G1 X138 Y165.618 E24.25929
G1 X138.001 Y165.356 E24.26801
G1 X137.989 Y164.881 E24.28381
G1 X137.965 Y164.695 E24.29005
G1 X137.913 Y164.581 E24.29421
G1 X137.761 Y164.294 E24.30502
G1 X137.401 Y163.654 E24.32944
G1 X104.592 Y105.821 E26.54095
G1 X80.359 Y63.071 E28.17537
G1 X80.26 Y62.897 E28.18203
G1 X80.435 Y62.8 E28.18632
G1 X86.744 Y59.296 E28.42635
G1 X122.765 Y114.274 E30.61245
G1 X146.965 Y151.215 E32.08129
G1 X149.3 Y154.756 E32.22236
G1 X149.566 Y155.129 E32.2376
G1 X150.2 Y155.289 E32.25935
G1 X150.454 Y154.961 E32.27315
G1 X150.622 Y154.728 E32.2827
G1 X151.015 Y154.136 E32.30633
G1 X152.987 Y151.153 E32.42527
G1 X187.959 Y97.971 E34.54229
G1 X213.34 Y59.403 E36.07791
G1 X219.737 Y63.001 E36.32202
G1 X219.746 Y63.006 E36.32237
G1 X219.562 Y63.336 E36.33493
G1 X219.557 Y63.345 E36.33527
G1 X186.529 Y121.336 E38.55495
G1 X162.056 Y164.309 E40.19976
G1 X161.913 Y164.577 E40.20986
G1 X161.858 Y164.738 E40.21552
G1 X161.838 Y164.925 E40.22178
G1 X161.827 Y165.251 E40.23263
G1 X161.827 Y165.255 E40.23276
G1 X161.656 Y173.43 E40.50472
G1 X161.655 Y173.434 E40.50486
G1 X161.647 Y173.758 E40.51564
G1 X161.632 Y174.115 E40.52752
G1 X161.606 Y174.526 E40.54122
G1 X161.564 Y175.288 E40.5666
G1 X161.486 Y176.576 E40.60952
G1 X157.707 Y239.21 E42.69652
G1 X157.511 Y239.254 E42.7032
G1 X157.511 Y239.253
G0 F6000 X158.112 Y239.142
;TYPE:WALL-OUTER
G1 F1200 X158.113 Y239.142 E42.70324
G1 X158.084 Y239.535 E42.71634
G1 X157.596 Y239.644 E42.73298
G1 X150.228 Y241.243 E42.98374
G1 X150.016 Y241.28 E42.9909
G1 X149.925 Y241.269 E42.99395
G1 X149.924 Y241.27 E42.99399
G1 X149.847 Y241.254 E42.99661
G1 X142.067 Y239.707 E43.26044
G1 X141.815 Y239.65 E43.26903
G1 X141.81 Y239.617 E43.27014
G1 X141.782 Y239.229 E43.28308
G1 X137.661 Y174.133 E45.45252
G1 X137.66 Y174.125 E45.45279
G1 X137.648 Y173.846 E45.46207
G1 X137.647 Y173.522 E45.47285
G1 X137.648 Y173.515 E45.47309
G1 X137.643 Y173.247 E45.482
G1 X137.644 Y173.239 E45.48227
G1 X137.641 Y172.87 E45.49454
G1 X137.642 Y172.863 E45.49478
G1 X137.599 Y165.606 E45.73615
G1 X137.6 Y165.597 E45.73645
G1 X137.599 Y165.333 E45.74523
G1 X137.6 Y165.327 E45.74543
G1 X137.594 Y165.029 E45.75535
G1 X137.595 Y165.022 E45.75558
G1 X137.59 Y164.916 E45.75911
G1 X137.576 Y164.806 E45.7628
G1 X137.554 Y164.758 E45.76456
G1 X137.41 Y164.485 E45.77482
G1 X137.053 Y163.851 E45.79902
G1 X104.244 Y106.018 E48.01053
G1 X79.715 Y62.747 E49.66488
G1 X79.751 Y62.722 E49.66634
G1 X86.87 Y58.768 E49.93719
G1 X86.92 Y58.84 E49.94011
G1 X87.3 Y59.407 E49.96281
G1 X123.1 Y114.055 E52.1357
G1 X147.299 Y150.995 E53.60449
G1 X149.63 Y154.53 E53.74532
G1 X149.806 Y154.777 E53.75541
G1 X150.044 Y154.837 E53.76358
G1 X150.133 Y154.722 E53.76841
G1 X150.293 Y154.5 E53.77751
G1 X150.682 Y153.915 E53.80088
G1 X152.653 Y150.932 E53.9198
G1 X187.625 Y97.75 E56.03682
G1 X213.206 Y58.877 E57.58457
G1 X213.21 Y58.872 E57.58479
G1 X213.236 Y58.885 E57.58575
G1 X220.288 Y62.852 E57.85487
G1 X220.251 Y62.921 E57.85747
G1 X219.91 Y63.534 E57.8808
G1 X186.877 Y121.534 E60.10082
G1 X162.406 Y164.502 E61.74546
G1 X162.281 Y164.736 E61.75428
G1 X162.251 Y164.825 E61.75741
G1 X162.237 Y164.953 E61.76169
G1 X162.227 Y165.276 E61.77244
G1 X162.226 Y165.284 E61.77271
G1 X162.055 Y173.466 E62.0449
G1 X162.054 Y173.472 E62.0451
G1 X162.047 Y173.775 E62.05518
G1 X162.032 Y174.132 E62.06707
G1 X162.005 Y174.55 E62.081
G1 X161.963 Y175.312 E62.10638
G1 X161.888 Y176.564 E62.1481
G1 X161.889 Y176.564 E62.14813
G1 X161.885 Y176.607 E62.14957
G1 X158.16 Y238.344 E64.20668
G0 F1080 X158.112 Y239.142
G0 F6000 X158.113 Y239.142
G0 X158.084 Y239.535
G0 X158.08 Y239.536
G0 X157.675 Y239.089
G0 X156.954 Y238.566
;TYPE:SKIN
G1 F1200 X150.001 Y240.072 E64.4433
G1 X142.939 Y238.669 E64.68278
G1 X138.838 Y173.815 E66.84414
G1 X138.839 Y173.535 E66.85345
G1 X138.831 Y172.967 E66.87234
G1 X138.832 Y172.964 E66.87245
G1 X138.789 Y165.672 E67.11499
G1 X138.79 Y165.663 E67.11529
G1 X138.791 Y165.348 E67.12576
G1 X138.778 Y164.821 E67.1433
G1 X138.734 Y164.476 E67.15487
G1 X138.623 Y164.232 E67.16378
G1 X138.455 Y163.915 E67.17571
G1 X138.088 Y163.266 E67.20051
G1 X105.279 Y105.433 E69.41202
G1 X81.339 Y63.201 E71.02665
G1 X86.486 Y60.343 E71.22246
G1 X122.104 Y114.707 E73.38414
G1 X146.305 Y151.649 E74.85301
G1 X148.648 Y155.202 E74.99457
G1 X149.092 Y155.824 E75.01999
G1 X150.508 Y156.182 E75.06856
G1 X151.086 Y155.434 E75.10001
G1 X151.271 Y155.178 E75.11051
G1 X153.646 Y151.589 E75.25365
G1 X188.618 Y98.406 E77.3707
G1 X213.595 Y60.453 E78.88185
G1 X218.669 Y63.306 E79.07546
G1 X185.842 Y120.945 E81.28166
G1 X161.365 Y163.927 E82.9268
G1 X161.186 Y164.261 E82.9394
G1 X161.081 Y164.567 E82.95016
G1 X161.049 Y164.87 E82.96029
G1 X161.037 Y165.238 E82.97254
G1 X161.037 Y165.239 E82.97257
G1 X160.857 Y173.725 E83.25488
G1 X160.842 Y174.074 E83.2665
G1 X160.817 Y174.479 E83.28
G1 X160.775 Y175.241 E83.30538
G1 X160.697 Y176.529 E83.3483
G1 X157.002 Y237.768 E85.38882
G0 F1080 X156.954 Y238.566
G0 F6000 X157.233 Y238.583
G0 X157.156 Y238.739
G0 X150.004 Y240.296
G0 X142.738 Y238.844
G0 X142.624 Y238.125
G0 X143.063 Y238.098
G1 F1200 X143.601 Y238.636 E85.41413
G0 F6000 X144.307 Y238.776
G1 F1200 X143.025 Y237.494 E85.47443
G0 F6000 X142.986 Y236.89
G1 F1200 X145.013 Y238.917 E85.56977
G0 F6000 X145.719 Y239.057
G1 F1200 X142.948 Y236.286 E85.70011
G0 F6000 X142.91 Y235.682
G1 F1200 X146.425 Y239.197 E85.86544
G0 F6000 X147.131 Y239.337
G1 F1200 X142.872 Y235.079 E86.06575
G0 F6000 X142.834 Y234.475
G1 F1200 X147.837 Y239.478 E86.30108
G0 F6000 X148.543 Y239.618
G1 F1200 X142.795 Y233.871 E86.57142
G0 F6000 X142.757 Y233.267
G1 F1200 X149.249 Y239.759 E86.87679
G0 F6000 X149.955 Y239.899
G1 F1200 X142.719 Y232.663 E87.21715
G0 F6000 X142.681 Y232.059
G1 F1200 X150.435 Y239.813 E87.58187
G0 F6000 X150.9 Y239.712
G1 F1200 X142.643 Y231.455 E87.97025
G0 F6000 X142.605 Y230.851
G1 F1200 X151.365 Y239.612 E88.38232
G0 F6000 X151.83 Y239.511
G1 F1200 X142.566 Y230.248 E88.81805
G0 F6000 X142.528 Y229.644
G1 F1200 X152.295 Y239.41 E89.27743
G0 F6000 X152.76 Y239.31
G1 F1200 X142.49 Y229.04 E89.7605
G0 F6000 X142.452 Y228.436
G1 F1200 X153.225 Y239.209 E90.26723
G0 F6000 X153.69 Y239.108
G1 F1200 X142.414 Y227.832 E90.79762
G0 F6000 X142.375 Y227.228
G1 F1200 X154.154 Y239.007 E91.35167
G0 F6000 X154.62 Y238.907
G1 F1200 X142.337 Y226.624 E91.92942
G0 F6000 X142.299 Y226.021
G1 F1200 X155.084 Y238.806 E92.53079
G0 F6000 X155.55 Y238.705
G1 F1200 X142.261 Y225.417 E93.15584
G0 F6000 X142.223 Y224.813
G1 F1200 X156.014 Y238.604 E93.80453
G0 F6000 X156.479 Y238.504
G1 F1200 X142.185 Y224.209 E94.4769
G0 F6000 X142.146 Y223.605
G1 F1200 X156.811 Y238.27 E95.16669
G0 F6000 X156.843 Y237.736
G1 F1200 X142.108 Y223.001 E95.85978
G0 F6000 X142.07 Y222.397
G1 F1200 X156.875 Y237.203 E96.55619
G0 F6000 X156.907 Y236.669
G1 F1200 X142.032 Y221.793 E97.25589
G0 F6000 X141.994 Y221.19
G1 F1200 X156.94 Y236.136 E97.9589
G0 F6000 X156.972 Y235.602
G1 F1200 X141.955 Y220.586 E98.66523
G0 F6000 X141.917 Y219.982
G1 F1200 X157.004 Y235.069 E99.37488
G0 F6000 X157.036 Y234.535
G1 F1200 X141.879 Y219.378 E100.08781
G0 F6000 X141.841 Y218.774
G1 F1200 X157.068 Y234.002 E100.80407
G0 F6000 X157.1 Y233.468
G1 F1200 X141.803 Y218.17 E101.52362
G0 F6000 X141.765 Y217.566
G1 F1200 X157.133 Y232.935 E102.2465
G0 F6000 X157.165 Y232.401
G1 F1200 X141.726 Y216.962 E102.97271
G0 F6000 X141.688 Y216.359
G1 F1200 X157.197 Y231.868 E103.7022
G0 F6000 X157.229 Y231.334
G1 F1200 X141.65 Y215.755 E104.43499
G0 F6000 X141.612 Y215.151
G1 F1200 X157.261 Y230.801 E105.1711
G0 F6000 X157.294 Y230.267
G1 F1200 X141.574 Y214.547 E105.91052
G0 F6000 X141.535 Y213.943
G1 F1200 X157.326 Y229.734 E106.65328
G0 F6000 X157.358 Y229.2
G1 F1200 X141.497 Y213.339 E107.39933
G0 F6000 X141.459 Y212.735
G1 F1200 X157.39 Y228.667 E108.1487
G0 F6000 X157.423 Y228.133
G1 F1200 X141.421 Y212.132 E108.90136
G0 F6000 X141.383 Y211.528
G1 F1200 X157.455 Y227.599 E109.65731
G0 F6000 X157.487 Y227.066
G1 F1200 X141.344 Y210.924 E110.41661
G0 F6000 X141.306 Y210.32
G1 F1200 X157.519 Y226.532 E111.17919
G0 F6000 X157.551 Y225.999
G1 F1200 X141.268 Y209.716 E111.9451
G0 F6000 X141.23 Y209.112
G1 F1200 X157.583 Y225.465 E112.71429
G0 F6000 X157.616 Y224.932
G1 F1200 X141.192 Y208.508 E113.48683
G0 F6000 X141.154 Y207.904
G1 F1200 X157.648 Y224.398 E114.26265
G0 F6000 X157.68 Y223.865
G1 F1200 X141.115 Y207.301 E115.0418
G0 F6000 X141.077 Y206.697
G1 F1200 X157.712 Y223.331 E115.82423
G0 F6000 X157.744 Y222.798
G1 F1200 X141.039 Y206.093 E116.60998
G0 F6000 X141.001 Y205.489
G1 F1200 X157.776 Y222.264 E117.39903
G0 F6000 X157.809 Y221.731
G1 F1200 X140.963 Y204.885 E118.19141
G0 F6000 X140.924 Y204.281
G1 F1200 X157.841 Y221.198 E118.98714
G0 F6000 X157.873 Y220.664
G1 F1200 X140.886 Y203.677 E119.78615
G0 F6000 X140.848 Y203.073
G1 F1200 X157.906 Y220.131 E120.58851
G0 F6000 X157.937 Y219.597
G1 F1200 X140.81 Y202.47 E121.39411
G0 F6000 X140.772 Y201.866
G1 F1200 X157.97 Y219.064 E122.20305
G0 F6000 X158.002 Y218.53
G1 F1200 X140.734 Y201.262 E123.01529
G0 F6000 X140.695 Y200.658
G1 F1200 X158.034 Y217.997 E123.83086
G0 F6000 X158.066 Y217.463
G1 F1200 X140.657 Y200.054 E124.64973
G0 F6000 X140.619 Y199.45
G1 F1200 X158.099 Y216.93 E125.47193
G0 F6000 X158.13 Y216.396
G1 F1200 X140.581 Y198.846 E126.29741
G0 F6000 X140.543 Y198.243
G1 F1200 X158.163 Y215.863 E127.1262
G0 F6000 X158.195 Y215.329
G1 F1200 X140.504 Y197.639 E127.9583
G0 F6000 X140.466 Y197.035
G1 F1200 X158.227 Y214.796 E128.79373
G0 F6000 X158.259 Y214.262
G1 F1200 X140.428 Y196.431 E129.63244
G0 F6000 X140.39 Y195.827
G1 F1200 X158.292 Y213.729 E130.4745
G0 F6000 X158.324 Y213.195
G1 F1200 X140.352 Y195.223 E131.31984
G0 F6000 X140.314 Y194.619
G1 F1200 X158.356 Y212.662 E132.16851
G0 F6000 X158.388 Y212.128
G1 F1200 X140.275 Y194.015 E133.02049
G0 F6000 X140.237 Y193.412
G1 F1200 X158.42 Y211.595 E133.87576
G0 F6000 X158.453 Y211.062
G1 F1200 X140.199 Y192.808 E134.73437
G0 F6000 X140.161 Y192.204
G1 F1200 X158.485 Y210.528 E135.59628
G0 F6000 X158.517 Y209.995
G1 F1200 X140.123 Y191.6 E136.4615
G0 F6000 X140.084 Y190.996
G1 F1200 X158.549 Y209.461 E137.33004
G0 F6000 X158.582 Y208.928
G1 F1200 X140.046 Y190.392 E138.20191
G0 F6000 X140.008 Y189.788
G1 F1200 X158.613 Y208.394 E139.07706
G0 F6000 X158.646 Y207.861
G1 F1200 X139.97 Y189.185 E139.95552
G0 F6000 X139.932 Y188.581
G1 F1200 X158.678 Y207.327 E140.83727
G0 F6000 X158.71 Y206.794
G1 F1200 X139.894 Y187.977 E141.72235
G0 F6000 X139.855 Y187.373
G1 F1200 X158.742 Y206.26 E142.61073
G0 F6000 X158.775 Y205.727
G1 F1200 X139.817 Y186.769 E143.50246
G0 F6000 X139.779 Y186.165
G1 F1200 X158.806 Y205.193 E144.39745
G0 F6000 X158.839 Y204.66
G1 F1200 X139.741 Y185.561 E145.29579
G0 F6000 X139.703 Y184.957
G1 F1200 X158.871 Y204.126 E146.19742
G0 F6000 X158.903 Y203.593
G1 F1200 X139.664 Y184.354 E147.10236
G0 F6000 X139.626 Y183.75
G1 F1200 X158.935 Y203.059 E148.0106
G0 F6000 X158.968 Y202.525
G1 F1200 X139.588 Y183.146 E148.92215
G0 F6000 X139.55 Y182.542
G1 F1200 X159 Y201.992 E149.83702
G0 F6000 X159.032 Y201.458
G1 F1200 X139.512 Y181.938 E150.75518
G0 F6000 X139.473 Y181.334
G1 F1200 X159.065 Y200.925 E151.6767
G0 F6000 X159.096 Y200.391
G1 F1200 X139.435 Y180.73 E152.60149
G0 F6000 X139.397 Y180.126
G1 F1200 X159.129 Y199.858 E153.52963
G0 F6000 X159.161 Y199.324
G1 F1200 X139.359 Y179.523 E154.46103
G0 F6000 X139.321 Y178.919
G1 F1200 X159.193 Y198.791 E155.39575
G0 F6000 X159.225 Y198.257
G1 F1200 X139.283 Y178.315 E156.33376
G0 F6000 X139.244 Y177.711
G1 F1200 X159.258 Y197.724 E157.27513
G0 F6000 X159.289 Y197.19
G1 F1200 X139.206 Y177.107 E158.21977
G0 F6000 X139.168 Y176.503
G1 F1200 X159.322 Y196.657 E159.16776
G0 F6000 X159.354 Y196.123
G1 F1200 X139.13 Y175.899 E160.11903
G0 F6000 X139.092 Y175.296
G1 F1200 X159.386 Y195.59 E161.0736
G0 F6000 X159.418 Y195.056
G1 F1200 X139.053 Y174.692 E162.03148
G0 F6000 X139.015 Y174.088
G1 F1200 X159.451 Y194.523 E162.99271
G0 F6000 X159.482 Y193.989
G1 F1200 X138.998 Y173.505 E163.95621
G0 F6000 X138.991 Y172.932
G1 F1200 X159.515 Y193.456 E164.9216
G0 F6000 X159.548 Y192.923
G1 F1200 X138.987 Y172.362 E165.88872
G0 F6000 X138.984 Y171.794
G1 F1200 X159.579 Y192.389 E166.85745
G0 F6000 X159.612 Y191.856
G1 F1200 X138.981 Y171.225 E167.82787
G0 F6000 X138.977 Y170.655
G1 F1200 X159.644 Y191.322 E168.79998
G0 F6000 X159.676 Y190.789
G1 F1200 X138.974 Y170.086 E169.77376
G0 F6000 X138.971 Y169.518
G1 F1200 X159.708 Y190.255 E170.74917
G0 F6000 X159.741 Y189.722
G1 F1200 X138.967 Y168.949 E171.72629
G0 F6000 X138.964 Y168.379
G1 F1200 X159.772 Y189.188 E172.70506
G0 F6000 X159.805 Y188.655
G1 F1200 X138.96 Y167.81 E173.68554
G0 F6000 X138.957 Y167.242
G1 F1200 X159.837 Y188.121 E174.66765
G0 F6000 X159.869 Y187.588
G1 F1200 X138.954 Y166.672 E175.65145
G0 F6000 X138.95 Y166.103
G1 F1200 X159.901 Y187.054 E176.63692
G0 F6000 X159.934 Y186.521
G1 F1200 X138.95 Y165.537 E177.62394
G0 F6000 X138.941 Y164.963
G1 F1200 X159.965 Y185.987 E178.61285
