;FLAVOR:Marlin
M117 Time Left 3h32m30s
;Filament used: 8.20952m
;Layer height: 0.2
;MINX:112.443
;MINY:134.193
;MINZ:0.2
;MAXX:187.555
;MAXY:165.807
;MAXZ:66.8
;POSTPROCESSED
;Generated with Cura_SteamEngine 4.6.0
M140 S58
M105
M190 S58
M104 S195
M105
M109 S195
M82 ;absolute extrusion mode
M201 X500.00 Y500.00 Z100.00 E5000.00 ;Setup machine max acceleration
M203 X500.00 Y500.00 Z10.00 E50.00 ;Setup machine max feedrate
M204 P500.00 R1000.00 T500.00 ;Setup Print/Retract/Travel acceleration
M205 X8.00 Y8.00 Z0.40 E5.00 ;Setup Jerk
M220 S100 ;Reset Feedrate
M221 S100 ;Reset Flowrate

G28 ;Home

G92 E0 ;Reset Extruder
G1 Z2.0 F3000 ;Move Z Axis up
G1 X10.1 Y20 Z0.28 F5000.0 ;Move to start position
G1 X10.1 Y200.0 Z0.28 F1500.0 E15 ;Draw the first line
G1 X10.4 Y200.0 Z0.28 F5000.0 ;Move to side a little
G1 X10.4 Y20 Z0.28 F1500.0 E30 ;Draw the second line
G92 E0 ;Reset Extruder
G1 Z2.0 F3000 ;Move Z Axis up

G92 E0
G92 E0
G1 F1500 E-5.5
;LAYER_COUNT:334
;LAYER:0
M107
G0 F6000 X114.092 Y141.849 Z0.2
;TYPE:SKIRT
G1 F1500 E0
G1 F1200 X114.556 Y141.552 E0.01924
G1 X115.059 Y141.326 E0.0385
G1 X115.589 Y141.175 E0.05774
G1 X116.362 Y141.096 E0.08488
G1 X121.049 Y141.096 E0.24856
G1 X121.162 Y140.798 E0.25969
G1 X121.43 Y140.317 E0.27892
G1 X121.92 Y139.714 E0.30606
G1 X122.037 Y139.597 E0.31184
G1 X122.454 Y139.237 E0.33108
G1 X122.918 Y138.94 E0.35032
G1 X123.421 Y138.714 E0.36957
G1 X123.951 Y138.563 E0.38882
G1 X124.724 Y138.484 E0.41596
G1 X135.618 Y138.484 E0.79641
G1 X136.081 Y138.518 E0.81262
G1 X136.558 Y138.482 E0.82933
G1 X139.216 Y138.482 E0.92215
G1 X139.577 Y138.121 E0.93998
G1 X139.889 Y137.842 E0.9546
G1 X139.904 Y137.83 E0.95527
G1 X140.096 Y137.686 E0.96365
G1 X141.803 Y136.489 E1.03646
G1 X142.122 Y136.288 E1.04963
G1 X142.138 Y136.279 E1.05027
G1 X142.4 Y136.145 E1.06055
G1 X144.275 Y135.274 E1.13275
G1 X144.499 Y135.178 E1.14126
G1 X144.517 Y135.171 E1.14193
G1 X144.912 Y135.042 E1.15645
G1 X146.916 Y134.506 E1.22889
G1 X147.273 Y134.429 E1.24165
G1 X147.291 Y134.426 E1.24228
G1 X147.585 Y134.388 E1.25264
G1 X149.655 Y134.207 E1.3252
G1 X149.986 Y134.193 E1.33677
G1 X150.002 Y134.193 E1.33733
G1 X150.332 Y134.207 E1.34887
G1 X152.394 Y134.387 E1.42115
G1 X153.044 Y134.502 E1.4442
G1 X155.082 Y135.046 E1.51787
G1 X155.705 Y135.272 E1.54101
G1 X157.579 Y136.144 E1.6132
G1 X157.821 Y136.267 E1.62268
G1 X157.839 Y136.277 E1.6234
G1 X158.176 Y136.488 E1.63728
G1 X159.886 Y137.687 E1.71022
G1 X160.078 Y137.831 E1.7186
G1 X160.093 Y137.843 E1.71927
G1 X160.406 Y138.123 E1.73394
G1 X161.959 Y139.676 E1.81064
G1 X162.319 Y140.093 E1.82988
G1 X162.586 Y140.509 E1.84714
G1 X163.502 Y141.828 E1.90322
G1 X163.81 Y142.357 E1.9246
G1 X163.821 Y142.38 E1.92549
G1 X163.959 Y142.706 E1.93785
G1 X164.67 Y144.635 E2.00965
G1 X164.669 Y144.635 E2.00969
G1 X164.689 Y144.684 E2.01153
G1 X165.267 Y146.3 E2.07147
G1 X183.63 Y146.3 E2.71277
G1 X184.18 Y146.34 E2.73202
G1 X184.718 Y146.459 E2.75127
G1 X185.233 Y146.655 E2.77051
G1 X185.714 Y146.923 E2.78974
G1 X186.317 Y147.413 E2.81687
G1 X186.434 Y147.53 E2.82265
G1 X186.794 Y147.947 E2.84189
G1 X187.091 Y148.411 E2.86113
G1 X187.317 Y148.914 E2.88039
G1 X187.468 Y149.444 E2.89964
G1 X187.547 Y150.211 E2.92656
G1 X187.555 Y155.003 E3.09392
G1 X187.516 Y155.552 E3.11314
G1 X187.398 Y156.09 E3.13237
G1 X187.203 Y156.606 E3.15164
G1 X186.936 Y157.088 E3.17088
G1 X186.442 Y157.696 E3.19824
G1 X186.325 Y157.813 E3.20402
G1 X185.908 Y158.173 E3.22326
G1 X185.444 Y158.47 E3.24249
G1 X184.941 Y158.696 E3.26175
G1 X184.411 Y158.847 E3.281
G1 X183.638 Y158.926 E3.30813
G1 X178.894 Y158.926 E3.47381
G1 X178.786 Y159.211 E3.48445
G1 X178.518 Y159.692 E3.50368
G1 X178.028 Y160.294 E3.53079
G1 X177.911 Y160.411 E3.53657
G1 X177.494 Y160.771 E3.55581
G1 X177.03 Y161.068 E3.57505
G1 X176.527 Y161.294 E3.59431
G1 X175.997 Y161.445 E3.61355
G1 X175.224 Y161.524 E3.64069
G1 X164.178 Y161.524 E4.02645
G1 X163.689 Y161.488 E4.04357
G1 X163.624 Y161.5 E4.04588
G1 X163.204 Y161.521 E4.06057
G1 X163.023 Y161.52 E4.06689
G1 X160.762 Y161.52 E4.14585
G1 X160.403 Y161.879 E4.16358
G1 X160.076 Y162.17 E4.17887
G1 X159.88 Y162.317 E4.18742
G1 X158.176 Y163.509 E4.26005
G1 X157.953 Y163.653 E4.26932
G1 X157.938 Y163.662 E4.26993
G1 X157.59 Y163.847 E4.28369
G1 X155.711 Y164.724 E4.35611
G1 X155.248 Y164.905 E4.37347
G1 X155.064 Y164.959 E4.38017
G1 X153.062 Y165.493 E4.45253
G1 X152.708 Y165.569 E4.46517
G1 X152.69 Y165.572 E4.46581
G1 X152.399 Y165.609 E4.47605
G1 X150.326 Y165.792 E4.54873
G1 X149.992 Y165.807 E4.56041
G1 X149.976 Y165.807 E4.56097
G1 X149.642 Y165.792 E4.57264
G1 X147.582 Y165.61 E4.64486
G1 X147.291 Y165.573 E4.65511
G1 X147.273 Y165.57 E4.65575
G1 X146.919 Y165.494 E4.66839
G1 X144.762 Y164.915 E4.74639
G1 X144.746 Y164.91 E4.74697
G1 X144.272 Y164.726 E4.76473
G1 X142.391 Y163.848 E4.83722
G1 X142.043 Y163.663 E4.85099
G1 X142.028 Y163.654 E4.8516
G1 X141.805 Y163.51 E4.86087
G1 X140.098 Y162.316 E4.93362
G1 X139.902 Y162.169 E4.94217
G1 X139.887 Y162.157 E4.94284
G1 X139.574 Y161.877 E4.95751
G1 X138.111 Y160.414 E5.02977
G1 X137.786 Y160.044 E5.04697
G1 X137.675 Y159.893 E5.05351
G1 X136.478 Y158.183 E5.12641
G1 X136.279 Y157.867 E5.13945
G1 X136.27 Y157.851 E5.14009
G1 X136.136 Y157.589 E5.15037
G1 X135.265 Y155.714 E5.22257
G1 X135.169 Y155.49 E5.23108
G1 X135.162 Y155.472 E5.23175
G1 X135.031 Y155.069 E5.24655
G1 X134.668 Y153.7 E5.29601
G1 X116.36 Y153.7 E5.93539
G1 X115.81 Y153.66 E5.95464
G1 X115.272 Y153.541 E5.97389
G1 X114.757 Y153.345 E5.99313
G1 X114.276 Y153.077 E6.01236
G1 X113.673 Y152.587 E6.0395
G1 X113.556 Y152.47 E6.04527
G1 X113.196 Y152.053 E6.06451
G1 X112.899 Y151.589 E6.08375
G1 X112.673 Y151.086 E6.10301
G1 X112.522 Y150.556 E6.12226
G1 X112.443 Y149.781 E6.14946
G1 X112.445 Y145.011 E6.31605
G1 X112.485 Y144.462 E6.33527
G1 X112.604 Y143.924 E6.35451
G1 X112.8 Y143.409 E6.37376
G1 X113.068 Y142.928 E6.39299
G1 X113.505 Y142.391 E6.41716
G0 F1080 X113.558 Y142.326
G0 X113.675 Y142.209
G0 X114.092 Y141.849
G0 F6000 X114.354 Y142.153
G1 F1200 X114.796 Y141.878 E6.43534
G1 X115.276 Y141.674 E6.45356
G1 X115.781 Y141.546 E6.47175
G1 X116.362 Y141.496 E6.49212
G1 X121.337 Y141.496 E6.66586
G1 X121.366 Y141.374 E6.67024
G1 X121.561 Y140.891 E6.68843
G1 X121.827 Y140.443 E6.70663
G1 X122.203 Y139.997 E6.727
G1 X122.32 Y139.88 E6.73278
G1 X122.716 Y139.541 E6.75098
G1 X123.158 Y139.266 E6.76916
G1 X123.638 Y139.062 E6.78738
G1 X124.143 Y138.934 E6.80557
G1 X124.724 Y138.884 E6.82593
G1 X135.618 Y138.884 E7.20639
G1 X136.138 Y138.924 E7.2246
G1 X136.154 Y138.928 E7.22518
G1 X136.558 Y138.882 E7.23938
G1 X139.382 Y138.882 E7.338
G1 X139.86 Y138.404 E7.36161
G1 X140.139 Y138.154 E7.37469
G1 X140.154 Y138.142 E7.37536
G1 X140.326 Y138.013 E7.38287
G1 X142.033 Y136.816 E7.45568
G1 X142.318 Y136.637 E7.46743
G1 X142.334 Y136.628 E7.46807
G1 X142.569 Y136.507 E7.47731
G1 X144.444 Y135.636 E7.54951
G1 X144.644 Y135.551 E7.5571
G1 X144.662 Y135.544 E7.55777
G1 X145.015 Y135.428 E7.57075
G1 X147.019 Y134.892 E7.64319
G1 X147.339 Y134.823 E7.65463
G1 X147.357 Y134.82 E7.65526
G1 X147.62 Y134.787 E7.66452
G1 X149.69 Y134.606 E7.73709
G1 X149.986 Y134.593 E7.74743
G1 X150.002 Y134.593 E7.74799
G1 X150.298 Y134.606 E7.75834
G1 X152.36 Y134.786 E7.83062
G1 X152.941 Y134.888 E7.85123
G1 X154.979 Y135.432 E7.92489
G1 X155.536 Y135.634 E7.94558
G1 X157.41 Y136.506 E8.01777
G1 X157.627 Y136.617 E8.02628
G1 X157.645 Y136.627 E8.027
G1 X157.946 Y136.815 E8.03939
G1 X159.656 Y138.014 E8.11233
G1 X159.828 Y138.143 E8.11984
G1 X159.843 Y138.155 E8.12051
G1 X160.123 Y138.406 E8.13364
G1 X161.676 Y139.959 E8.21034
G1 X162.015 Y140.355 E8.22855
G1 X162.219 Y140.684 E8.24206
G1 X163.174 Y142.057 E8.30047
G1 X163.449 Y142.53 E8.31958
G1 X163.46 Y142.553 E8.32047
G1 X163.583 Y142.844 E8.3315
G1 X164.294 Y144.773 E8.4033
G1 X164.312 Y144.818 E8.40499
G1 X164.988 Y146.708 E8.47509
G1 X165.093 Y146.7 E8.47877
G1 X183.63 Y146.7 E9.12614
G1 X184.15 Y146.74 E9.14435
G1 X184.657 Y146.859 E9.16254
G1 X185.14 Y147.054 E9.18073
G1 X185.588 Y147.32 E9.19893
G1 X186.034 Y147.696 E9.2193
G1 X186.151 Y147.813 E9.22508
G1 X186.49 Y148.209 E9.24328
G1 X186.765 Y148.651 E9.26146
G1 X186.969 Y149.131 E9.27968
G1 X187.097 Y149.636 E9.29787
G1 X187.147 Y150.211 E9.31803
G1 X187.155 Y155.003 E9.48538
G1 X187.116 Y155.523 E9.50359
G1 X186.998 Y156.031 E9.5218
G1 X186.804 Y156.514 E9.53998
G1 X186.538 Y156.962 E9.55818
G1 X186.159 Y157.413 E9.57875
G1 X186.042 Y157.53 E9.58453
G1 X185.646 Y157.869 E9.60273
G1 X185.204 Y158.144 E9.62091
G1 X184.724 Y158.348 E9.63913
G1 X184.219 Y158.476 E9.65732
G1 X183.638 Y158.526 E9.67769
G1 X178.608 Y158.526 E9.85335
G1 X178.582 Y158.635 E9.85726
G1 X178.387 Y159.119 E9.87549
G1 X178.12 Y159.566 E9.89367
G1 X177.745 Y160.011 E9.91399
G1 X177.628 Y160.128 E9.91977
G1 X177.232 Y160.467 E9.93798
G1 X176.79 Y160.742 E9.95616
G1 X176.31 Y160.946 E9.97437
G1 X175.805 Y161.074 E9.99257
G1 X175.224 Y161.124 E10.01293
G1 X164.178 Y161.124 E10.39869
G1 X163.658 Y161.084 E10.41691
G1 X163.648 Y161.082 E10.41726
G1 X163.206 Y161.121 E10.43276
G1 X163.025 Y161.12 E10.43908
G1 X160.596 Y161.12 E10.52391
G1 X160.12 Y161.596 E10.54742
G1 X159.826 Y161.858 E10.56117
G1 X159.651 Y161.989 E10.5688
G1 X157.947 Y163.181 E10.64143
G1 X157.747 Y163.31 E10.64974
G1 X157.732 Y163.319 E10.65035
G1 X157.421 Y163.485 E10.66266
G1 X155.542 Y164.362 E10.73508
G1 X155.128 Y164.523 E10.75059
G1 X154.961 Y164.572 E10.75667
G1 X152.959 Y165.106 E10.82903
G1 X152.642 Y165.175 E10.84036
G1 X152.624 Y165.178 E10.841
G1 X152.364 Y165.211 E10.85015
G1 X150.291 Y165.394 E10.92283
G1 X149.992 Y165.407 E10.93328
G1 X149.976 Y165.407 E10.93384
G1 X149.677 Y165.394 E10.94429
G1 X147.617 Y165.212 E11.01651
G1 X147.357 Y165.179 E11.02566
G1 X147.339 Y165.176 E11.0263
G1 X147.022 Y165.107 E11.03763
G1 X144.881 Y164.533 E11.11504
G1 X144.865 Y164.528 E11.11563
G1 X144.441 Y164.364 E11.1315
G1 X142.56 Y163.486 E11.204
G1 X142.249 Y163.32 E11.21631
G1 X142.234 Y163.311 E11.21692
G1 X142.034 Y163.182 E11.22523
G1 X140.327 Y161.988 E11.29798
G1 X140.152 Y161.857 E11.30562
G1 X140.137 Y161.845 E11.30629
G1 X139.857 Y161.594 E11.31942
G1 X138.394 Y160.131 E11.39167
G1 X138.103 Y159.8 E11.40707
G1 X138.003 Y159.664 E11.41296
G1 X136.806 Y157.954 E11.48586
G1 X136.628 Y157.671 E11.49753
G1 X136.619 Y157.655 E11.49817
G1 X136.498 Y157.42 E11.5074
G1 X135.627 Y155.545 E11.57961
G1 X135.542 Y155.345 E11.58719
G1 X135.535 Y155.327 E11.58787
G1 X135.418 Y154.966 E11.60112
G1 X134.974 Y153.292 E11.66161
G1 X134.852 Y153.3 E11.66587
G1 X116.36 Y153.3 E12.31167
G1 X115.84 Y153.26 E12.32989
G1 X115.333 Y153.141 E12.34807
G1 X114.85 Y152.946 E12.36627
G1 X114.402 Y152.68 E12.38446
G1 X113.956 Y152.304 E12.40483
G1 X113.839 Y152.187 E12.41061
G1 X113.5 Y151.791 E12.42882
G1 X113.225 Y151.349 E12.447
G1 X113.021 Y150.869 E12.46521
G1 X112.893 Y150.364 E12.4834
G1 X112.843 Y149.782 E12.5038
G1 X112.845 Y145.012 E12.67039
G1 X112.885 Y144.492 E12.6886
G1 X113.004 Y143.985 E12.70679
G1 X113.199 Y143.501 E12.72501
G1 X113.466 Y143.054 E12.7432
G1 X113.768 Y142.696 E12.75955
G0 F1080 X113.841 Y142.609
G0 X113.958 Y142.492
G0 X114.354 Y142.153
G0 F6000 X114.614 Y142.458
G1 F1200 X115.034 Y142.206 E12.77666
G1 X115.489 Y142.026 E12.79375
G1 X115.967 Y141.922 E12.81083
G1 X116.362 Y141.896 E12.82465
G1 X121.651 Y141.896 E13.00936
G1 X121.766 Y141.438 E13.02585
G1 X121.96 Y140.989 E13.04294
G1 X122.225 Y140.577 E13.06004
G1 X122.486 Y140.28 E13.07385
G1 X122.603 Y140.163 E13.07963
G1 X122.976 Y139.846 E13.09672
G1 X123.396 Y139.594 E13.11383
G1 X123.851 Y139.414 E13.13092
G1 X124.329 Y139.31 E13.148
G1 X124.724 Y139.284 E13.16183
G1 X135.618 Y139.284 E13.54228
G1 X136.085 Y139.322 E13.55864
G1 X136.116 Y139.315 E13.55975
G1 X136.558 Y139.282 E13.57523
G1 X139.547 Y139.282 E13.67962
G1 X140.142 Y138.687 E13.709
G1 X140.389 Y138.466 E13.72058
G1 X140.404 Y138.454 E13.72125
G1 X140.556 Y138.341 E13.72786
G1 X142.263 Y137.144 E13.80067
G1 X142.514 Y136.985 E13.81105
G1 X142.53 Y136.976 E13.81169
G1 X142.737 Y136.87 E13.81981
G1 X144.612 Y135.999 E13.89201
G1 X144.789 Y135.924 E13.89873
G1 X144.807 Y135.917 E13.8994
G1 X145.119 Y135.815 E13.91086
G1 X147.123 Y135.279 E13.98331
G1 X147.405 Y135.218 E13.99339
G1 X147.423 Y135.215 E13.99402
G1 X147.655 Y135.185 E14.00219
G1 X149.725 Y135.004 E14.07476
G1 X149.986 Y134.993 E14.08388
G1 X150.002 Y134.993 E14.08444
G1 X150.263 Y135.004 E14.09357
G1 X152.325 Y135.184 E14.16585
G1 X152.838 Y135.274 E14.18404
G1 X154.876 Y135.818 E14.25771
G1 X155.368 Y135.997 E14.27599
G1 X157.242 Y136.869 E14.34817
G1 X157.433 Y136.967 E14.35567
G1 X157.451 Y136.977 E14.35639
G1 X157.716 Y137.143 E14.36731
G1 X159.426 Y138.342 E14.44025
G1 X159.578 Y138.455 E14.44686
G1 X159.593 Y138.467 E14.44753
G1 X159.84 Y138.689 E14.45913
G1 X161.393 Y140.242 E14.53583
G1 X161.71 Y140.615 E14.55293
G1 X161.872 Y140.885 E14.56392
G1 X162.845 Y142.285 E14.62346
G1 X163.088 Y142.703 E14.64035
G1 X163.099 Y142.726 E14.64124
G1 X163.208 Y142.982 E14.65096
G1 X163.919 Y144.911 E14.72275
G1 X163.936 Y144.953 E14.72434
G1 X164.637 Y146.912 E14.797
G1 X164.702 Y147.13 E14.80494
G1 X164.764 Y147.118 E14.80715
G1 X165.093 Y147.1 E14.81865
G1 X183.63 Y147.1 E15.46602
G1 X184.118 Y147.14 E15.48312
G1 X184.593 Y147.259 E15.50023
G1 X185.042 Y147.453 E15.51731
G1 X185.454 Y147.718 E15.53441
G1 X185.751 Y147.979 E15.54822
G1 X185.868 Y148.096 E15.554
G1 X186.185 Y148.469 E15.5711
G1 X186.437 Y148.889 E15.5882
G1 X186.617 Y149.344 E15.60529
G1 X186.721 Y149.822 E15.62237
G1 X186.747 Y150.212 E15.63602
G1 X186.755 Y155.004 E15.80338
G1 X186.716 Y155.492 E15.82047
G1 X186.598 Y155.967 E15.83757
G1 X186.404 Y156.417 E15.85468
G1 X186.14 Y156.829 E15.87177
G1 X185.876 Y157.13 E15.88575
G1 X185.759 Y157.247 E15.89153
G1 X185.386 Y157.564 E15.90862
G1 X184.966 Y157.816 E15.92573
G1 X184.511 Y157.996 E15.94282
G1 X184.033 Y158.1 E15.9599
G1 X183.638 Y158.126 E15.97373
G1 X178.335 Y158.126 E16.15892
G1 X178.294 Y158.123 E16.16036
G1 X178.182 Y158.571 E16.17649
G1 X177.987 Y159.02 E16.19358
G1 X177.722 Y159.432 E16.21069
G1 X177.462 Y159.728 E16.22445
G1 X177.345 Y159.845 E16.23023
G1 X176.972 Y160.162 E16.24732
G1 X176.552 Y160.414 E16.26443
G1 X176.097 Y160.594 E16.28152
G1 X175.619 Y160.698 E16.2986
G1 X175.224 Y160.724 E16.31242
G1 X164.178 Y160.724 E16.69818
G1 X163.69 Y160.684 E16.71528
G1 X163.672 Y160.68 E16.71593
G1 X163.538 Y160.705 E16.72069
G1 X163.208 Y160.721 E16.73223
G1 X163.027 Y160.72 E16.73855
G1 X160.431 Y160.72 E16.82921
G1 X159.838 Y161.313 E16.8585
G1 X159.576 Y161.546 E16.87074
G1 X159.422 Y161.661 E16.87745
G1 X157.718 Y162.853 E16.95008
G1 X157.541 Y162.967 E16.95743
G1 X157.526 Y162.976 E16.95804
G1 X157.252 Y163.122 E16.96888
G1 X155.373 Y163.999 E17.0413
G1 X155.007 Y164.142 E17.05502
G1 X154.858 Y164.186 E17.06045
G1 X152.856 Y164.72 E17.13281
G1 X152.576 Y164.78 E17.14281
G1 X152.558 Y164.783 E17.14345
G1 X152.329 Y164.812 E17.15151
G1 X150.256 Y164.995 E17.22418
G1 X149.992 Y165.007 E17.23341
G1 X149.976 Y165.007 E17.23397
G1 X149.712 Y164.995 E17.2432
G1 X147.652 Y164.813 E17.31542
G1 X147.423 Y164.784 E17.32348
G1 X147.405 Y164.781 E17.32412
G1 X147.125 Y164.721 E17.33412
G1 X145 Y164.151 E17.41096
G1 X144.984 Y164.146 E17.41154
G1 X144.61 Y164.001 E17.42555
G1 X142.729 Y163.123 E17.49805
G1 X142.455 Y162.977 E17.50889
G1 X142.44 Y162.968 E17.5095
G1 X142.263 Y162.854 E17.51685
G1 X140.556 Y161.66 E17.5896
G1 X140.402 Y161.545 E17.59631
G1 X140.387 Y161.533 E17.59699
G1 X140.14 Y161.311 E17.60858
G1 X138.677 Y159.848 E17.68084
G1 X138.42 Y159.556 E17.69442
G1 X138.33 Y159.434 E17.69972
G1 X137.133 Y157.724 E17.77261
G1 X136.976 Y157.475 E17.78289
G1 X136.967 Y157.459 E17.78354
G1 X136.861 Y157.252 E17.79166
G1 X135.99 Y155.377 E17.86386
G1 X135.915 Y155.2 E17.87057
G1 X135.908 Y155.182 E17.87125
G1 X135.804 Y154.864 E17.88293
G1 X135.328 Y153.067 E17.94785
G1 X135.297 Y152.99 E17.95075
G1 X135.272 Y152.862 E17.95531
G1 X135.113 Y152.889 E17.96094
G1 X134.852 Y152.9 E17.97006
G1 X116.36 Y152.9 E18.61586
