;FLAVOR:Marlin
M117 Time Left 3h31m05s
;Filament used: 8.14767m
;Layer height: 0.2
;MINX:112.443
;MINY:134.194
;MINZ:0.2
;MAXX:187.555
;MAXY:165.806
;MAXZ:66.8
;POSTPROCESSED
;Generated with Cura_SteamEngine 4.6.0
M140 S58
M105
M190 S58
M104 S195
M105
M109 S195
M82 ;absolute extrusion mode
M201 X500.00 Y500.00 Z100.00 E5000.00 ;Setup machine max acceleration
M203 X500.00 Y500.00 Z10.00 E50.00 ;Setup machine max feedrate
M204 P500.00 R1000.00 T500.00 ;Setup Print/Retract/Travel acceleration
M205 X8.00 Y8.00 Z0.40 E5.00 ;Setup Jerk
M220 S100 ;Reset Feedrate
M221 S100 ;Reset Flowrate

G28 ;Home

G92 E0 ;Reset Extruder
G1 Z2.0 F3000 ;Move Z Axis up
G1 X10.1 Y20 Z0.28 F5000.0 ;Move to start position
G1 X10.1 Y200.0 Z0.28 F1500.0 E15 ;Draw the first line
G1 X10.4 Y200.0 Z0.28 F5000.0 ;Move to side a little
G1 X10.4 Y20 Z0.28 F1500.0 E30 ;Draw the second line
G92 E0 ;Reset Extruder
G1 Z2.0 F3000 ;Move Z Axis up

G92 E0
G92 E0
G1 F1500 E-5.5
;LAYER_COUNT:334
;LAYER:0
M107
G0 F6000 X114.09 Y144.484 Z0.2
;TYPE:SKIRT
G1 F1500 E0
G1 F1200 X114.554 Y144.187 E0.01924
G1 X115.057 Y143.961 E0.0385
G1 X115.587 Y143.81 E0.05774
G1 X116.36 Y143.731 E0.08488
G1 X120.817 Y143.731 E0.24053
G1 X120.817 Y142.434 E0.28583
G1 X120.857 Y141.884 E0.30509
G1 X120.976 Y141.346 E0.32433
G1 X121.172 Y140.831 E0.34357
G1 X121.44 Y140.35 E0.3628
G1 X121.93 Y139.747 E0.38994
G1 X122.059 Y139.618 E0.39631
G1 X122.476 Y139.258 E0.41555
G1 X122.94 Y138.961 E0.43479
G1 X123.443 Y138.735 E0.45404
G1 X123.973 Y138.584 E0.47329
G1 X124.744 Y138.505 E0.50036
G1 X126.576 Y138.504 E0.56434
G1 X127.125 Y138.544 E0.58356
G1 X127.426 Y138.61 E0.59432
G1 X127.863 Y138.491 E0.61014
G1 X127.901 Y138.484 E0.61149
G1 X128.589 Y138.421 E0.63562
G1 X129.765 Y138.421 E0.67669
G1 X130.453 Y138.484 E0.70081
G1 X130.491 Y138.491 E0.70216
G1 X131.1 Y138.656 E0.7242
G1 X132.103 Y139.02 E0.76146
G1 X132.324 Y138.891 E0.7704
G1 X132.835 Y138.685 E0.78964
G1 X133.371 Y138.556 E0.80889
G1 X133.992 Y138.505 E0.83065
G1 X135.629 Y138.505 E0.88782
G1 X136.079 Y138.538 E0.90358
G1 X136.564 Y138.501 E0.92057
G1 X137.283 Y138.5 E0.94568
G1 X139.221 Y138.488 E1.01336
G1 X139.593 Y138.117 E1.03171
G1 X139.903 Y137.84 E1.04622
G1 X139.918 Y137.828 E1.0469
G1 X140.116 Y137.68 E1.05553
G1 X141.821 Y136.489 E1.12816
G1 X142.042 Y136.346 E1.13735
G1 X142.057 Y136.337 E1.13796
G1 X142.405 Y136.152 E1.15173
G1 X144.282 Y135.276 E1.22407
G1 X144.745 Y135.095 E1.24143
G1 X144.925 Y135.042 E1.24798
G1 X146.931 Y134.505 E1.3205
G1 X147.289 Y134.428 E1.33329
G1 X147.307 Y134.425 E1.33393
G1 X147.604 Y134.387 E1.34439
G1 X149.668 Y134.208 E1.41674
G1 X149.996 Y134.194 E1.4282
G1 X150.012 Y134.194 E1.42876
G1 X150.338 Y134.208 E1.44016
G1 X152.394 Y134.385 E1.51222
G1 X153.05 Y134.5 E1.53548
G1 X155.088 Y135.045 E1.60916
G1 X155.713 Y135.273 E1.63239
G1 X157.596 Y136.152 E1.70496
G1 X157.834 Y136.273 E1.71429
G1 X157.852 Y136.283 E1.71501
G1 X158.187 Y136.492 E1.7288
G1 X159.888 Y137.683 E1.80132
G1 X160.082 Y137.829 E1.80979
G1 X160.097 Y137.841 E1.81047
G1 X160.407 Y138.118 E1.82498
G1 X161.874 Y139.582 E1.89736
G1 X162.091 Y139.817 E1.90853
G1 X162.113 Y139.843 E1.90972
G1 X162.334 Y140.132 E1.92243
G1 X163.513 Y141.831 E1.99465
G1 X163.819 Y142.357 E2.0159
G1 X163.83 Y142.38 E2.01679
G1 X163.968 Y142.707 E2.02919
G1 X164.683 Y144.649 E2.10146
G1 X164.69 Y144.668 E2.10217
G1 X165.282 Y146.301 E2.16283
G1 X167.866 Y146.301 E2.25307
G1 X168.305 Y146.333 E2.26844
G1 X168.33 Y146.328 E2.26933
G1 X168.784 Y146.301 E2.28521
G1 X172.896 Y146.302 E2.42882
G1 X173.425 Y146.341 E2.44734
G1 X173.812 Y146.301 E2.46093
G1 X183.638 Y146.301 E2.80408
G1 X184.188 Y146.341 E2.82334
G1 X184.726 Y146.46 E2.84259
G1 X185.241 Y146.656 E2.86183
G1 X185.722 Y146.924 E2.88106
G1 X186.325 Y147.414 E2.90819
G1 X186.442 Y147.531 E2.91397
G1 X186.802 Y147.948 E2.93321
G1 X187.099 Y148.412 E2.95245
G1 X187.325 Y148.915 E2.97171
G1 X187.476 Y149.445 E2.99096
G1 X187.555 Y150.218 E3.01809
G1 X187.555 Y152.504 E3.09793
G1 X187.515 Y153.054 E3.11718
G1 X187.396 Y153.592 E3.13643
G1 X187.2 Y154.107 E3.15567
G1 X186.932 Y154.588 E3.1749
G1 X186.442 Y155.191 E3.20204
G1 X186.325 Y155.308 E3.20781
G1 X185.908 Y155.668 E3.22705
G1 X185.444 Y155.965 E3.24629
G1 X184.941 Y156.191 E3.26555
G1 X184.411 Y156.342 E3.2848
G1 X183.638 Y156.421 E3.31193
G1 X179.151 Y156.421 E3.46863
G1 X179.151 Y157.594 E3.5096
G1 X179.111 Y158.143 E3.52882
G1 X178.992 Y158.681 E3.54806
G1 X178.796 Y159.196 E3.56731
G1 X178.528 Y159.677 E3.58654
G1 X178.038 Y160.279 E3.61364
G1 X177.921 Y160.396 E3.61942
G1 X177.504 Y160.756 E3.63866
G1 X177.04 Y161.053 E3.6579
G1 X176.537 Y161.279 E3.67716
G1 X176.007 Y161.43 E3.69641
G1 X175.234 Y161.509 E3.72354
G1 X164.189 Y161.509 E4.10927
G1 X163.722 Y161.475 E4.12562
G1 X163.62 Y161.493 E4.12924
G1 X163.238 Y161.513 E4.1426
G1 X161.89 Y161.514 E4.18967
G1 X160.778 Y161.513 E4.22851
G1 X160.407 Y161.884 E4.24683
G1 X159.899 Y162.309 E4.26996
G1 X158.167 Y163.52 E4.34377
G1 X157.598 Y163.849 E4.36672
G1 X155.718 Y164.727 E4.43918
G1 X155.254 Y164.908 E4.45658
G1 X155.071 Y164.962 E4.46324
G1 X153.066 Y165.497 E4.53571
G1 X152.711 Y165.573 E4.54839
G1 X152.693 Y165.576 E4.54903
G1 X152.394 Y165.614 E4.55955
G1 X150.328 Y165.792 E4.63197
G1 X150.002 Y165.806 E4.64337
G1 X149.986 Y165.806 E4.64393
G1 X149.66 Y165.792 E4.65532
G1 X147.607 Y165.615 E4.72728
G1 X147.308 Y165.577 E4.73781
G1 X147.29 Y165.574 E4.73845
G1 X146.938 Y165.498 E4.75102
G1 X144.935 Y164.965 E4.82341
G1 X144.307 Y164.737 E4.84674
G1 X142.404 Y163.85 E4.92007
G1 X142.054 Y163.664 E4.93391
G1 X142.039 Y163.655 E4.93452
G1 X141.817 Y163.512 E4.94374
G1 X140.11 Y162.319 E5.01647
G1 X139.913 Y162.171 E5.02508
G1 X139.898 Y162.159 E5.02575
G1 X139.585 Y161.879 E5.04041
G1 X138.12 Y160.414 E5.11277
G1 X137.795 Y160.044 E5.12997
G1 X137.683 Y159.892 E5.13656
G1 X136.486 Y158.181 E5.20948
G1 X136.288 Y157.866 E5.22248
G1 X136.279 Y157.85 E5.22312
G1 X136.145 Y157.588 E5.2334
G1 X135.274 Y155.713 E5.3056
G1 X135.178 Y155.489 E5.31411
G1 X135.171 Y155.471 E5.31478
G1 X135.04 Y155.069 E5.32955
G1 X134.677 Y153.7 E5.37901
G1 X133.364 Y153.699 E5.42486
G1 X132.815 Y153.659 E5.44409
G1 X132.277 Y153.539 E5.46334
G1 X131.762 Y153.343 E5.48258
G1 X131.281 Y153.075 E5.50181
G1 X130.91 Y152.791 E5.51813
G1 X130.726 Y152.949 E5.5266
G1 X130.261 Y153.245 E5.54585
G1 X129.758 Y153.47 E5.56509
G1 X129.228 Y153.621 E5.58434
G1 X128.46 Y153.699 E5.6113
G1 X125.417 Y153.699 E5.71757
G1 X124.881 Y153.66 E5.73634
G1 X124.5 Y153.699 E5.74971
G1 X116.36 Y153.699 E6.03399
G1 X115.81 Y153.659 E6.05324
G1 X115.272 Y153.54 E6.07249
G1 X114.757 Y153.344 E6.09173
G1 X114.276 Y153.076 E6.11096
G1 X113.673 Y152.586 E6.1381
G1 X113.556 Y152.469 E6.14387
G1 X113.196 Y152.052 E6.16311
G1 X112.899 Y151.588 E6.18235
G1 X112.673 Y151.085 E6.20161
G1 X112.522 Y150.555 E6.22086
G1 X112.443 Y149.782 E6.24799
G1 X112.443 Y147.648 E6.32252
G1 X112.483 Y147.098 E6.34178
G1 X112.602 Y146.56 E6.36102
G1 X112.798 Y146.045 E6.38026
G1 X113.066 Y145.564 E6.39949
G1 X113.503 Y145.027 E6.42367
G0 F1080 X113.556 Y144.961
G0 X113.673 Y144.844
G0 X114.09 Y144.484
G0 F6000 X114.352 Y144.788
G1 F1200 X114.794 Y144.513 E6.44185
G1 X115.274 Y144.309 E6.46007
G1 X115.779 Y144.181 E6.47826
G1 X116.36 Y144.131 E6.49863
G1 X121.217 Y144.131 E6.66825
G1 X121.217 Y142.434 E6.72751
G1 X121.257 Y141.914 E6.74572
G1 X121.376 Y141.407 E6.76391
G1 X121.571 Y140.924 E6.7821
G1 X121.837 Y140.476 E6.8003
G1 X122.213 Y140.03 E6.82067
G1 X122.342 Y139.901 E6.82704
G1 X122.738 Y139.562 E6.84525
G1 X123.18 Y139.287 E6.86343
G1 X123.66 Y139.083 E6.88164
G1 X124.165 Y138.955 E6.89983
G1 X124.744 Y138.905 E6.92013
G1 X126.576 Y138.904 E6.98411
G1 X127.096 Y138.944 E7.00232
G1 X127.431 Y139.022 E7.01434
G1 X127.935 Y138.884 E7.03258
G1 X127.973 Y138.877 E7.03393
G1 X128.589 Y138.821 E7.05554
G1 X129.765 Y138.821 E7.09661
G1 X130.381 Y138.877 E7.11821
G1 X130.419 Y138.884 E7.11956
G1 X130.963 Y139.032 E7.13924
G1 X132.133 Y139.462 E7.18278
G1 X132.55 Y139.226 E7.19951
G1 X133.038 Y139.042 E7.21772
G1 X133.548 Y138.934 E7.23593
G1 X133.992 Y138.905 E7.25147
G1 X135.629 Y138.905 E7.30864
G1 X136.149 Y138.945 E7.32685
G1 X136.16 Y138.948 E7.32725
G1 X136.564 Y138.901 E7.34145
G1 X137.286 Y138.9 E7.36667
G1 X139.387 Y138.887 E7.44004
G1 X139.875 Y138.4 E7.46412
G1 X140.153 Y138.152 E7.47713
G1 X140.168 Y138.14 E7.4778
G1 X140.345 Y138.008 E7.48551
G1 X142.05 Y136.817 E7.55815
G1 X142.248 Y136.689 E7.56638
G1 X142.263 Y136.68 E7.56699
G1 X142.574 Y136.514 E7.5793
G1 X144.451 Y135.638 E7.65164
G1 X144.865 Y135.477 E7.66715
G1 X145.029 Y135.429 E7.67312
G1 X147.035 Y134.892 E7.74564
G1 X147.355 Y134.822 E7.75708
G1 X147.373 Y134.819 E7.75772
G1 X147.638 Y134.786 E7.76705
G1 X149.702 Y134.607 E7.8394
G1 X149.996 Y134.594 E7.84968
G1 X150.012 Y134.594 E7.85023
G1 X150.304 Y134.607 E7.86044
G1 X152.36 Y134.784 E7.93251
G1 X152.946 Y134.886 E7.95328
G1 X154.984 Y135.431 E8.02696
G1 X155.544 Y135.635 E8.04777
G1 X157.427 Y136.514 E8.12034
G1 X157.64 Y136.623 E8.1287
G1 X157.658 Y136.633 E8.12942
G1 X157.957 Y136.82 E8.14173
G1 X159.658 Y138.011 E8.21425
G1 X159.832 Y138.141 E8.22184
G1 X159.847 Y138.153 E8.22251
G1 X160.125 Y138.401 E8.23552
G1 X161.592 Y139.865 E8.3079
G1 X161.786 Y140.076 E8.31791
G1 X161.808 Y140.102 E8.3191
G1 X162.005 Y140.36 E8.33043
G1 X163.184 Y142.059 E8.40266
G1 X163.458 Y142.53 E8.42168
G1 X163.469 Y142.553 E8.42258
G1 X163.593 Y142.845 E8.43365
G1 X164.308 Y144.787 E8.50593
G1 X164.314 Y144.804 E8.50655
G1 X165.004 Y146.709 E8.57731
G1 X165.102 Y146.701 E8.58075
G1 X167.866 Y146.701 E8.67727
G1 X168.373 Y146.74 E8.69503
G1 X168.784 Y146.701 E8.70945
G1 X172.896 Y146.702 E8.85305
G1 X173.373 Y146.739 E8.86976
G1 X173.812 Y146.701 E8.88515
G1 X183.638 Y146.701 E9.22831
G1 X184.158 Y146.741 E9.24652
G1 X184.665 Y146.86 E9.26471
G1 X185.148 Y147.055 E9.2829
G1 X185.596 Y147.321 E9.30109
G1 X186.042 Y147.697 E9.32147
G1 X186.159 Y147.814 E9.32724
G1 X186.498 Y148.21 E9.34545
G1 X186.773 Y148.652 E9.36363
G1 X186.977 Y149.132 E9.38184
G1 X187.105 Y149.637 E9.40004
G1 X187.155 Y150.218 E9.4204
G1 X187.155 Y152.504 E9.50024
G1 X187.115 Y153.024 E9.51845
G1 X186.996 Y153.531 E9.53664
G1 X186.801 Y154.014 E9.55483
G1 X186.535 Y154.462 E9.57302
G1 X186.159 Y154.908 E9.5934
G1 X186.042 Y155.025 E9.59917
G1 X185.646 Y155.364 E9.61738
G1 X185.204 Y155.639 E9.63556
G1 X184.724 Y155.843 E9.65377
G1 X184.219 Y155.971 E9.67197
G1 X183.638 Y156.021 E9.69233
G1 X178.752 Y156.021 E9.86297
G1 X178.751 Y157.593 E9.91787
G1 X178.711 Y158.113 E9.93608
G1 X178.592 Y158.62 E9.95427
G1 X178.397 Y159.104 E9.97249
G1 X178.13 Y159.551 E9.99067
G1 X177.755 Y159.996 E10.011
G1 X177.638 Y160.113 E10.01678
G1 X177.242 Y160.452 E10.03498
G1 X176.8 Y160.727 E10.05316
G1 X176.32 Y160.931 E10.07137
G1 X175.815 Y161.059 E10.08957
G1 X175.234 Y161.109 E10.10993
G1 X164.189 Y161.109 E10.49566
G1 X163.698 Y161.071 E10.51286
G1 X163.238 Y161.113 E10.52899
G1 X161.89 Y161.114 E10.57607
G1 X160.613 Y161.113 E10.62066
G1 X160.125 Y161.601 E10.64476
G1 X159.67 Y161.981 E10.66547
G1 X157.938 Y163.192 E10.73927
G1 X157.429 Y163.487 E10.75982
G1 X155.549 Y164.365 E10.83228
G1 X155.134 Y164.526 E10.84783
G1 X154.968 Y164.575 E10.85387
G1 X152.963 Y165.11 E10.92634
G1 X152.645 Y165.179 E10.93771
G1 X152.627 Y165.182 E10.93834
G1 X152.36 Y165.215 E10.94774
G1 X150.294 Y165.393 E11.02016
G1 X150.002 Y165.406 E11.03037
G1 X149.986 Y165.406 E11.03092
G1 X149.694 Y165.393 E11.04113
G1 X147.641 Y165.216 E11.11309
G1 X147.374 Y165.183 E11.12249
G1 X147.356 Y165.18 E11.12313
G1 X147.041 Y165.112 E11.13438
G1 X145.038 Y164.579 E11.20677
G1 X144.476 Y164.375 E11.22765
G1 X142.573 Y163.488 E11.30097
G1 X142.26 Y163.321 E11.31336
G1 X142.245 Y163.312 E11.31397
G1 X142.046 Y163.184 E11.32223
G1 X140.339 Y161.991 E11.39496
G1 X140.163 Y161.859 E11.40265
G1 X140.148 Y161.847 E11.40332
G1 X139.868 Y161.596 E11.41645
G1 X138.403 Y160.131 E11.4888
G1 X138.112 Y159.8 E11.5042
G1 X138.011 Y159.663 E11.51014
G1 X136.814 Y157.952 E11.58306
G1 X136.637 Y157.67 E11.59469
G1 X136.628 Y157.654 E11.59533
G1 X136.507 Y157.419 E11.60456
G1 X135.636 Y155.544 E11.67677
G1 X135.551 Y155.344 E11.68435
G1 X135.544 Y155.326 E11.68503
G1 X135.427 Y154.966 E11.69825
G1 X134.983 Y153.292 E11.75873
G1 X134.86 Y153.3 E11.76304
G1 X133.365 Y153.299 E11.81525
G1 X132.845 Y153.259 E11.83346
G1 X132.338 Y153.139 E11.85166
G1 X131.855 Y152.944 E11.86985
G1 X131.407 Y152.677 E11.88806
G1 X130.971 Y152.295 E11.9083
G1 X130.967 Y152.297 E11.90846
G1 X130.816 Y152.338 E11.91392
G1 X130.543 Y152.586 E11.9268
G1 X130.108 Y152.873 E11.945
G1 X129.634 Y153.09 E11.96321
G1 X129.133 Y153.232 E11.9814
G1 X128.46 Y153.299 E12.00502
G1 X125.417 Y153.299 E12.11129
G1 X124.933 Y153.262 E12.12824
G1 X124.5 Y153.299 E12.14342
G1 X116.36 Y153.299 E12.42769
G1 X115.84 Y153.259 E12.4459
G1 X115.333 Y153.14 E12.46409
G1 X114.85 Y152.945 E12.48228
G1 X114.402 Y152.679 E12.50048
G1 X113.956 Y152.303 E12.52085
G1 X113.839 Y152.186 E12.52663
G1 X113.5 Y151.79 E12.54483
G1 X113.225 Y151.348 E12.56301
G1 X113.021 Y150.868 E12.58123
G1 X112.893 Y150.363 E12.59942
G1 X112.843 Y149.782 E12.61979
G1 X112.843 Y147.648 E12.69431
G1 X112.883 Y147.128 E12.71253
G1 X113.002 Y146.621 E12.73071
G1 X113.197 Y146.138 E12.7489
G1 X113.463 Y145.69 E12.7671
G1 X113.766 Y145.331 E12.78351
G0 F1080 X113.839 Y145.244
G0 X113.956 Y145.127
G0 X114.352 Y144.788
G0 F6000 X114.612 Y145.093
G1 F1200 X115.032 Y144.841 E12.80061
G1 X115.487 Y144.661 E12.8177
G1 X115.965 Y144.557 E12.83478
G1 X116.36 Y144.531 E12.84861
G1 X121.617 Y144.531 E13.0322
G1 X121.617 Y142.434 E13.10543
G1 X121.657 Y141.946 E13.12253
G1 X121.776 Y141.471 E13.13963
G1 X121.97 Y141.022 E13.15671
G1 X122.235 Y140.61 E13.17382
G1 X122.496 Y140.313 E13.18763
G1 X122.625 Y140.184 E13.194
G1 X122.998 Y139.867 E13.2111
G1 X123.418 Y139.615 E13.2282
G1 X123.873 Y139.435 E13.24529
G1 X124.351 Y139.331 E13.26237
G1 X124.744 Y139.305 E13.27613
G1 X126.576 Y139.304 E13.34011
G1 X127.064 Y139.344 E13.35721
G1 X127.443 Y139.438 E13.37084
G1 X127.526 Y139.408 E13.37393
G1 X128.008 Y139.278 E13.39136
G1 X128.046 Y139.271 E13.39271
G1 X128.589 Y139.221 E13.41175
G1 X129.765 Y139.221 E13.45282
G1 X130.308 Y139.271 E13.47187
G1 X130.346 Y139.278 E13.47322
G1 X130.827 Y139.408 E13.49062
G1 X131.94 Y139.812 E13.53197
G1 X132.184 Y139.924 E13.54134
G1 X132.345 Y139.798 E13.54848
G1 X132.774 Y139.563 E13.56557
G1 X133.236 Y139.402 E13.58265
G1 X133.718 Y139.317 E13.59975
G1 X133.992 Y139.305 E13.60932
G1 X135.629 Y139.305 E13.66649
G1 X136.087 Y139.343 E13.68254
G1 X136.119 Y139.335 E13.68369
G1 X136.565 Y139.301 E13.69932
G1 X137.288 Y139.3 E13.72456
G1 X139.554 Y139.286 E13.8037
G1 X140.158 Y138.684 E13.83348
G1 X140.403 Y138.464 E13.84498
G1 X140.418 Y138.452 E13.84565
G1 X140.574 Y138.336 E13.85244
G1 X142.279 Y137.145 E13.92508
G1 X142.454 Y137.032 E13.93235
G1 X142.469 Y137.023 E13.93296
G1 X142.743 Y136.876 E13.94382
G1 X144.62 Y136 E14.01616
G1 X144.986 Y135.858 E14.02987
G1 X145.132 Y135.815 E14.03518
G1 X147.138 Y135.278 E14.10771
G1 X147.421 Y135.217 E14.11782
G1 X147.439 Y135.214 E14.11845
G1 X147.673 Y135.184 E14.12669
G1 X149.737 Y135.005 E14.19904
G1 X149.996 Y134.994 E14.2081
G1 X150.012 Y134.994 E14.20866
G1 X150.269 Y135.005 E14.21764
G1 X152.325 Y135.182 E14.28971
G1 X152.843 Y135.273 E14.30808
G1 X154.881 Y135.818 E14.38175
G1 X155.375 Y135.998 E14.40011
G1 X157.258 Y136.877 E14.47268
G1 X157.446 Y136.973 E14.48006
G1 X157.464 Y136.983 E14.48077
G1 X157.728 Y137.148 E14.49165
G1 X159.429 Y138.339 E14.56417
G1 X159.582 Y138.453 E14.57083
G1 X159.597 Y138.465 E14.5715
G1 X159.842 Y138.685 E14.583
G1 X161.309 Y140.149 E14.65538
G1 X161.48 Y140.334 E14.66418
G1 X161.502 Y140.36 E14.66537
G1 X161.677 Y140.588 E14.6754
G1 X162.856 Y142.287 E14.74762
G1 X163.097 Y142.703 E14.76441
G1 X163.108 Y142.726 E14.7653
G1 X163.217 Y142.983 E14.77505
G1 X163.932 Y144.925 E14.84733
G1 X163.938 Y144.94 E14.84789
G1 X164.639 Y146.875 E14.91976
G1 X164.706 Y147.131 E14.929
