;FLAVOR:Marlin
M117 Time Left 1h57m58s
;Filament used: 3.38857m
;Layer height: 0.2
;MINX:123.477
;MINY:106.086
;MINZ:0.2
;MAXX:176.523
;MAXY:195.786
;MAXZ:27.2
;POSTPROCESSED
;Generated with Cura_SteamEngine 4.6.0
M140 S58
M105
M190 S58
M104 S195
M105
M109 S195
M82 ;absolute extrusion mode
M201 X500.00 Y500.00 Z100.00 E5000.00 ;Setup machine max acceleration
M203 X500.00 Y500.00 Z10.00 E50.00 ;Setup machine max feedrate
M204 P500.00 R1000.00 T500.00 ;Setup Print/Retract/Travel acceleration
M205 X8.00 Y8.00 Z0.40 E5.00 ;Setup Jerk
M220 S100 ;Reset Feedrate
M221 S100 ;Reset Flowrate

G28 ;Home

G92 E0 ;Reset Extruder
G1 Z2.0 F3000 ;Move Z Axis up
G1 X10.1 Y20 Z0.28 F5000.0 ;Move to start position
G1 X10.1 Y200.0 Z0.28 F1500.0 E15 ;Draw the first line
G1 X10.4 Y200.0 Z0.28 F5000.0 ;Move to side a little
G1 X10.4 Y20 Z0.28 F1500.0 E30 ;Draw the second line
G92 E0 ;Reset Extruder
G1 Z2.0 F3000 ;Move Z Axis up

G92 E0
G92 E0
G1 F1500 E-5.5
;LAYER_COUNT:136
;LAYER:0
M107
G0 F6000 X124.578 Y119.624 Z0.2
;TYPE:SKIRT
G1 F1500 E0
G1 F1200 X124.991 Y119.259 E0.01925
G1 X125.451 Y118.957 E0.03847
G1 X125.947 Y118.726 E0.05757
G1 X126.472 Y118.559 E0.07681
G1 X127.016 Y118.469 E0.09607
G1 X127.566 Y118.46 E0.11528
G1 X128.113 Y118.53 E0.13454
G1 X128.526 Y118.645 E0.14951
G1 X131.71 Y118.645 E0.26071
G1 X131.731 Y117.115 E0.31414
G1 X131.731 Y117.107 E0.31442
G1 X131.7 Y113.338 E0.44605
G1 X131.736 Y112.788 E0.4653
G1 X131.85 Y112.249 E0.48454
G1 X132.041 Y111.732 E0.50379
G1 X132.305 Y111.248 E0.52304
G1 X132.767 Y110.666 E0.54899
G1 X132.881 Y110.548 E0.55472
G1 X133.292 Y110.18 E0.57399
G1 X133.751 Y109.876 E0.59322
G1 X134.25 Y109.641 E0.61248
G1 X134.777 Y109.481 E0.63171
G1 X135.555 Y109.388 E0.65908
G1 X136.283 Y109.377 E0.6845
G1 X136.397 Y108.883 E0.70221
G1 X136.597 Y108.37 E0.72144
G1 X136.869 Y107.891 E0.74068
G1 X137.353 Y107.304 E0.76725
G1 X137.47 Y107.188 E0.773
G1 X137.888 Y106.83 E0.79222
G1 X138.354 Y106.536 E0.81146
G1 X138.857 Y106.312 E0.83069
G1 X139.388 Y106.163 E0.84995
G1 X140.145 Y106.087 E0.87652
G1 X143.181 Y106.087 E0.98255
G1 X143.731 Y106.127 E1.00181
G1 X143.948 Y106.175 E1.00957
G1 X144.117 Y106.135 E1.01563
G1 X144.72 Y106.087 E1.03676
G1 X155.299 Y106.086 E1.40621
G1 X155.848 Y106.126 E1.42543
G1 X156.062 Y106.173 E1.43309
G1 X156.352 Y106.116 E1.44341
G1 X156.817 Y106.087 E1.45968
G1 X159.854 Y106.086 E1.56574
G1 X160.403 Y106.126 E1.58496
G1 X160.941 Y106.245 E1.60421
G1 X161.457 Y106.44 E1.62347
G1 X161.938 Y106.708 E1.6427
G1 X162.482 Y107.14 E1.66696
G1 X162.598 Y107.251 E1.67257
G1 X162.968 Y107.66 E1.69183
G1 X163.274 Y108.118 E1.71106
G1 X163.511 Y108.616 E1.73033
G1 X163.674 Y109.142 E1.74956
G1 X163.702 Y109.378 E1.75786
G1 X164.437 Y109.388 E1.78353
G1 X164.986 Y109.436 E1.80277
G1 X165.522 Y109.562 E1.822
G1 X166.035 Y109.765 E1.84127
G1 X166.512 Y110.039 E1.86048
G1 X167.106 Y110.536 E1.88753
G1 X167.221 Y110.654 E1.89328
G1 X167.576 Y111.075 E1.91251
G1 X167.867 Y111.544 E1.93179
G1 X168.086 Y112.049 E1.95101
G1 X168.23 Y112.581 E1.97026
G1 X168.3 Y113.335 E1.99671
G1 X168.27 Y117.185 E2.13116
G1 X168.277 Y117.467 E2.14102
G1 X168.278 Y117.505 E2.14234
G1 X168.294 Y118.644 E2.18212
G1 X171.458 Y118.644 E2.29262
G1 X171.81 Y118.543 E2.30541
G1 X172.356 Y118.468 E2.32466
G1 X172.907 Y118.474 E2.3439
G1 X173.713 Y118.63 E2.37257
G1 X173.82 Y118.663 E2.37648
G1 X174.333 Y118.863 E2.39571
G1 X174.812 Y119.135 E2.41495
G1 X175.247 Y119.474 E2.43421
G1 X175.628 Y119.872 E2.45345
G1 X175.948 Y120.321 E2.4727
G1 X176.199 Y120.811 E2.49193
G1 X176.376 Y121.333 E2.51118
G1 X176.495 Y122.109 E2.5386
G1 X176.522 Y122.728 E2.56024
G1 X176.523 Y122.951 E2.56802
G1 X176.475 Y123.573 E2.58981
G1 X176.458 Y123.678 E2.59353
G1 X176.445 Y123.987 E2.60433
G1 X176.422 Y124.251 E2.61358
G1 X176.371 Y124.622 E2.62666
G1 X176.302 Y124.988 E2.63967
G1 X176.278 Y125.307 E2.65084
G1 X176.241 Y125.538 E2.65901
G1 X176.22 Y125.814 E2.66868
G1 X176.181 Y126.06 E2.67737
G1 X176.157 Y126.374 E2.68837
G1 X176.126 Y126.572 E2.69537
G1 X176.091 Y127.005 E2.71054
G1 X176.055 Y127.224 E2.71829
G1 X176.021 Y127.626 E2.73238
G1 X175.992 Y127.79 E2.7382
G1 X175.978 Y127.957 E2.74405
G1 X175.928 Y128.316 E2.75671
G1 X175.904 Y128.627 E2.7676
G1 X175.863 Y128.881 E2.77659
G1 X175.839 Y129.183 E2.78717
G1 X175.801 Y129.411 E2.79524
G1 X175.776 Y129.737 E2.80666
G1 X175.74 Y129.962 E2.81462
G1 X175.713 Y130.303 E2.82656
G1 X175.676 Y130.53 E2.83459
G1 X175.65 Y130.867 E2.8464
G1 X175.612 Y131.102 E2.85471
G1 X175.585 Y131.44 E2.86655
G1 X175.548 Y131.663 E2.87445
G1 X175.523 Y131.986 E2.88576
G1 X175.485 Y132.221 E2.89408
G1 X175.458 Y132.56 E2.90595
G1 X175.419 Y132.798 E2.91437
G1 X175.395 Y133.105 E2.92513
G1 X175.357 Y133.335 E2.93327
G1 X175.332 Y133.662 E2.94472
G1 X175.295 Y133.893 E2.95289
G1 X175.273 Y134.184 E2.96308
G1 X175.219 Y134.536 E2.97552
G1 X175.192 Y134.832 E2.9859
G1 X175.147 Y135.063 E2.99412
G1 X175.125 Y135.376 E3.00508
G1 X175.118 Y135.423 E3.00674
G1 X175.08 Y135.911 E3.02383
G1 X175.043 Y136.137 E3.03183
G1 X175.017 Y136.477 E3.04374
G1 X174.978 Y136.716 E3.05219
G1 X174.952 Y137.046 E3.06376
G1 X174.914 Y137.274 E3.07183
G1 X174.89 Y137.579 E3.08251
G1 X174.852 Y137.812 E3.09076
G1 X174.827 Y138.136 E3.10211
G1 X174.784 Y138.4 E3.11145
G1 X174.758 Y138.718 E3.12259
G1 X174.727 Y138.896 E3.1289
G1 X174.702 Y139.245 E3.14112
G1 X174.658 Y139.53 E3.15119
G1 X174.635 Y139.821 E3.16138
G1 X174.596 Y140.056 E3.1697
G1 X174.575 Y140.338 E3.17958
G1 X174.537 Y140.575 E3.18796
G1 X174.509 Y140.931 E3.20043
G1 X174.472 Y141.158 E3.20846
G1 X174.444 Y141.504 E3.22059
G1 X174.409 Y141.715 E3.22806
G1 X174.383 Y142.051 E3.23983
G1 X174.348 Y142.264 E3.24736
G1 X174.322 Y142.607 E3.25938
G1 X174.28 Y142.872 E3.26875
G1 X174.256 Y143.174 E3.27933
G1 X174.215 Y143.42 E3.28804
G1 X174.193 Y143.71 E3.29819
G1 X174.159 Y143.922 E3.30569
G1 X174.132 Y144.271 E3.31792
G1 X174.095 Y144.504 E3.32616
G1 X174.068 Y144.851 E3.33831
G1 X174.03 Y145.087 E3.34666
G1 X174.011 Y145.347 E3.35576
G1 X173.968 Y145.63 E3.36576
G1 X173.938 Y145.981 E3.37806
G1 X173.902 Y146.193 E3.38557
G1 X173.877 Y146.511 E3.39671
G1 X173.839 Y146.747 E3.40506
G1 X173.812 Y147.083 E3.41683
G1 X173.775 Y147.304 E3.42466
G1 X173.748 Y147.649 E3.43674
G1 X173.716 Y147.845 E3.44368
G1 X173.69 Y148.189 E3.45573
G1 X173.65 Y148.444 E3.46474
G1 X173.623 Y148.789 E3.47683
G1 X173.586 Y149.012 E3.48472
G1 X173.561 Y149.336 E3.49607
G1 X173.523 Y149.572 E3.50442
G1 X173.496 Y149.908 E3.51619
G1 X173.457 Y150.145 E3.52458
G1 X173.433 Y150.452 E3.53533
G1 X173.395 Y150.687 E3.54364
G1 X173.372 Y150.989 E3.55422
G1 X173.334 Y151.23 E3.56274
G1 X173.306 Y151.578 E3.57493
G1 X173.268 Y151.806 E3.58301
G1 X173.244 Y152.12 E3.59401
G1 X173.207 Y152.346 E3.602
G1 X173.181 Y152.684 E3.61384
G1 X173.144 Y152.914 E3.62198
G1 X173.118 Y153.245 E3.63357
G1 X173.08 Y153.477 E3.64178
G1 X173.055 Y153.804 E3.65324
G1 X173.016 Y154.043 E3.66169
G1 X172.99 Y154.373 E3.67325
G1 X172.953 Y154.595 E3.68111
G1 X172.928 Y154.919 E3.69246
G1 X172.89 Y155.154 E3.70078
G1 X172.865 Y155.477 E3.71209
G1 X172.826 Y155.718 E3.72062
G1 X172.804 Y156.009 E3.73081
G1 X172.763 Y156.265 E3.73986
G1 X172.736 Y156.602 E3.75167
G1 X172.699 Y156.822 E3.75946
G1 X172.674 Y157.144 E3.77074
G1 X172.637 Y157.37 E3.77874
G1 X172.611 Y157.708 E3.79057
G1 X172.574 Y157.938 E3.79871
G1 X172.548 Y158.269 E3.81031
G1 X172.508 Y158.513 E3.81894
G1 X172.483 Y158.833 E3.83015
G1 X172.448 Y159.045 E3.83765
G1 X172.423 Y159.374 E3.84918
G1 X172.384 Y159.621 E3.85791
G1 X172.359 Y159.94 E3.86908
G1 X172.322 Y160.165 E3.87705
G1 X172.296 Y160.503 E3.88889
G1 X172.258 Y160.739 E3.89723
G1 X172.231 Y161.076 E3.90904
G1 X172.195 Y161.294 E3.91676
G1 X172.169 Y161.628 E3.92846
G1 X172.13 Y161.868 E3.93695
G1 X172.106 Y162.177 E3.94777
G1 X172.067 Y162.418 E3.9563
G1 X172.043 Y162.729 E3.96719
G1 X172.001 Y162.991 E3.97646
G1 X171.978 Y163.277 E3.98648
G1 X171.944 Y163.483 E3.99377
G1 X171.918 Y163.824 E4.00571
G1 X171.88 Y164.063 E4.01416
G1 X171.852 Y164.415 E4.0265
G1 X171.813 Y164.653 E4.03492
G1 X171.79 Y164.946 E4.04518
G1 X171.751 Y165.186 E4.05367
G1 X171.725 Y165.518 E4.0653
G1 X171.689 Y165.737 E4.07306
G1 X171.655 Y166.142 E4.08725
G1 X171.648 Y166.184 E4.08874
G1 X171.646 Y166.311 E4.09317
G1 X171.611 Y166.594 E4.10313
G1 X171.582 Y166.775 E4.10953
G1 X171.579 Y166.907 E4.11414
G1 X171.521 Y167.316 E4.12857
G1 X171.52 Y167.408 E4.13178
G1 X171.436 Y167.953 E4.15104
G1 X171.274 Y168.48 E4.1703
G1 X171.037 Y168.977 E4.18952
G1 X170.731 Y169.435 E4.20876
G1 X170.362 Y169.845 E4.22802
G1 X169.938 Y170.196 E4.24725
G1 X169.467 Y170.483 E4.26651
G1 X169.004 Y170.679 E4.28407
G1 X169.02 Y171.833 E4.32437
G1 X169.035 Y172.274 E4.33978
G1 X169.035 Y172.295 E4.34052
G1 X169.612 Y191.638 E5.01633
G1 X169.589 Y192.188 E5.03556
G1 X169.421 Y192.946 E5.06267
G1 X169.368 Y193.106 E5.06856
G1 X169.158 Y193.615 E5.08779
G1 X168.875 Y194.088 E5.10704
G1 X168.528 Y194.516 E5.12628
G1 X168.122 Y194.889 E5.14554
G1 X167.667 Y195.199 E5.16476
G1 X167.373 Y195.352 E5.17634
G1 X167.215 Y195.426 E5.18243
G1 X166.7 Y195.623 E5.20169
G1 X165.919 Y195.772 E5.22945
G1 X165.907 Y195.773 E5.22987
G1 X165.593 Y195.786 E5.24085
G1 X158.008 Y195.784 E5.50574
G1 X134.392 Y195.786 E6.33049
G1 X133.842 Y195.746 E6.34974
G1 X133.232 Y195.605 E6.37161
G1 X133.129 Y195.572 E6.37539
G1 X132.617 Y195.366 E6.39466
G1 X132.141 Y195.089 E6.41389
G1 X131.71 Y194.745 E6.43315
G1 X131.334 Y194.343 E6.45238
G1 X130.963 Y193.792 E6.47557
G1 X130.864 Y193.613 E6.48272
G1 X130.633 Y193.113 E6.50195
G1 X130.476 Y192.585 E6.52119
G1 X130.42 Y192.257 E6.53281
G1 X130.415 Y192.218 E6.53418
G1 X130.386 Y191.622 E6.55502
G1 X130.975 Y171.876 E7.24492
G1 X130.986 Y171.716 E7.25052
G1 X131 Y170.663 E7.2873
G1 X130.781 Y170.589 E7.29537
G1 X130.291 Y170.338 E7.3146
G1 X129.841 Y170.019 E7.33386
G1 X129.443 Y169.638 E7.3531
G1 X129.104 Y169.204 E7.37234
G1 X128.831 Y168.725 E7.39159
G1 X128.63 Y168.212 E7.41083
G1 X128.506 Y167.676 E7.43005
G1 X128.484 Y167.408 E7.43944
G1 X128.455 Y167.236 E7.44553
G1 X128.401 Y166.622 E7.46705
G1 X128.386 Y166.382 E7.47545
G1 X128.34 Y166.123 E7.48464
G1 X128.307 Y165.725 E7.49859
G1 X128.279 Y165.556 E7.50457
G1 X128.249 Y165.171 E7.51805
G1 X128.216 Y164.978 E7.52489
G1 X128.188 Y164.637 E7.53684
G1 X128.148 Y164.39 E7.54558
G1 X128.127 Y164.117 E7.55514
G1 X128.086 Y163.868 E7.56395
G1 X128.057 Y163.488 E7.57726
G1 X128.025 Y163.302 E7.58385
G1 X128.004 Y163.046 E7.59283
G1 X127.957 Y162.76 E7.60295
G1 X127.93 Y162.41 E7.61521
G1 X127.892 Y162.17 E7.62369
G1 X127.868 Y161.85 E7.6349
G1 X127.834 Y161.648 E7.64205
G1 X127.806 Y161.295 E7.65442
G1 X127.77 Y161.082 E7.66196
G1 X127.742 Y160.725 E7.67447
G1 X127.706 Y160.51 E7.68208
G1 X127.678 Y160.163 E7.69424
G1 X127.642 Y159.938 E7.7022
G1 X127.616 Y159.602 E7.71397
G1 X127.581 Y159.395 E7.7213
G1 X127.555 Y159.071 E7.73265
G1 X127.517 Y158.844 E7.74069
G1 X127.49 Y158.503 E7.75263
G1 X127.452 Y158.269 E7.76091
G1 X127.427 Y157.954 E7.77195
G1 X127.391 Y157.737 E7.77963
G1 X127.363 Y157.385 E7.79196
G1 X127.326 Y157.161 E7.79989
G1 X127.299 Y156.811 E7.81215
G1 X127.263 Y156.595 E7.8198
G1 X127.235 Y156.239 E7.83227
G1 X127.201 Y156.032 E7.83959
G1 X127.173 Y155.686 E7.85172
G1 X127.14 Y155.487 E7.85876
G1 X127.11 Y155.118 E7.87169
G1 X127.075 Y154.906 E7.8792
G1 X127.055 Y154.649 E7.8882
G1 X127.013 Y154.413 E7.89657
G1 X126.972 Y153.946 E7.91294
G1 X126.937 Y153.695 E7.92179
G1 X126.922 Y153.458 E7.93009
G1 X126.888 Y153.253 E7.93734
G1 X126.86 Y152.903 E7.9496
G1 X126.826 Y152.698 E7.95686
G1 X126.798 Y152.345 E7.96923
G1 X126.76 Y152.12 E7.9772
G1 X126.734 Y151.798 E7.98848
G1 X126.693 Y151.528 E7.99802
G1 X126.669 Y151.193 E8.00975
G1 X126.637 Y151.002 E8.01651
G1 X126.612 Y150.691 E8.0274
G1 X126.572 Y150.451 E8.0359
G1 X126.549 Y150.166 E8.04589
G1 X126.508 Y149.919 E8.05463
G1 X126.477 Y149.536 E8.06805
G1 X126.44 Y149.294 E8.0766
G1 X126.419 Y149 E8.08689
G1 X126.383 Y148.784 E8.09454
G1 X126.353 Y148.408 E8.10771
G1 X126.319 Y148.194 E8.11528
G1 X126.296 Y147.885 E8.1261
G1 X126.259 Y147.663 E8.13396
G1 X126.229 Y147.285 E8.1472
G1 X126.191 Y147.04 E8.15586
G1 X126.164 Y146.679 E8.16851
G1 X126.135 Y146.504 E8.1747
G1 X126.111 Y146.203 E8.18525
G1 X126.07 Y145.958 E8.19392
G1 X126.046 Y145.655 E8.20454
G1 X126.009 Y145.453 E8.21171
G1 X125.981 Y145.131 E8.223
G1 X125.934 Y144.847 E8.23305
G1 X125.907 Y144.504 E8.24506
G1 X125.872 Y144.295 E8.25246
G1 X125.845 Y143.952 E8.26448
G1 X125.808 Y143.734 E8.2722
G1 X125.782 Y143.408 E8.28362
G1 X125.741 Y143.148 E8.29282
G1 X125.718 Y142.845 E8.30343
G1 X125.683 Y142.634 E8.3109
G1 X125.659 Y142.328 E8.32162
G1 X125.619 Y142.092 E8.32998
G1 X125.591 Y141.743 E8.3422
G1 X125.555 Y141.524 E8.34995
G1 X125.527 Y141.167 E8.36246
G1 X125.491 Y140.947 E8.37025
G1 X125.464 Y140.597 E8.3825
G1 X125.43 Y140.393 E8.38973
G1 X125.406 Y140.091 E8.40031
G1 X125.366 Y139.852 E8.40877
G1 X125.339 Y139.513 E8.42065
G1 X125.301 Y139.278 E8.42896
G1 X125.275 Y138.943 E8.44069
G1 X125.24 Y138.736 E8.44803
G1 X125.212 Y138.385 E8.46032
G1 X125.172 Y138.119 E8.46972
G1 X125.149 Y137.801 E8.48085
G1 X125.117 Y137.604 E8.48782
G1 X125.09 Y137.258 E8.49994
G1 X125.054 Y137.036 E8.5078
G1 X125.031 Y136.743 E8.51806
G1 X124.996 Y136.553 E8.52481
G1 X124.966 Y136.218 E8.53655
G1 X124.92 Y135.935 E8.54657
G1 X124.892 Y135.575 E8.55918
G1 X124.856 Y135.353 E8.56703
G1 X124.829 Y135.006 E8.57919
G1 X124.795 Y134.802 E8.58641
G1 X124.767 Y134.455 E8.59857
G1 X124.729 Y134.225 E8.60671
G1 X124.707 Y133.947 E8.61645
G1 X124.665 Y133.683 E8.62578
G1 X124.638 Y133.334 E8.63801
G1 X124.605 Y133.133 E8.64512
G1 X124.578 Y132.792 E8.65707
G1 X124.541 Y132.568 E8.66499
G1 X124.514 Y132.223 E8.67708
G1 X124.479 Y132.015 E8.68445
G1 X124.456 Y131.72 E8.69478
G1 X124.415 Y131.478 E8.70335
G1 X124.387 Y131.127 E8.71565
G1 X124.35 Y130.898 E8.72375
G1 X124.324 Y130.57 E8.73524
G1 X124.288 Y130.348 E8.74309
G1 X124.263 Y130.034 E8.7541
G1 X124.226 Y129.811 E8.76199
G1 X124.198 Y129.465 E8.77411
G1 X124.161 Y129.238 E8.78214
G1 X124.131 Y128.854 E8.7956
G1 X124.099 Y128.662 E8.80239
G1 X124.072 Y128.329 E8.81406
G1 X124.035 Y128.108 E8.82189
G1 X124.009 Y127.779 E8.83341
G1 X123.971 Y127.55 E8.84152
G1 X123.945 Y127.225 E8.85291
G1 X123.906 Y126.982 E8.8615
G1 X123.875 Y126.58 E8.87558
G1 X123.845 Y126.398 E8.88202
G1 X123.819 Y126.067 E8.89362
G1 X123.783 Y125.852 E8.90123
G1 X123.761 Y125.576 E8.9109
G1 X123.718 Y125.313 E8.92021
G1 X123.681 Y124.851 E8.93639
G1 X123.656 Y124.699 E8.94177
G1 X123.631 Y124.385 E8.95277
G1 X123.59 Y124.131 E8.96176
G1 X123.56 Y123.745 E8.97528
G1 X123.529 Y123.559 E8.98187
G1 X123.477 Y122.914 E9.00446
G1 X123.482 Y122.519 E9.01826
G1 X123.502 Y122.098 E9.03298
G1 X123.568 Y121.551 E9.05222
G1 X123.713 Y121.019 E9.07148
G1 X123.932 Y120.514 E9.0907
G1 X124.091 Y120.257 E9.10125
G0 F1080 X124.223 Y120.045
G0 X124.578 Y119.624
G0 F6000 X124.965 Y119.805
G1 F1200 X125.371 Y119.477 E9.11948
G1 X126.035 Y119.121 E9.14579
G1 X126.095 Y119.097 E9.14805
G1 X126.593 Y118.941 E9.16628
G1 X127.108 Y118.863 E9.18447
G1 X127.629 Y118.865 E9.20266
G1 X128.144 Y118.946 E9.22087
G1 X128.453 Y119.045 E9.2322
G1 X131.753 Y119.045 E9.34745
G1 X132.104 Y119.072 E9.35974
G1 X132.131 Y117.121 E9.42788
G1 X132.131 Y117.112 E9.4282
G1 X132.1 Y113.334 E9.56014
G1 X132.136 Y112.814 E9.57834
G1 X132.25 Y112.306 E9.59653
G1 X132.441 Y111.821 E9.61473
G1 X132.704 Y111.371 E9.63293
G1 X133.055 Y110.944 E9.65224
G1 X133.169 Y110.826 E9.65797
G1 X133.559 Y110.48 E9.67617
G1 X133.997 Y110.197 E9.69438
G1 X134.473 Y109.985 E9.71258
G1 X134.976 Y109.848 E9.73079
G1 X135.561 Y109.788 E9.75133
G1 X136.645 Y109.771 E9.78919
G1 X136.673 Y109.453 E9.80034
G1 X136.796 Y108.947 E9.81852
G1 X136.995 Y108.466 E9.8367
G1 X137.266 Y108.02 E9.85493
G1 X137.634 Y107.589 E9.87472
G1 X137.751 Y107.473 E9.88047
G1 X138.148 Y107.135 E9.89868
G1 X138.592 Y106.862 E9.91688
G1 X139.073 Y106.66 E9.9351
G1 X139.579 Y106.535 E9.9533
G1 X140.145 Y106.487 E9.97314
