;FLAVOR:Marlin
M117 Time Left 0h37m29s
;Filament used: 1.21535m
;Layer height: 0.2
;MINX:117.343
;MINY:127.009
;MINZ:0.2
;MAXX:182.657
;MAXY:174.781
;MAXZ:9.4
;POSTPROCESSED
;Generated with Cura_SteamEngine 4.6.0
M140 S58
M105
M190 S58
M104 S195
M105
M109 S195
M82 ;absolute extrusion mode
M201 X500.00 Y500.00 Z100.00 E5000.00 ;Setup machine max acceleration
M203 X500.00 Y500.00 Z10.00 E50.00 ;Setup machine max feedrate
M204 P500.00 R1000.00 T500.00 ;Setup Print/Retract/Travel acceleration
M205 X8.00 Y8.00 Z0.40 E5.00 ;Setup Jerk
M220 S100 ;Reset Feedrate
M221 S100 ;Reset Flowrate

G28 ;Home

G92 E0 ;Reset Extruder
G1 Z2.0 F3000 ;Move Z Axis up
G1 X10.1 Y20 Z0.28 F5000.0 ;Move to start position
G1 X10.1 Y200.0 Z0.28 F1500.0 E15 ;Draw the first line
G1 X10.4 Y200.0 Z0.28 F5000.0 ;Move to side a little
G1 X10.4 Y20 Z0.28 F1500.0 E30 ;Draw the second line
G92 E0 ;Reset Extruder
G1 Z2.0 F3000 ;Move Z Axis up

G92 E0
G92 E0
G1 F1500 E-5.5
;LAYER_COUNT:48
;LAYER:0
M107
G0 F6000 X118.573 Y128.123 Z0.2
;TYPE:SKIRT
G1 F1500 E0
G1 F1200 X118.99 Y127.763 E0.01924
G1 X119.454 Y127.466 E0.03848
G1 X119.957 Y127.24 E0.05774
G1 X120.487 Y127.089 E0.07698
G1 X121.259 Y127.01 E0.10408
G1 X127.151 Y127.009 E0.30985
G1 X127.701 Y127.049 E0.32911
G1 X128.239 Y127.168 E0.34835
G1 X128.754 Y127.363 E0.36758
G1 X129.236 Y127.631 E0.38684
G1 X129.839 Y128.122 E0.414
G1 X129.956 Y128.239 E0.41978
G1 X130.316 Y128.656 E0.43902
G1 X130.613 Y129.12 E0.45826
G1 X130.839 Y129.623 E0.47752
G1 X130.99 Y130.153 E0.49676
G1 X131.069 Y130.926 E0.5239
G1 X131.069 Y132.202 E0.56846
G1 X132.608 Y137.327 E0.75534
G1 X132.623 Y137.369 E0.75689
G1 X132.942 Y138.47 E0.79693
G1 X140.286 Y142.736 E1.09353
G1 X144.781 Y144.958 E1.26864
G1 X150.001 Y146.006 E1.45458
G1 X155.222 Y144.957 E1.64056
G1 X159.716 Y142.734 E1.81565
G1 X167.058 Y138.472 E2.11213
G1 X167.376 Y137.37 E2.15219
G1 X167.39 Y137.329 E2.1537
G1 X168.931 Y132.201 E2.3407
G1 X168.931 Y130.927 E2.38519
G1 X168.971 Y130.377 E2.40445
G1 X169.09 Y129.839 E2.42369
G1 X169.286 Y129.324 E2.44293
G1 X169.554 Y128.843 E2.46216
G1 X170.044 Y128.24 E2.4893
G1 X170.161 Y128.123 E2.49508
G1 X170.578 Y127.763 E2.51432
G1 X171.042 Y127.466 E2.53356
G1 X171.545 Y127.24 E2.55281
G1 X172.075 Y127.089 E2.57206
G1 X172.848 Y127.01 E2.5992
G1 X178.74 Y127.01 E2.80496
G1 X179.29 Y127.05 E2.82422
G1 X179.828 Y127.169 E2.84346
G1 X180.343 Y127.365 E2.86271
G1 X180.824 Y127.633 E2.88194
G1 X181.427 Y128.123 E2.90907
G1 X181.544 Y128.24 E2.91485
G1 X181.904 Y128.657 E2.93409
G1 X182.201 Y129.121 E2.95333
G1 X182.427 Y129.624 E2.97259
G1 X182.578 Y130.154 E2.99183
G1 X182.657 Y130.927 E3.01897
G1 X182.657 Y132.111 E3.06032
G1 X182.617 Y132.661 E3.07958
G1 X182.498 Y133.199 E3.09882
G1 X182.302 Y133.714 E3.11806
G1 X182.034 Y134.195 E3.13729
G1 X181.544 Y134.798 E3.16443
G1 X181.427 Y134.915 E3.17021
G1 X181.01 Y135.275 E3.18944
G1 X180.546 Y135.572 E3.20868
G1 X180.139 Y135.755 E3.22427
G1 X180.139 Y140.964 E3.40618
G1 X180.099 Y141.514 E3.42544
G1 X179.98 Y142.052 E3.44468
G1 X179.797 Y142.54 E3.46289
G1 X179.761 Y142.619 E3.46592
G1 X179.497 Y143.102 E3.48514
G1 X179.165 Y143.542 E3.50439
G1 X178.788 Y143.918 E3.52299
G1 X172.978 Y148.94 E3.79118
G1 X172.68 Y149.174 E3.80441
G1 X168.385 Y152.412 E3.99226
G1 X167.96 Y152.69 E4.01
G1 X167.944 Y152.699 E4.01064
G1 X167.721 Y152.815 E4.01941
G1 X157.795 Y157.565 E4.40371
G1 X157.777 Y158.151 E4.42418
G1 X157.586 Y159.742 E4.48015
G1 X157.564 Y160.003 E4.48929
G1 X157.543 Y160.179 E4.49548
G1 X157.544 Y160.179 E4.49552
G1 X156.436 Y170.103 E4.84425
G1 X156.432 Y170.13 E4.8452
G1 X156.345 Y170.861 E4.87091
G1 X156.345 Y170.864 E4.87102
G1 X156.305 Y171.414 E4.89027
G1 X156.186 Y171.952 E4.90952
G1 X155.99 Y172.467 E4.92876
G1 X155.722 Y172.948 E4.94799
G1 X155.232 Y173.551 E4.97512
G1 X155.115 Y173.668 E4.9809
G1 X154.698 Y174.028 E5.00014
G1 X154.234 Y174.325 E5.01938
G1 X153.731 Y174.551 E5.03864
G1 X153.201 Y174.702 E5.05789
G1 X152.428 Y174.781 E5.08502
G1 X147.572 Y174.781 E5.25461
G1 X147.022 Y174.741 E5.27387
G1 X146.484 Y174.622 E5.29311
G1 X145.969 Y174.426 E5.31235
G1 X145.488 Y174.158 E5.33158
G1 X144.885 Y173.668 E5.35872
G1 X144.768 Y173.551 E5.3645
G1 X144.408 Y173.134 E5.38374
G1 X144.111 Y172.67 E5.40298
G1 X143.885 Y172.167 E5.42223
G1 X143.734 Y171.637 E5.44148
G1 X143.655 Y170.864 E5.46862
G1 X143.655 Y170.807 E5.47061
G1 X143.476 Y169.181 E5.52773
G1 X143.443 Y168.974 E5.53505
G1 X143.251 Y167.243 E5.59588
G1 X143.233 Y166.954 E5.60599
G1 X143.181 Y166.466 E5.62313
G1 X143.15 Y166.091 E5.63627
G1 X142.438 Y160.046 E5.84884
G1 X142.431 Y159.884 E5.8545
G1 X142.226 Y158.128 E5.91624
G1 X142.202 Y157.577 E5.9355
G1 X142.204 Y157.562 E5.93603
G1 X132.279 Y152.815 E6.32025
G1 X132.056 Y152.699 E6.32903
G1 X132.04 Y152.69 E6.32967
G1 X131.616 Y152.413 E6.34736
G1 X127.228 Y149.106 E6.53925
G1 X126.951 Y148.878 E6.55178
G1 X126.934 Y148.864 E6.55254
G1 X121.212 Y143.918 E6.81668
G1 X120.822 Y143.528 E6.83594
G1 X120.493 Y143.086 E6.85518
G1 X120.239 Y142.619 E6.87375
G1 X120.203 Y142.54 E6.87678
G1 X120.012 Y142.023 E6.89603
G1 X119.897 Y141.484 E6.91528
G1 X119.861 Y140.964 E6.93348
G1 X119.861 Y135.752 E7.1155
G1 X119.657 Y135.674 E7.12313
G1 X119.176 Y135.406 E7.14236
G1 X118.573 Y134.916 E7.16949
G1 X118.456 Y134.799 E7.17527
G1 X118.096 Y134.382 E7.19451
G1 X117.799 Y133.918 E7.21375
G1 X117.573 Y133.415 E7.23301
G1 X117.422 Y132.885 E7.25225
G1 X117.343 Y132.112 E7.27939
G1 X117.343 Y130.927 E7.32077
G1 X117.383 Y130.377 E7.34003
G1 X117.502 Y129.839 E7.35927
G1 X117.698 Y129.324 E7.37852
G1 X117.966 Y128.843 E7.39775
G1 X118.056 Y128.733 E7.40271
G0 F1080 X118.456 Y128.24
G0 X118.573 Y128.123
G0 F6000 X118.856 Y128.406
G1 F1200 X119.252 Y128.067 E7.42092
G1 X119.694 Y127.792 E7.4391
G1 X120.174 Y127.588 E7.45731
G1 X120.679 Y127.46 E7.4755
G1 X121.259 Y127.41 E7.49583
G1 X127.151 Y127.409 E7.7016
G1 X127.671 Y127.449 E7.71982
G1 X128.178 Y127.568 E7.738
G1 X128.662 Y127.763 E7.75623
G1 X129.11 Y128.029 E7.77442
G1 X129.556 Y128.405 E7.79479
G1 X129.673 Y128.522 E7.80057
G1 X130.012 Y128.918 E7.81878
G1 X130.287 Y129.36 E7.83696
G1 X130.491 Y129.84 E7.85517
G1 X130.619 Y130.345 E7.87336
G1 X130.669 Y130.926 E7.89373
G1 X130.669 Y132.26 E7.94032
G1 X132.239 Y137.48 E8.13068
G1 X132.602 Y138.736 E8.17634
G1 X140.098 Y143.09 E8.47908
G1 X144.65 Y145.34 E8.65641
G1 X150.003 Y146.414 E8.84708
G1 X155.349 Y145.34 E9.03751
G1 X159.91 Y143.085 E9.2152
G1 X167.398 Y138.737 E9.51759
G1 X167.761 Y137.481 E9.56325
G1 X167.773 Y137.445 E9.56458
G1 X169.331 Y132.26 E9.75365
G1 X169.331 Y130.927 E9.8002
G1 X169.371 Y130.407 E9.81842
G1 X169.49 Y129.9 E9.8366
G1 X169.685 Y129.417 E9.8548
G1 X169.951 Y128.969 E9.87299
G1 X170.327 Y128.523 E9.89336
G1 X170.444 Y128.406 E9.89914
G1 X170.84 Y128.067 E9.91735
G1 X171.282 Y127.792 E9.93553
G1 X171.762 Y127.588 E9.95374
G1 X172.267 Y127.46 E9.97193
G1 X172.848 Y127.41 E9.9923
G1 X178.74 Y127.41 E10.19807
G1 X179.26 Y127.45 E10.21628
G1 X179.767 Y127.569 E10.23447
G1 X180.25 Y127.764 E10.25266
G1 X180.698 Y128.03 E10.27085
G1 X181.144 Y128.406 E10.29123
G1 X181.261 Y128.523 E10.297
G1 X181.6 Y128.919 E10.31521
G1 X181.875 Y129.361 E10.33339
G1 X182.079 Y129.841 E10.3516
G1 X182.207 Y130.346 E10.3698
G1 X182.257 Y130.927 E10.39016
G1 X182.257 Y132.111 E10.43151
G1 X182.217 Y132.631 E10.44973
G1 X182.098 Y133.138 E10.46791
G1 X181.903 Y133.621 E10.4861
G1 X181.637 Y134.069 E10.5043
G1 X181.261 Y134.515 E10.52467
G1 X181.144 Y134.632 E10.53045
G1 X180.748 Y134.971 E10.54865
G1 X180.306 Y135.246 E10.56683
G1 X179.826 Y135.45 E10.58505
G1 X179.739 Y135.472 E10.58818
G1 X179.739 Y140.964 E10.77998
G1 X179.699 Y141.484 E10.79819
G1 X179.58 Y141.991 E10.81638
G1 X179.433 Y142.374 E10.83071
G1 X179.397 Y142.453 E10.83374
G1 X179.145 Y142.909 E10.85194
G1 X178.826 Y143.322 E10.87016
G1 X178.526 Y143.615 E10.8848
G1 X172.716 Y148.637 E11.153
G1 X172.467 Y148.834 E11.16409
G1 X168.144 Y152.093 E11.35316
G1 X167.764 Y152.341 E11.369
G1 X167.748 Y152.35 E11.36965
G1 X167.549 Y152.454 E11.37749
G1 X157.373 Y157.324 E11.77147
G1 X157.401 Y157.558 E11.7797
G1 X157.38 Y158.103 E11.79874
G1 X157.168 Y159.864 E11.86069
G1 X157.167 Y159.956 E11.8639
G1 X157.143 Y160.158 E11.871
G1 X156.038 Y170.058 E12.21889
G1 X155.945 Y170.839 E12.24636
G1 X155.945 Y170.864 E12.24723
G1 X155.905 Y171.384 E12.26544
G1 X155.786 Y171.891 E12.28363
G1 X155.591 Y172.374 E12.30182
G1 X155.325 Y172.822 E12.32002
G1 X154.949 Y173.268 E12.34039
G1 X154.832 Y173.385 E12.34617
G1 X154.436 Y173.724 E12.36437
G1 X153.994 Y173.999 E12.38255
G1 X153.514 Y174.203 E12.40077
G1 X153.009 Y174.331 E12.41896
G1 X152.428 Y174.381 E12.43933
G1 X147.572 Y174.381 E12.60891
G1 X147.052 Y174.341 E12.62713
G1 X146.545 Y174.222 E12.64531
G1 X146.062 Y174.027 E12.66351
G1 X145.614 Y173.761 E12.6817
G1 X145.168 Y173.385 E12.70207
G1 X145.051 Y173.268 E12.70785
G1 X144.712 Y172.872 E12.72606
G1 X144.437 Y172.43 E12.74424
G1 X144.233 Y171.95 E12.76245
G1 X144.105 Y171.445 E12.78064
G1 X144.055 Y170.864 E12.80101
G1 X144.055 Y170.791 E12.80356
G1 X143.859 Y169.009 E12.86617
G1 X143.841 Y168.928 E12.86907
G1 X143.651 Y167.218 E12.92915
G1 X143.633 Y166.93 E12.93923
G1 X143.58 Y166.432 E12.95672
G1 X143.55 Y166.071 E12.96937
G1 X142.835 Y159.999 E13.18289
G1 X142.829 Y159.849 E13.18813
G1 X142.623 Y158.082 E13.25026
G1 X142.602 Y157.561 E13.26847
G1 X142.63 Y157.322 E13.27687
G1 X132.452 Y152.454 E13.67088
G1 X132.252 Y152.35 E13.67875
G1 X132.236 Y152.341 E13.6794
G1 X131.857 Y152.093 E13.69521
G1 X127.469 Y148.786 E13.8871
G1 X127.211 Y148.574 E13.89876
G1 X127.196 Y148.561 E13.89946
G1 X121.474 Y143.615 E14.16359
G1 X121.107 Y143.245 E14.18179
G1 X120.8 Y142.823 E14.20002
G1 X120.603 Y142.453 E14.21466
G1 X120.567 Y142.374 E14.21769
G1 X120.388 Y141.884 E14.23591
G1 X120.286 Y141.373 E14.25411
G1 X120.261 Y140.964 E14.26842
G1 X120.261 Y135.477 E14.46004
G1 X120.233 Y135.47 E14.46105
G1 X119.75 Y135.275 E14.47924
G1 X119.302 Y135.009 E14.49743
G1 X118.856 Y134.633 E14.51781
G1 X118.739 Y134.516 E14.52358
G1 X118.4 Y134.12 E14.54179
G1 X118.125 Y133.678 E14.55997
G1 X117.921 Y133.198 E14.57818
G1 X117.793 Y132.693 E14.59638
G1 X117.743 Y132.112 E14.61674
G1 X117.743 Y130.927 E14.65813
G1 X117.783 Y130.407 E14.67634
G1 X117.902 Y129.9 E14.69453
G1 X118.097 Y129.417 E14.71272
G1 X118.337 Y129.013 E14.72913
G0 F1080 X118.363 Y128.969
G0 X118.739 Y128.523
G0 X118.856 Y128.406
G0 F6000 X119.139 Y128.689
G1 F1200 X119.512 Y128.372 E14.74622
G1 X119.932 Y128.12 E14.76333
G1 X120.387 Y127.94 E14.78042
G1 X120.865 Y127.836 E14.7975
G1 X121.259 Y127.81 E14.81129
G1 X127.151 Y127.809 E15.01706
G1 X127.639 Y127.849 E15.03416
G1 X128.114 Y127.968 E15.05126
G1 X128.564 Y128.162 E15.06837
G1 X128.975 Y128.427 E15.08545
G1 X129.273 Y128.688 E15.09928
G1 X129.39 Y128.805 E15.10506
G1 X129.707 Y129.178 E15.12216
G1 X129.959 Y129.598 E15.13926
G1 X130.139 Y130.053 E15.15635
G1 X130.243 Y130.531 E15.17344
G1 X130.269 Y130.926 E15.18726
G1 X130.269 Y132.319 E15.23591
G1 X131.843 Y137.56 E15.42702
G1 X131.855 Y137.591 E15.42818
G1 X132.263 Y139.002 E15.47947
G1 X139.916 Y143.447 E15.78855
G1 X144.52 Y145.722 E15.9679
G1 X150 Y146.822 E16.16309
G1 X155.481 Y145.722 E16.35832
G1 X160.1 Y143.437 E16.53829
G1 X167.737 Y139.003 E16.84669
G1 X168.145 Y137.592 E16.89799
G1 X168.156 Y137.56 E16.89917
G1 X169.731 Y132.319 E17.09029
G1 X169.731 Y130.927 E17.1389
G1 X169.771 Y130.439 E17.156
G1 X169.89 Y129.964 E17.1731
G1 X170.084 Y129.515 E17.19018
G1 X170.349 Y129.103 E17.20729
G1 X170.61 Y128.806 E17.2211
G1 X170.727 Y128.689 E17.22688
G1 X171.1 Y128.372 E17.24397
G1 X171.52 Y128.12 E17.26108
G1 X171.975 Y127.94 E17.27817
G1 X172.453 Y127.836 E17.29525
G1 X172.848 Y127.81 E17.30907
G1 X178.74 Y127.81 E17.51484
G1 X179.228 Y127.85 E17.53194
G1 X179.703 Y127.969 E17.54904
G1 X180.152 Y128.163 E17.56612
G1 X180.564 Y128.428 E17.58323
G1 X180.861 Y128.689 E17.59704
G1 X180.978 Y128.806 E17.60282
G1 X181.295 Y129.179 E17.61991
G1 X181.547 Y129.599 E17.63702
G1 X181.727 Y130.054 E17.65411
G1 X181.831 Y130.532 E17.67119
G1 X181.857 Y130.927 E17.68502
G1 X181.857 Y132.111 E17.72636
G1 X181.817 Y132.599 E17.74346
G1 X181.698 Y133.074 E17.76057
G1 X181.504 Y133.523 E17.77765
G1 X181.239 Y133.935 E17.79475
G1 X180.978 Y134.232 E17.80856
G1 X180.861 Y134.349 E17.81434
G1 X180.488 Y134.666 E17.83144
G1 X180.068 Y134.918 E17.84854
G1 X179.613 Y135.098 E17.86563
G1 X179.339 Y135.158 E17.87543
G1 X179.339 Y140.964 E18.07819
G1 X179.299 Y141.452 E18.09529
G1 X179.18 Y141.927 E18.11239
G1 X179.033 Y142.287 E18.12597
G1 X178.794 Y142.714 E18.14306
G1 X178.489 Y143.097 E18.16016
G1 X178.265 Y143.313 E18.17103
G1 X172.455 Y148.335 E18.43922
G1 X172.226 Y148.515 E18.44939
G1 X167.903 Y151.774 E18.63846
G1 X167.568 Y151.993 E18.65244
G1 X167.552 Y152.002 E18.65308
G1 X167.376 Y152.093 E18.66
G1 X156.937 Y157.089 E19.06416
G1 X156.953 Y157.147 E19.06626
G1 X157.003 Y157.634 E19.08336
G1 X156.983 Y158.055 E19.09808
G1 X156.772 Y159.812 E19.15988
G1 X156.77 Y159.909 E19.16327
G1 X156.746 Y160.111 E19.17037
G1 X155.64 Y170.014 E19.51837
G1 X155.638 Y170.035 E19.5191
G1 X155.545 Y170.817 E19.54661
G1 X155.545 Y170.864 E19.54825
G1 X155.505 Y171.352 E19.56535
G1 X155.386 Y171.827 E19.58245
G1 X155.192 Y172.276 E19.59953
G1 X154.927 Y172.688 E19.61664
G1 X154.666 Y172.985 E19.63045
G1 X154.549 Y173.102 E19.63622
G1 X154.176 Y173.419 E19.65332
G1 X153.756 Y173.671 E19.67042
G1 X153.301 Y173.851 E19.68751
G1 X152.823 Y173.955 E19.7046
G1 X152.428 Y173.981 E19.71842
G1 X147.572 Y173.981 E19.88801
G1 X147.084 Y173.941 E19.90511
G1 X146.609 Y173.822 E19.92221
G1 X146.16 Y173.628 E19.93929
G1 X145.748 Y173.363 E19.9564
G1 X145.451 Y173.102 E19.97021
G1 X145.334 Y172.985 E19.97598
G1 X145.017 Y172.612 E19.99308
G1 X144.765 Y172.192 E20.01019
G1 X144.585 Y171.737 E20.02727
G1 X144.481 Y171.259 E20.04436
G1 X144.455 Y170.864 E20.05818
G1 X144.455 Y170.765 E20.06164
G1 X144.259 Y168.985 E20.12418
G1 X144.238 Y168.883 E20.12781
G1 X144.05 Y167.193 E20.1872
G1 X144.032 Y166.906 E20.19724
G1 X143.979 Y166.399 E20.21504
G1 X143.947 Y166.022 E20.22826
G1 X143.233 Y159.953 E20.44167
G1 X143.228 Y159.821 E20.44628
G1 X143.02 Y158.035 E20.50908
G1 X143.003 Y157.546 E20.52616
G1 X143.063 Y157.085 E20.5424
G1 X132.625 Y152.093 E20.94647
G1 X132.448 Y152.002 E20.95342
G1 X132.432 Y151.993 E20.95406
G1 X132.097 Y151.774 E20.96804
G1 X127.709 Y148.467 E21.15993
G1 X127.471 Y148.27 E21.17072
G1 X127.457 Y148.259 E21.17134
G1 X121.735 Y143.313 E21.43548
G1 X121.392 Y142.963 E21.45259
G1 X121.111 Y142.563 E21.46966
G1 X120.931 Y142.208 E21.48356
G1 X120.765 Y141.748 E21.50064
G1 X120.676 Y141.266 E21.51776
G1 X120.661 Y140.964 E21.52832
G1 X120.661 Y135.161 E21.73098
G1 X120.297 Y135.07 E21.74408
G1 X119.848 Y134.876 E21.76116
G1 X119.436 Y134.611 E21.77827
G1 X119.139 Y134.35 E21.79208
G1 X119.022 Y134.233 E21.79786
G1 X118.705 Y133.86 E21.81495
G1 X118.453 Y133.44 E21.83206
G1 X118.273 Y132.985 E21.84914
G1 X118.169 Y132.507 E21.86623
G1 X118.143 Y132.112 E21.88005
G1 X118.143 Y130.927 E21.92144
G1 X118.183 Y130.439 E21.93854
G1 X118.302 Y129.964 E21.95564
G1 X118.496 Y129.515 E21.97272
G1 X118.631 Y129.305 E21.98144
G0 F1080 X118.761 Y129.103
G0 X119.022 Y128.806
G0 X119.139 Y128.689
G0 F6000 X119.422 Y128.972
G1 F1200 X119.771 Y128.679 E21.99735
G1 X120.166 Y128.452 E22.01326
G1 X120.594 Y128.297 E22.02916
G1 X121.26 Y128.21 E22.05262
G1 X127.152 Y128.209 E22.25838
G1 X127.605 Y128.249 E22.27426
G1 X128.045 Y128.367 E22.29017
G1 X128.458 Y128.561 E22.30611
G1 X128.99 Y128.971 E22.32956
G1 X129.107 Y129.088 E22.33534
G1 X129.4 Y129.437 E22.35126
G1 X129.627 Y129.832 E22.36717
G1 X129.782 Y130.26 E22.38306
G1 X129.869 Y130.926 E22.40652
G1 X129.869 Y132.377 E22.45719
G1 X131.458 Y137.669 E22.65016
G1 X131.471 Y137.702 E22.6514
G1 X131.924 Y139.268 E22.70833
G1 X139.716 Y143.794 E23.02303
G1 X139.719 Y143.795 E23.02314
G1 X144.391 Y146.104 E23.20514
G1 X150.001 Y147.23 E23.40496
G1 X155.609 Y146.104 E23.60472
G1 X160.285 Y143.791 E23.78691
