;FLAVOR:Marlin
M117 Time Left 2h05m17s
;Filament used: 4.51624m
;Layer height: 0.2
;MINX:73.501
;MINY:137.09
;MINZ:0.2
;MAXX:226.5
;MAXY:163.6
;MAXZ:95.2
;POSTPROCESSED
;Generated with Cura_SteamEngine 4.4.1
M140 S55
M105
M190 S55
M104 S195
M105
M109 S195
M82 ;absolute extrusion mode
M201 X500.00 Y500.00 Z100.00 E5000.00 ;Setup machine max acceleration
M203 X500.00 Y500.00 Z10.00 E50.00 ;Setup machine max feedrate
M204 P500.00 R1000.00 T500.00 ;Setup Print/Retract/Travel acceleration
M205 X8.00 Y8.00 Z0.40 E5.00 ;Setup Jerk
M220 S100 ;Reset Feedrate
M221 S100 ;Reset Flowrate

G28 ;Home

G92 E0 ;Reset Extruder
G1 Z2.0 F3000 ;Move Z Axis up
G1 X10.1 Y20 Z0.28 F5000.0 ;Move to start position
G1 X10.1 Y200.0 Z0.28 F1500.0 E15 ;Draw the first line
G1 X10.4 Y200.0 Z0.28 F5000.0 ;Move to side a little
G1 X10.4 Y20 Z0.28 F1500.0 E30 ;Draw the second line
G92 E0 ;Reset Extruder
G1 Z2.0 F3000 ;Move Z Axis up

G92 E0
G92 E0
G1 F1500 E-6.5
;LAYER_COUNT:476
;LAYER:0
M117 Layer 1 ryan-sleeping.jpeg of 476
M107
G1 F300 Z0.7
G0 F6000 X79.823 Y139.007 Z0.7
;TYPE:SKIRT
G1 F300 Z0.2
G1 F1500 E0
G1 F600 X80.712 Y138.509 E0.03389
G1 X81.638 Y138.082 E0.06781
G1 X82.594 Y137.728 E0.10171
G1 X83.575 Y137.451 E0.13562
G1 X84.575 Y137.251 E0.16954
G1 X85.588 Y137.131 E0.20346
G1 X86.618 Y137.09 E0.23775
G1 X213.383 Y137.09 E4.45397
G1 X214.402 Y137.13 E4.48789
G1 X215.414 Y137.25 E4.52178
G1 X216.414 Y137.448 E4.55569
G1 X217.396 Y137.725 E4.58963
G1 X218.353 Y138.077 E4.62354
G1 X219.279 Y138.504 E4.65746
G1 X220.169 Y139.001 E4.69136
G1 X221.017 Y139.567 E4.72527
G1 X221.818 Y140.198 E4.75919
G1 X222.575 Y140.898 E4.79348
G1 X222.692 Y141.015 E4.79898
G1 X223.385 Y141.763 E4.8329
G1 X224.016 Y142.564 E4.86681
G1 X224.583 Y143.412 E4.90074
G1 X225.081 Y144.301 E4.93463
G1 X225.508 Y145.227 E4.96855
G1 X225.862 Y146.183 E5.00245
G1 X226.139 Y147.164 E5.03636
G1 X226.339 Y148.164 E5.07028
G1 X226.459 Y149.177 E5.1042
G1 X226.5 Y150.207 E5.13849
G1 X226.5 Y150.483 E5.14767
G1 X226.46 Y151.502 E5.18159
G1 X226.34 Y152.514 E5.21548
G1 X226.142 Y153.514 E5.24939
G1 X225.865 Y154.496 E5.28332
G1 X225.513 Y155.453 E5.31724
G1 X225.086 Y156.379 E5.35115
G1 X224.589 Y157.269 E5.38506
G1 X224.023 Y158.117 E5.41897
G1 X223.392 Y158.918 E5.45288
G1 X222.692 Y159.675 E5.48718
G1 X222.575 Y159.792 E5.49268
G1 X221.827 Y160.485 E5.52659
G1 X221.026 Y161.116 E5.56051
G1 X220.178 Y161.683 E5.59444
G1 X219.289 Y162.181 E5.62833
G1 X218.363 Y162.608 E5.66225
G1 X217.407 Y162.962 E5.69615
G1 X216.426 Y163.239 E5.73006
G1 X215.426 Y163.439 E5.76397
G1 X214.413 Y163.559 E5.7979
G1 X213.383 Y163.6 E5.83219
G1 X86.618 Y163.6 E10.04841
G1 X85.599 Y163.56 E10.08233
G1 X84.587 Y163.44 E10.11622
G1 X83.587 Y163.242 E10.15013
G1 X82.605 Y162.965 E10.18406
G1 X81.648 Y162.613 E10.21798
G1 X80.722 Y162.186 E10.25189
G1 X79.832 Y161.689 E10.2858
G1 X78.984 Y161.123 E10.31971
G1 X78.183 Y160.492 E10.35362
G1 X77.426 Y159.792 E10.38792
G1 X77.309 Y159.675 E10.39342
G1 X76.616 Y158.927 E10.42733
G1 X75.985 Y158.126 E10.46125
G1 X75.418 Y157.278 E10.49518
G1 X74.92 Y156.389 E10.52907
G1 X74.493 Y155.463 E10.56298
G1 X74.139 Y154.507 E10.59689
G1 X73.862 Y153.526 E10.6308
G1 X73.662 Y152.526 E10.66471
G1 X73.542 Y151.513 E10.69864
G1 X73.501 Y150.483 E10.73293
G1 X73.501 Y150.207 E10.74211
G1 X73.541 Y149.188 E10.77603
G1 X73.661 Y148.176 E10.80992
G1 X73.859 Y147.176 E10.84383
G1 X74.136 Y146.194 E10.87776
G1 X74.488 Y145.237 E10.91168
G1 X74.915 Y144.311 E10.94559
G1 X75.412 Y143.421 E10.9795
G1 X75.978 Y142.573 E11.01341
G1 X76.609 Y141.772 E11.04732
G1 X77.309 Y141.015 E11.08161
G1 X77.426 Y140.898 E11.08712
G1 X78.174 Y140.205 E11.12103
G1 X78.975 Y139.574 E11.15495
G1 X79.823 Y139.007 E11.18888
G0 F6000 X80.072 Y139.324
G1 F600 X80.949 Y138.837 E11.22224
G1 X81.863 Y138.422 E11.25563
G1 X82.807 Y138.08 E11.28902
G1 X83.775 Y137.815 E11.3224
G1 X84.761 Y137.628 E11.35578
G1 X85.759 Y137.519 E11.38917
G1 X86.618 Y137.49 E11.41776
G1 X213.383 Y137.49 E15.63398
G1 X214.386 Y137.53 E15.66737
G1 X215.383 Y137.65 E15.70077
G1 X216.367 Y137.848 E15.73415
G1 X217.332 Y138.125 E15.76754
G1 X218.272 Y138.477 E15.80093
G1 X219.18 Y138.903 E15.83429
G1 X220.053 Y139.4 E15.8677
G1 X220.882 Y139.965 E15.90106
G1 X221.665 Y140.594 E15.93447
G1 X222.293 Y141.18 E15.96304
G1 X222.41 Y141.297 E15.96854
G1 X223.09 Y142.035 E16.00192
G1 X223.711 Y142.824 E16.03531
G1 X224.266 Y143.661 E16.06872
G1 X224.753 Y144.538 E16.10208
G1 X225.168 Y145.452 E16.13547
G1 X225.51 Y146.396 E16.16886
G1 X225.775 Y147.364 E16.20224
G1 X225.962 Y148.35 E16.23562
G1 X226.071 Y149.348 E16.26901
G1 X226.1 Y150.207 E16.2976
G1 X226.1 Y150.483 E16.30678
G1 X226.06 Y151.486 E16.34017
G1 X225.94 Y152.483 E16.37357
G1 X225.742 Y153.467 E16.40695
G1 X225.465 Y154.432 E16.44034
G1 X225.113 Y155.372 E16.47373
G1 X224.687 Y156.28 E16.50709
G1 X224.19 Y157.153 E16.5405
G1 X223.625 Y157.982 E16.57387
G1 X222.996 Y158.765 E16.60727
G1 X222.41 Y159.393 E16.63584
G1 X222.293 Y159.51 E16.64134
G1 X221.555 Y160.19 E16.67472
G1 X220.766 Y160.811 E16.70811
G1 X219.929 Y161.366 E16.74152
G1 X219.052 Y161.853 E16.77488
G1 X218.138 Y162.268 E16.80827
G1 X217.194 Y162.61 E16.84166
G1 X216.226 Y162.875 E16.87504
G1 X215.24 Y163.062 E16.90842
G1 X214.242 Y163.171 E16.94181
G1 X213.383 Y163.2 E16.9704
G1 X86.618 Y163.2 E21.18662
G1 X85.615 Y163.16 E21.22001
G1 X84.618 Y163.04 E21.25341
G1 X83.634 Y162.842 E21.28679
G1 X82.669 Y162.565 E21.32018
G1 X81.729 Y162.213 E21.35357
G1 X80.821 Y161.787 E21.38693
G1 X79.948 Y161.29 E21.42034
G1 X79.119 Y160.725 E21.45371
G1 X78.336 Y160.096 E21.48711
G1 X77.708 Y159.51 E21.51568
G1 X77.591 Y159.393 E21.52118
G1 X76.911 Y158.655 E21.55456
G1 X76.29 Y157.866 E21.58796
G1 X75.735 Y157.029 E21.62136
G1 X75.248 Y156.152 E21.65472
G1 X74.833 Y155.238 E21.68811
G1 X74.491 Y154.294 E21.7215
G1 X74.226 Y153.326 E21.75489
G1 X74.039 Y152.34 E21.78826
G1 X73.93 Y151.342 E21.82166
G1 X73.901 Y150.483 E21.85024
G1 X73.901 Y150.207 E21.85942
G1 X73.941 Y149.204 E21.89281
G1 X74.061 Y148.207 E21.92621
G1 X74.259 Y147.223 E21.95959
G1 X74.536 Y146.258 E21.99298
G1 X74.888 Y145.318 E22.02637
G1 X75.314 Y144.41 E22.05973
G1 X75.811 Y143.537 E22.09314
G1 X76.376 Y142.708 E22.12651
G1 X77.005 Y141.925 E22.15991
G1 X77.591 Y141.297 E22.18848
G1 X77.708 Y141.18 E22.19398
G1 X78.446 Y140.5 E22.22736
G1 X79.235 Y139.879 E22.26076
G1 X80.072 Y139.324 E22.29416
G0 F6000 X80.32 Y139.641
G1 F600 X81.186 Y139.166 E22.32701
G1 X82.087 Y138.762 E22.35985
G1 X83.018 Y138.433 E22.39269
G1 X83.973 Y138.18 E22.42555
G1 X84.945 Y138.005 E22.4584
G1 X85.928 Y137.91 E22.49125
G1 X86.618 Y137.89 E22.51421
G1 X213.383 Y137.89 E26.73043
G1 X214.37 Y137.93 E26.76328
G1 X215.35 Y138.05 E26.79612
G1 X216.318 Y138.248 E26.82898
G1 X217.266 Y138.525 E26.86183
G1 X218.189 Y138.877 E26.89469
G1 X219.08 Y139.302 E26.92752
G1 X219.934 Y139.798 E26.96037
G1 X220.746 Y140.362 E26.99325
G1 X221.508 Y140.99 E27.0261
G1 X222.01 Y141.463 E27.04904
G1 X222.127 Y141.58 E27.05454
G1 X222.796 Y142.306 E27.08738
G1 X223.405 Y143.084 E27.12024
G1 X223.949 Y143.909 E27.1531
G1 X224.424 Y144.775 E27.18596
G1 X224.828 Y145.676 E27.2188
G1 X225.157 Y146.607 E27.25164
G1 X225.41 Y147.562 E27.2845
G1 X225.585 Y148.534 E27.31735
G1 X225.68 Y149.517 E27.35019
G1 X225.7 Y150.207 E27.37315
G1 X225.7 Y150.483 E27.38233
G1 X225.66 Y151.47 E27.41519
G1 X225.54 Y152.45 E27.44803
G1 X225.342 Y153.418 E27.48089
G1 X225.065 Y154.366 E27.51374
G1 X224.713 Y155.289 E27.54659
G1 X224.288 Y156.18 E27.57943
G1 X223.792 Y157.034 E27.61227
G1 X223.228 Y157.846 E27.64516
G1 X222.6 Y158.608 E27.678
G1 X222.127 Y159.11 E27.70094
G1 X222.01 Y159.227 E27.70644
G1 X221.284 Y159.896 E27.73928
G1 X220.506 Y160.505 E27.77214
G1 X219.681 Y161.049 E27.80501
G1 X218.815 Y161.524 E27.83786
G1 X217.914 Y161.928 E27.8707
G1 X216.983 Y162.257 E27.90354
G1 X216.028 Y162.51 E27.9364
G1 X215.056 Y162.685 E27.96925
G1 X214.073 Y162.78 E28.0021
G1 X213.383 Y162.8 E28.02506
G1 X86.618 Y162.8 E32.24128
G1 X85.631 Y162.76 E32.27413
G1 X84.651 Y162.64 E32.30697
G1 X83.683 Y162.442 E32.33983
G1 X82.735 Y162.165 E32.37268
G1 X81.812 Y161.813 E32.40554
G1 X80.921 Y161.388 E32.43837
G1 X80.067 Y160.892 E32.47122
G1 X79.255 Y160.328 E32.5041
G1 X78.493 Y159.7 E32.53695
G1 X77.991 Y159.227 E32.55989
G1 X77.874 Y159.11 E32.56539
G1 X77.205 Y158.384 E32.59822
G1 X76.596 Y157.606 E32.63109
G1 X76.052 Y156.781 E32.66395
G1 X75.577 Y155.915 E32.69681
G1 X75.173 Y155.014 E32.72965
G1 X74.844 Y154.083 E32.76249
G1 X74.591 Y153.128 E32.79535
G1 X74.416 Y152.156 E32.8282
G1 X74.321 Y151.173 E32.86104
G1 X74.301 Y150.483 E32.884
G1 X74.301 Y150.207 E32.89318
G1 X74.341 Y149.22 E32.92604
G1 X74.461 Y148.24 E32.95888
G1 X74.659 Y147.272 E32.99174
G1 X74.936 Y146.324 E33.02459
G1 X75.288 Y145.401 E33.05744
G1 X75.713 Y144.51 E33.09028
G1 X76.209 Y143.656 E33.12312
G1 X76.773 Y142.844 E33.15601
G1 X77.401 Y142.082 E33.18885
G1 X77.874 Y141.58 E33.21179
G1 X77.991 Y141.463 E33.21729
G1 X78.717 Y140.794 E33.25013
G1 X79.495 Y140.185 E33.28299
G1 X80.32 Y139.641 E33.31586
G0 F6000 X80.568 Y139.959
G1 F600 X81.422 Y139.496 E33.34817
G1 X82.311 Y139.104 E33.38048
G1 X83.229 Y138.787 E33.41279
G1 X84.17 Y138.547 E33.44509
G1 X85.128 Y138.384 E33.47741
G1 X86.095 Y138.302 E33.50968
G1 X86.618 Y138.29 E33.52708
G1 X213.383 Y138.29 E37.74331
G1 X214.354 Y138.33 E37.77563
G1 X215.318 Y138.45 E37.80794
G1 X216.268 Y138.648 E37.84021
G1 X217.2 Y138.924 E37.87254
G1 X218.105 Y139.276 E37.90484
G1 X218.979 Y139.701 E37.93716
G1 X219.814 Y140.197 E37.96947
G1 X220.606 Y140.759 E38.00177
G1 X221.349 Y141.385 E38.03408
G1 X221.727 Y141.746 E38.05147
G1 X221.844 Y141.863 E38.05697
G1 X222.502 Y142.578 E38.08929
G1 X223.099 Y143.344 E38.12159
G1 X223.631 Y144.157 E38.1539
G1 X224.094 Y145.011 E38.18621
G1 X224.486 Y145.9 E38.21853
G1 X224.803 Y146.818 E38.25083
G1 X225.043 Y147.759 E38.28313
G1 X225.206 Y148.717 E38.31545
G1 X225.288 Y149.684 E38.34773
G1 X225.3 Y150.207 E38.36513
G1 X225.3 Y150.483 E38.37431
G1 X225.26 Y151.454 E38.40663
G1 X225.14 Y152.418 E38.43894
G1 X224.942 Y153.368 E38.47122
G1 X224.666 Y154.3 E38.50355
G1 X224.314 Y155.205 E38.53585
G1 X223.889 Y156.079 E38.56817
G1 X223.393 Y156.914 E38.60047
G1 X222.831 Y157.706 E38.63277
G1 X222.205 Y158.449 E38.66509
G1 X221.844 Y158.827 E38.68247
G1 X221.727 Y158.944 E38.68797
G1 X221.012 Y159.602 E38.72029
G1 X220.246 Y160.199 E38.75259
G1 X219.433 Y160.731 E38.78491
G1 X218.579 Y161.194 E38.81722
G1 X217.69 Y161.586 E38.84953
G1 X216.772 Y161.903 E38.88184
G1 X215.831 Y162.143 E38.91414
G1 X214.873 Y162.306 E38.94646
G1 X213.906 Y162.388 E38.97874
G1 X213.383 Y162.4 E38.99614
G1 X86.618 Y162.4 E43.21236
G1 X85.647 Y162.36 E43.24468
G1 X84.683 Y162.24 E43.27699
G1 X83.733 Y162.042 E43.30927
G1 X82.801 Y161.766 E43.34159
G1 X81.896 Y161.414 E43.37389
G1 X81.022 Y160.989 E43.40622
G1 X80.187 Y160.493 E43.43852
G1 X79.395 Y159.931 E43.47082
G1 X78.652 Y159.305 E43.50313
G1 X78.274 Y158.944 E43.52052
G1 X78.157 Y158.827 E43.52602
G1 X77.499 Y158.112 E43.55834
G1 X76.902 Y157.346 E43.59064
G1 X76.37 Y156.533 E43.62296
G1 X75.907 Y155.679 E43.65527
G1 X75.515 Y154.79 E43.68758
G1 X75.198 Y153.872 E43.71988
G1 X74.958 Y152.931 E43.75218
G1 X74.795 Y151.973 E43.7845
G1 X74.713 Y151.006 E43.81678
G1 X74.701 Y150.483 E43.83418
G1 X74.701 Y150.207 E43.84336
G1 X74.741 Y149.236 E43.87568
G1 X74.861 Y148.272 E43.90799
G1 X75.059 Y147.322 E43.94027
G1 X75.335 Y146.39 E43.9726
G1 X75.687 Y145.485 E44.0049
G1 X76.112 Y144.611 E44.03722
G1 X76.608 Y143.776 E44.06952
G1 X77.17 Y142.984 E44.10182
G1 X77.796 Y142.241 E44.13414
G1 X78.157 Y141.863 E44.15152
G1 X78.274 Y141.746 E44.15703
G1 X78.989 Y141.088 E44.18934
G1 X79.755 Y140.491 E44.22165
G1 X80.568 Y139.959 E44.25396
G0 F6000 X80.815 Y140.278
G1 F600 X81.656 Y139.826 E44.28572
G1 X82.533 Y139.447 E44.31749
G1 X83.438 Y139.143 E44.34925
G1 X84.365 Y138.915 E44.381
G1 X85.308 Y138.766 E44.41275
G1 X86.618 Y138.69 E44.45639
G1 X213.383 Y138.69 E48.67262
G1 X214.337 Y138.73 E48.70437
G1 X215.284 Y138.85 E48.73612
G1 X216.218 Y139.048 E48.76788
G1 X217.132 Y139.324 E48.79963
G1 X218.02 Y139.676 E48.8314
G1 X218.875 Y140.1 E48.86315
G1 X219.692 Y140.595 E48.89492
G1 X220.464 Y141.156 E48.92666
G1 X221.444 Y142.029 E48.97031
G1 X221.561 Y142.146 E48.97581
G1 X222.207 Y142.849 E49.00757
G1 X222.792 Y143.603 E49.03931
G1 X223.312 Y144.404 E49.07107
G1 X223.764 Y145.245 E49.10283
G1 X224.143 Y146.122 E49.13461
G1 X224.447 Y147.027 E49.16636
G1 X224.675 Y147.954 E49.19811
G1 X224.824 Y148.897 E49.22986
G1 X224.9 Y150.207 E49.27351
G1 X224.9 Y150.483 E49.28269
G1 X224.86 Y151.437 E49.31445
G1 X224.74 Y152.384 E49.34619
G1 X224.542 Y153.318 E49.37795
G1 X224.266 Y154.232 E49.40971
G1 X223.914 Y155.12 E49.44148
G1 X223.49 Y155.975 E49.47322
G1 X222.995 Y156.792 E49.50499
G1 X222.434 Y157.564 E49.53673
G1 X221.561 Y158.544 E49.58038
G1 X221.444 Y158.661 E49.58589
G1 X220.741 Y159.307 E49.61764
G1 X219.987 Y159.892 E49.64938
G1 X219.186 Y160.412 E49.68114
G1 X218.345 Y160.864 E49.7129
G1 X217.468 Y161.243 E49.74468
G1 X216.563 Y161.547 E49.77643
G1 X215.636 Y161.775 E49.80818
G1 X214.693 Y161.924 E49.83993
G1 X213.383 Y162 E49.88358
G1 X86.618 Y162 E54.0998
G1 X85.664 Y161.96 E54.13156
G1 X84.717 Y161.84 E54.16331
G1 X83.783 Y161.642 E54.19506
G1 X82.869 Y161.366 E54.22682
G1 X81.981 Y161.014 E54.25859
G1 X81.126 Y160.59 E54.29033
G1 X80.309 Y160.095 E54.3221
G1 X79.537 Y159.534 E54.35384
G1 X78.557 Y158.661 E54.3975
G1 X78.44 Y158.544 E54.403
G1 X77.794 Y157.841 E54.43475
G1 X77.209 Y157.087 E54.46649
G1 X76.689 Y156.286 E54.49826
G1 X76.237 Y155.445 E54.53001
G1 X75.858 Y154.568 E54.56179
G1 X75.554 Y153.663 E54.59354
G1 X75.326 Y152.736 E54.62529
G1 X75.177 Y151.793 E54.65705
G1 X75.101 Y150.483 E54.70069
G1 X75.101 Y150.207 E54.70987
G1 X75.141 Y149.253 E54.74163
G1 X75.261 Y148.306 E54.77338
G1 X75.459 Y147.372 E54.80513
G1 X75.735 Y146.458 E54.83689
G1 X76.087 Y145.57 E54.86866
G1 X76.511 Y144.715 E54.9004
G1 X77.006 Y143.898 E54.93217
G1 X77.567 Y143.126 E54.96391
G1 X78.44 Y142.146 E55.00757
G1 X78.557 Y142.029 E55.01307
G1 X79.26 Y141.383 E55.04483
G1 X80.014 Y140.798 E55.07657
G1 X80.815 Y140.278 E55.10833
G0 F6000 X81.062 Y140.597
G1 F600 X81.89 Y140.158 E55.1395
G1 X82.754 Y139.791 E55.17072
G1 X83.645 Y139.499 E55.20191
G1 X84.558 Y139.285 E55.2331
G1 X85.486 Y139.148 E55.2643
G1 X86.618 Y139.09 E55.302
G1 X213.383 Y139.09 E59.51822
G1 X214.32 Y139.13 E59.54941
G1 X215.25 Y139.25 E59.5806
G1 X216.167 Y139.448 E59.6118
G1 X217.063 Y139.724 E59.64298
G1 X217.933 Y140.075 E59.67419
G1 X218.769 Y140.499 E59.70536
G1 X219.567 Y140.993 E59.73658
G1 X220.319 Y141.553 E59.76776
G1 X221.161 Y142.312 E59.80547
G1 X221.278 Y142.429 E59.81097
G1 X221.912 Y143.12 E59.84216
G1 X222.486 Y143.862 E59.87336
G1 X222.993 Y144.651 E59.90456
G1 X223.432 Y145.479 E59.93573
G1 X223.799 Y146.343 E59.96695
G1 X224.091 Y147.234 E59.99814
G1 X224.305 Y148.147 E60.02932
G1 X224.442 Y149.075 E60.06052
G1 X224.5 Y150.207 E60.09822
G1 X224.5 Y150.483 E60.1074
G1 X224.46 Y151.42 E60.1386
G1 X224.34 Y152.35 E60.16979
G1 X224.142 Y153.267 E60.20099
G1 X223.866 Y154.163 E60.23217
G1 X223.515 Y155.033 E60.26337
G1 X223.091 Y155.869 E60.29455
G1 X222.597 Y156.667 E60.32577
G1 X222.037 Y157.419 E60.35695
G1 X221.278 Y158.261 E60.39466
G1 X221.161 Y158.378 E60.40016
G1 X220.47 Y159.012 E60.43135
G1 X219.728 Y159.586 E60.46255
G1 X218.939 Y160.093 E60.49374
G1 X218.111 Y160.532 E60.52491
G1 X217.247 Y160.899 E60.55614
G1 X216.356 Y161.191 E60.58732
G1 X215.443 Y161.405 E60.61851
G1 X214.515 Y161.542 E60.64971
G1 X213.383 Y161.6 E60.68741
G1 X86.618 Y161.6 E64.90363
G1 X85.681 Y161.56 E64.93483
G1 X84.751 Y161.44 E64.96601
G1 X83.834 Y161.242 E64.99722
G1 X82.938 Y160.966 E65.0284
G1 X82.068 Y160.615 E65.0596
G1 X81.232 Y160.191 E65.09078
G1 X80.434 Y159.697 E65.12199
G1 X79.682 Y159.137 E65.15318
G1 X78.84 Y158.378 E65.19088
G1 X78.723 Y158.261 E65.19639
G1 X78.089 Y157.57 E65.22758
G1 X77.515 Y156.828 E65.25878
G1 X77.008 Y156.039 E65.28997
