;FLAVOR:Marlin
M117 Time Left 1h49m51s
;Filament used: 3.93359m
;Layer height: 0.2
;MINX:77.385
;MINY:94.198
;MINZ:0.2
;MAXX:222.631
;MAXY:205.793
;MAXZ:2.9
;POSTPROCESSED
;Generated with Cura_SteamEngine 4.4.1
M140 S55
M105
M190 S55
M104 S210
M105
M109 S210
M82 ;absolute extrusion mode
M201 X500.00 Y500.00 Z100.00 E5000.00 ;Setup machine max acceleration
M203 X500.00 Y500.00 Z10.00 E50.00 ;Setup machine max feedrate
M204 P500.00 R1000.00 T500.00 ;Setup Print/Retract/Travel acceleration
M205 X8.00 Y8.00 Z0.40 E5.00 ;Setup Jerk
M220 S100 ;Reset Feedrate
M221 S100 ;Reset Flowrate

G28 ;Home

G92 E0 ;Reset Extruder
G1 Z2.0 F3000 ;Move Z Axis up
G1 X10.1 Y20 Z0.28 F5000.0 ;Move to start position
G1 X10.1 Y200.0 Z0.28 F1500.0 E15 ;Draw the first line
G1 X10.4 Y200.0 Z0.28 F5000.0 ;Move to side a little
G1 X10.4 Y20 Z0.28 F1500.0 E30 ;Draw the second line
G92 E0 ;Reset Extruder
G1 Z2.0 F3000 ;Move Z Axis up

G92 E0
G92 E0
G1 F1800 E-6.5
;LAYER_COUNT:12
;LAYER:0
M117 Layer 1 base-back of 12
M107
G1 F300 Z0.7
G0 F6000 X112.591 Y97.556 Z0.7
;TYPE:SKIRT
G1 F300 Z0.2
G1 F1800 E0
G1 F600 X113.206 Y96.919 E0.0265
G1 X113.876 Y96.34 E0.05301
G1 X114.595 Y95.824 E0.0795
G1 X115.357 Y95.375 E0.10598
G1 X116.158 Y94.996 E0.1325
G1 X116.989 Y94.691 E0.159
G1 X117.844 Y94.463 E0.18549
G1 X118.716 Y94.312 E0.21198
G1 X119.938 Y94.235 E0.24863
G1 X179.938 Y94.198 E2.04468
G1 X180.822 Y94.237 E2.07117
G1 X181.699 Y94.357 E2.09767
G1 X182.562 Y94.554 E2.12416
G1 X183.404 Y94.829 E2.15068
G1 X184.217 Y95.179 E2.17717
G1 X184.995 Y95.6 E2.20365
G1 X185.733 Y96.09 E2.23017
G1 X186.423 Y96.645 E2.25668
G1 X187.06 Y97.259 E2.28316
G1 X187.639 Y97.929 E2.30967
G1 X188.155 Y98.648 E2.33616
G1 X188.604 Y99.411 E2.36266
G1 X188.983 Y100.211 E2.38916
G1 X189.288 Y101.042 E2.41566
G1 X189.516 Y101.897 E2.44215
G1 X189.667 Y102.77 E2.46867
G1 X189.744 Y103.993 E2.50535
G1 X189.745 Y105.8 E2.55944
G1 X220.621 Y187.162 E5.16441
G1 X220.622 Y187.162 E5.16444
G1 X221.993 Y190.773 E5.28006
G1 X222.269 Y191.614 E5.30656
G1 X222.469 Y192.477 E5.33308
G1 X222.59 Y193.354 E5.35958
G1 X222.631 Y194.238 E5.38607
G1 X222.592 Y195.122 E5.41256
G1 X222.474 Y196 E5.43907
G1 X222.277 Y196.863 E5.46557
G1 X222.003 Y197.704 E5.49205
G1 X221.654 Y198.518 E5.51856
G1 X221.233 Y199.297 E5.54507
G1 X220.743 Y200.034 E5.57156
G1 X220.189 Y200.725 E5.59807
G1 X219.575 Y201.362 E5.62455
G1 X218.906 Y201.942 E5.65106
G1 X218.188 Y202.459 E5.67754
G1 X217.425 Y202.908 E5.70404
G1 X216.625 Y203.288 E5.73056
G1 X215.794 Y203.593 E5.75705
G1 X214.939 Y203.822 E5.78355
G1 X214.067 Y203.974 E5.81005
G1 X213.185 Y204.046 E5.83654
G1 X212.3 Y204.038 E5.86303
G1 X211.419 Y203.95 E5.88953
G1 X210.55 Y203.783 E5.91602
G1 X209.699 Y203.538 E5.94253
G1 X208.874 Y203.218 E5.96902
G1 X208.081 Y202.824 E5.99552
G1 X207.327 Y202.36 E6.02203
G1 X206.618 Y201.831 E6.0485
G1 X205.959 Y201.239 E6.07502
G1 X205.594 Y200.846 E6.09108
G1 X205.452 Y201.098 E6.09974
G1 X204.95 Y201.828 E6.12626
G1 X204.384 Y202.509 E6.15276
G1 X203.76 Y203.136 E6.17924
G1 X203.081 Y203.704 E6.20574
G1 X202.353 Y204.208 E6.23225
G1 X201.584 Y204.645 E6.25872
G1 X200.777 Y205.011 E6.28525
G1 X199.942 Y205.302 E6.31172
G1 X199.083 Y205.517 E6.33822
G1 X198.208 Y205.653 E6.36473
G1 X197.325 Y205.71 E6.39122
G1 X196.44 Y205.687 E6.41772
G1 X195.561 Y205.584 E6.44421
G1 X194.694 Y205.403 E6.47072
G1 X193.848 Y205.144 E6.49721
G1 X193.028 Y204.809 E6.52372
G1 X192.242 Y204.402 E6.55022
G1 X191.496 Y203.926 E6.57671
G1 X190.796 Y203.384 E6.60321
G1 X190.148 Y202.781 E6.62971
G1 X189.556 Y202.123 E6.6562
G1 X189.027 Y201.413 E6.6827
G1 X188.563 Y200.659 E6.70921
G1 X188.17 Y199.866 E6.7357
G1 X187.85 Y199.041 E6.76219
G1 X187.605 Y198.19 E6.7887
G1 X187.399 Y197.008 E6.82461
G1 X187.23 Y195.51 E6.86974
G1 X187.03 Y194.115 E6.91192
G1 X186.786 Y192.769 E6.95287
G1 X186.505 Y191.48 E6.99236
G1 X186.165 Y190.153 E7.03337
G1 X185.772 Y188.82 E7.07497
G1 X185.352 Y187.569 E7.11447
G1 X184.866 Y186.279 E7.15573
G1 X184.351 Y185.046 E7.19573
G1 X183.779 Y183.806 E7.23661
G1 X183.163 Y182.587 E7.27749
G1 X182.502 Y181.391 E7.3184
G1 X181.811 Y180.238 E7.35864
G1 X181.08 Y179.116 E7.39872
G1 X180.293 Y177.998 E7.43965
G1 X179.467 Y176.908 E7.48059
G1 X178.609 Y175.859 E7.52115
G1 X177.721 Y174.849 E7.56141
G1 X176.771 Y173.845 E7.60279
G1 X175.827 Y172.917 E7.64241
G1 X174.825 Y171.999 E7.68309
G1 X173.775 Y171.108 E7.72431
G1 X172.711 Y170.267 E7.76491
G1 X171.626 Y169.472 E7.80517
G1 X170.492 Y168.702 E7.8462
G1 X169.365 Y167.996 E7.88601
G1 X168.158 Y167.298 E7.92775
G1 X166.995 Y166.681 E7.96716
G1 X165.753 Y166.08 E8.00846
G1 X164.524 Y165.537 E8.04868
G1 X163.237 Y165.025 E8.09014
G1 X161.992 Y164.581 E8.12971
G1 X160.682 Y164.165 E8.17085
G1 X159.375 Y163.802 E8.21146
G1 X158.065 Y163.49 E8.25177
G1 X156.702 Y163.215 E8.29339
G1 X155.376 Y162.999 E8.33361
G1 X154.06 Y162.832 E8.37332
G1 X152.689 Y162.709 E8.41452
G1 X151.318 Y162.636 E8.45562
G1 X149.985 Y162.612 E8.49553
G1 X148.627 Y162.638 E8.53619
G1 X147.274 Y162.712 E8.57675
G1 X145.925 Y162.836 E8.6173
G1 X144.58 Y163.007 E8.65788
G1 X143.228 Y163.23 E8.6989
G1 X141.902 Y163.498 E8.7394
G1 X140.619 Y163.806 E8.77889
G1 X139.268 Y164.183 E8.82088
G1 X137.96 Y164.597 E8.86195
G1 X136.715 Y165.045 E8.90156
G1 X135.457 Y165.548 E8.94211
G1 X134.201 Y166.104 E8.98323
G1 X132.974 Y166.701 E9.02407
G1 X131.808 Y167.321 E9.0636
G1 X130.604 Y168.019 E9.10526
G1 X129.484 Y168.723 E9.14486
G1 X128.341 Y169.501 E9.18625
G1 X127.247 Y170.304 E9.22687
G1 X126.197 Y171.136 E9.26698
G1 X125.161 Y172.018 E9.3077
G1 X124.146 Y172.949 E9.34893
G1 X123.183 Y173.899 E9.38943
G1 X122.255 Y174.881 E9.42987
G1 X121.376 Y175.884 E9.46979
G1 X120.498 Y176.96 E9.51136
G1 X119.704 Y178.01 E9.55077
G1 X118.905 Y179.15 E9.59244
G1 X118.176 Y180.272 E9.63249
G1 X117.475 Y181.445 E9.6734
G1 X116.821 Y182.631 E9.71394
G1 X116.211 Y183.841 E9.7545
G1 X115.636 Y185.091 E9.79569
G1 X115.111 Y186.348 E9.83647
G1 X114.648 Y187.59 E9.87614
G1 X114.214 Y188.891 E9.9172
G1 X113.839 Y190.165 E9.95695
G1 X113.498 Y191.504 E9.99831
G1 X113.206 Y192.841 E10.03928
G1 X112.968 Y194.169 E10.07966
G1 X112.778 Y195.504 E10.12003
G1 X112.616 Y197.03 E10.16597
G1 X112.483 Y197.905 E10.19246
G1 X112.271 Y198.765 E10.21897
G1 X111.983 Y199.602 E10.24547
G1 X111.621 Y200.409 E10.27194
G1 X111.187 Y201.181 E10.29846
G1 X110.685 Y201.91 E10.32495
G1 X110.119 Y202.591 E10.35146
G1 X109.494 Y203.218 E10.37796
G1 X108.816 Y203.786 E10.40443
G1 X108.088 Y204.291 E10.43096
G1 X107.319 Y204.728 E10.45743
G1 X106.512 Y205.093 E10.48395
G1 X105.677 Y205.385 E10.51042
G1 X104.818 Y205.6 E10.53693
G1 X103.943 Y205.736 E10.56344
G1 X103.06 Y205.793 E10.58993
G1 X102.175 Y205.77 E10.61643
G1 X101.296 Y205.668 E10.64291
G1 X100.429 Y205.486 E10.66943
G1 X99.583 Y205.227 E10.69592
G1 X98.763 Y204.893 E10.72242
G1 X97.977 Y204.486 E10.74892
G1 X97.231 Y204.009 E10.77542
G1 X96.531 Y203.468 E10.8019
G1 X95.882 Y202.865 E10.82842
G1 X95.291 Y202.206 E10.85492
G1 X94.761 Y201.497 E10.88142
G1 X94.404 Y200.916 E10.90183
G1 X94.226 Y201.118 E10.90989
G1 X93.582 Y201.725 E10.93638
G1 X92.886 Y202.273 E10.9629
G1 X92.144 Y202.755 E10.98938
G1 X91.361 Y203.168 E11.01588
G1 X90.544 Y203.509 E11.04238
G1 X89.7 Y203.775 E11.06887
G1 X88.835 Y203.964 E11.09538
G1 X87.957 Y204.073 E11.12186
G1 X87.072 Y204.103 E11.14837
G1 X86.188 Y204.053 E11.17487
G1 X85.313 Y203.924 E11.20135
G1 X84.452 Y203.716 E11.22786
G1 X83.614 Y203.431 E11.25436
G1 X82.805 Y203.072 E11.28085
G1 X82.031 Y202.641 E11.30737
G1 X81.3 Y202.143 E11.33385
G1 X80.617 Y201.58 E11.36034
G1 X79.987 Y200.958 E11.38685
G1 X79.416 Y200.281 E11.41336
G1 X78.908 Y199.556 E11.43986
G1 X78.468 Y198.788 E11.46635
G1 X78.099 Y197.984 E11.49283
G1 X77.804 Y197.149 E11.51934
G1 X77.586 Y196.291 E11.54584
G1 X77.445 Y195.417 E11.57234
G1 X77.385 Y194.534 E11.59883
G1 X77.404 Y193.649 E11.62533
G1 X77.503 Y192.769 E11.65184
G1 X77.681 Y191.902 E11.67833
G1 X78.015 Y190.839 E11.71169
G1 X109.412 Y107.783 E14.36961
G1 X109.413 Y107.78 E14.3697
G1 X110.145 Y105.845 E14.43163
G1 X110.144 Y104.04 E14.48566
G1 X110.183 Y103.156 E14.51215
G1 X110.303 Y102.279 E14.53865
G1 X110.5 Y101.416 E14.56514
G1 X110.775 Y100.575 E14.59163
G1 X111.125 Y99.761 E14.61815
G1 X111.547 Y98.983 E14.64465
G1 X112.037 Y98.246 E14.67114
G1 X112.591 Y97.556 E14.69763
G0 F6000 X112.987 Y97.714
G1 F600 X113.599 Y97.1 E14.72358
G1 X114.265 Y96.545 E14.74953
G1 X114.979 Y96.053 E14.77548
G1 X115.735 Y95.63 E14.80142
G1 X116.528 Y95.278 E14.82739
G1 X117.349 Y95 E14.85333
G1 X118.192 Y94.8 E14.87927
G1 X119.051 Y94.678 E14.90524
G1 X119.938 Y94.635 E14.93182
G1 X179.938 Y94.598 E16.72787
G1 X180.804 Y94.637 E16.75382
G1 X181.663 Y94.757 E16.77978
G1 X182.507 Y94.954 E16.80573
G1 X183.329 Y95.229 E16.83167
G1 X184.123 Y95.578 E16.85764
G1 X184.881 Y95.999 E16.88359
G1 X185.597 Y96.488 E16.90954
G1 X186.265 Y97.04 E16.93548
G1 X186.879 Y97.652 E16.96143
G1 X187.434 Y98.318 E16.98739
G1 X187.925 Y99.032 E17.01332
G1 X188.349 Y99.789 E17.0393
G1 X188.701 Y100.581 E17.06524
G1 X188.979 Y101.402 E17.09119
G1 X189.179 Y102.246 E17.11715
G1 X189.301 Y103.104 E17.14309
G1 X189.344 Y103.993 E17.16974
G1 X189.345 Y105.873 E17.22601
G1 X220.247 Y187.304 E19.83319
G1 X220.248 Y187.304 E19.83322
G1 X221.619 Y190.915 E19.94884
G1 X221.889 Y191.739 E19.9748
G1 X222.082 Y192.584 E20.00075
G1 X222.196 Y193.444 E20.02671
G1 X222.231 Y194.31 E20.05266
G1 X222.185 Y195.176 E20.07862
G1 X222.061 Y196.034 E20.10457
G1 X221.857 Y196.877 E20.13053
G1 X221.577 Y197.697 E20.15647
G1 X221.222 Y198.488 E20.18242
G1 X220.796 Y199.243 E20.20837
G1 X220.303 Y199.956 E20.23432
G1 X219.745 Y200.62 E20.26028
G1 X219.129 Y201.23 E20.28623
G1 X218.46 Y201.78 E20.31216
G1 X217.742 Y202.267 E20.33813
G1 X216.983 Y202.685 E20.36407
G1 X216.188 Y203.032 E20.39003
G1 X215.365 Y203.304 E20.41598
G1 X214.52 Y203.499 E20.44194
G1 X213.661 Y203.615 E20.46788
G1 X212.795 Y203.652 E20.49383
G1 X211.929 Y203.609 E20.51979
G1 X211.071 Y203.486 E20.54573
G1 X210.228 Y203.284 E20.57168
G1 X209.407 Y203.006 E20.59763
G1 X208.615 Y202.653 E20.62358
G1 X207.859 Y202.229 E20.64953
G1 X207.145 Y201.737 E20.67549
G1 X206.479 Y201.181 E20.70146
G1 X205.868 Y200.567 E20.72738
G1 X205.525 Y200.151 E20.74352
G1 X205.505 Y200.195 E20.74497
G1 X205.075 Y200.947 E20.7709
G1 X204.577 Y201.657 E20.79686
G1 X204.016 Y202.318 E20.82281
G1 X203.396 Y202.925 E20.84879
G1 X202.724 Y203.472 E20.87472
G1 X202.004 Y203.954 E20.90066
G1 X201.242 Y204.368 E20.92662
G1 X200.445 Y204.711 E20.95259
G1 X199.621 Y204.978 E20.97852
G1 X198.775 Y205.168 E21.00448
G1 X197.915 Y205.28 E21.03044
G1 X197.049 Y205.312 E21.05638
G1 X196.183 Y205.263 E21.08234
G1 X195.326 Y205.136 E21.10828
G1 X194.484 Y204.93 E21.13422
G1 X193.664 Y204.647 E21.16019
G1 X192.874 Y204.29 E21.18614
G1 X192.12 Y203.861 E21.21211
G1 X191.409 Y203.365 E21.23806
G1 X190.747 Y202.806 E21.26399
G1 X190.139 Y202.188 E21.28995
G1 X189.591 Y201.517 E21.31588
G1 X189.106 Y200.797 E21.34187
G1 X188.69 Y200.037 E21.3678
G1 X188.346 Y199.241 E21.39376
G1 X188.077 Y198.417 E21.4197
G1 X187.885 Y197.572 E21.44564
G1 X187.796 Y196.964 E21.46404
G1 X187.624 Y195.438 E21.51001
G1 X187.423 Y194.036 E21.5524
G1 X187.182 Y192.703 E21.59295
G1 X186.898 Y191.406 E21.6327
G1 X186.545 Y190.025 E21.67536
G1 X186.158 Y188.714 E21.71628
G1 X185.721 Y187.411 E21.75742
G1 X185.246 Y186.151 E21.79773
G1 X184.71 Y184.869 E21.83932
G1 X184.142 Y183.637 E21.87993
G1 X183.524 Y182.415 E21.92093
G1 X182.843 Y181.181 E21.96312
G1 X182.156 Y180.036 E22.00309
G1 X181.409 Y178.889 E22.04406
G1 X180.606 Y177.748 E22.08583
G1 X179.786 Y176.666 E22.12646
G1 X178.91 Y175.595 E22.16788
G1 X178.017 Y174.579 E22.20837
G1 X177.073 Y173.581 E22.24949
G1 X176.094 Y172.619 E22.29058
G1 X175.086 Y171.695 E22.33151
G1 X174.029 Y170.798 E22.37301
G1 X172.96 Y169.953 E22.4138
G1 X171.86 Y169.147 E22.45462
G1 X170.707 Y168.365 E22.49632
G1 X169.555 Y167.643 E22.53702
G1 X168.377 Y166.962 E22.57775
G1 X167.166 Y166.32 E22.61878
G1 X165.911 Y165.712 E22.66053
G1 X164.676 Y165.167 E22.70093
G1 X163.409 Y164.662 E22.74176
G1 X162.104 Y164.197 E22.78323
G1 X160.8 Y163.783 E22.82419
G1 X159.465 Y163.413 E22.86565
G1 X158.153 Y163.1 E22.90603
G1 X156.767 Y162.82 E22.94836
G1 X155.461 Y162.608 E22.98796
G1 X154.066 Y162.431 E23.03006
G1 X152.718 Y162.31 E23.07057
G1 X151.373 Y162.237 E23.11089
G1 X149.957 Y162.213 E23.15328
G1 X148.625 Y162.238 E23.19316
G1 X147.241 Y162.314 E23.23465
G1 X145.866 Y162.44 E23.27598
G1 X144.52 Y162.611 E23.3166
G1 X143.163 Y162.835 E23.35777
G1 X141.819 Y163.107 E23.39882
G1 X140.496 Y163.425 E23.43955
G1 X139.157 Y163.798 E23.48116
G1 X137.862 Y164.208 E23.52182
G1 X136.565 Y164.675 E23.56308
G1 X135.291 Y165.184 E23.60415
G1 X134.032 Y165.742 E23.64537
G1 X132.812 Y166.335 E23.68598
G1 X131.61 Y166.974 E23.72673
G1 X130.4 Y167.675 E23.76859
G1 X129.249 Y168.399 E23.80929
G1 X128.119 Y169.167 E23.85019
G1 X126.998 Y169.991 E23.89183
G1 X125.928 Y170.838 E23.93268
G1 X124.9 Y171.714 E23.97311
G1 X123.877 Y172.652 E24.01466
G1 X122.907 Y173.609 E24.05545
G1 X121.961 Y174.611 E24.0967
G1 X121.062 Y175.636 E24.13751
G1 X120.189 Y176.706 E24.17885
G1 X119.369 Y177.79 E24.21953
G1 X118.588 Y178.905 E24.26028
G1 X117.831 Y180.071 E24.3019
G1 X117.127 Y181.249 E24.34298
G1 X116.454 Y182.469 E24.38469
G1 X115.864 Y183.639 E24.42391
G1 X115.267 Y184.937 E24.46668
G1 X114.738 Y186.203 E24.50775
G1 X114.277 Y187.442 E24.54732
G1 X113.834 Y188.769 E24.5892
G1 X113.443 Y190.096 E24.63061
G1 X113.11 Y191.403 E24.67098
G1 X112.812 Y192.768 E24.71281
G1 X112.575 Y194.094 E24.75313
G1 X112.38 Y195.462 E24.79449
G1 X112.218 Y196.988 E24.84043
G1 X112.087 Y197.845 E24.86638
G1 X111.878 Y198.686 E24.89232
G1 X111.591 Y199.504 E24.91827
G1 X111.231 Y200.293 E24.94423
G1 X110.8 Y201.045 E24.97017
G1 X110.301 Y201.754 E24.99613
G1 X109.738 Y202.414 E25.0221
G1 X109.118 Y203.019 E25.04803
G1 X108.444 Y203.565 E25.07399
G1 X107.723 Y204.046 E25.09994
G1 X106.961 Y204.459 E25.12588
G1 X106.164 Y204.799 E25.15182
G1 X105.338 Y205.065 E25.17779
G1 X104.492 Y205.254 E25.20374
G1 X103.632 Y205.364 E25.2297
G1 X102.766 Y205.394 E25.25563
G1 X101.9 Y205.345 E25.2816
G1 X101.043 Y205.216 E25.30754
G1 X100.201 Y205.008 E25.3335
G1 X99.382 Y204.724 E25.35945
G1 X98.593 Y204.365 E25.3854
G1 X97.84 Y203.935 E25.41136
G1 X97.13 Y203.438 E25.4373
G1 X96.469 Y202.878 E25.46323
G1 X95.862 Y202.258 E25.48921
G1 X95.314 Y201.586 E25.51516
G1 X94.832 Y200.866 E25.5411
G1 X94.482 Y200.225 E25.56296
G1 X94.467 Y200.245 E25.56371
G1 X93.888 Y200.891 E25.58968
G1 X93.253 Y201.481 E25.61562
G1 X92.566 Y202.009 E25.64156
G1 X91.833 Y202.473 E25.66753
G1 X91.061 Y202.866 E25.69346
G1 X90.255 Y203.187 E25.71943
G1 X89.424 Y203.433 E25.74537
G1 X88.573 Y203.6 E25.77133
G1 X87.711 Y203.689 E25.79727
G1 X86.844 Y203.698 E25.82323
G1 X85.98 Y203.627 E25.84918
G1 X85.126 Y203.476 E25.87514
G1 X84.29 Y203.248 E25.90107
G1 X83.478 Y202.944 E25.92703
G1 X82.698 Y202.566 E25.95297
G1 X81.956 Y202.117 E25.97894
G1 X81.258 Y201.603 E26.00488
G1 X80.611 Y201.026 E26.03083
G1 X80.02 Y200.392 E26.05678
G1 X79.489 Y199.706 E26.08275
G1 X79.024 Y198.974 E26.10871
G1 X78.629 Y198.203 E26.13464
G1 X78.306 Y197.398 E26.1606
G1 X78.059 Y196.567 E26.18655
G1 X77.889 Y195.717 E26.2125
G1 X77.798 Y194.855 E26.23845
G1 X77.787 Y193.988 E26.2644
G1 X77.856 Y193.124 E26.29035
G1 X78.005 Y192.27 E26.3163
G1 X78.231 Y191.433 E26.34225
G1 X78.389 Y190.98 E26.35661
G1 X109.786 Y107.924 E29.01453
G1 X109.787 Y107.922 E29.0146
G1 X110.545 Y105.918 E29.07873
G1 X110.544 Y104.04 E29.13495
G1 X110.583 Y103.174 E29.1609
G1 X110.703 Y102.315 E29.18686
G1 X110.9 Y101.471 E29.21281
G1 X111.175 Y100.649 E29.23875
G1 X111.524 Y99.856 E29.26469
G1 X111.945 Y99.098 E29.29064
G1 X112.434 Y98.382 E29.3166
G1 X112.987 Y97.714 E29.34255
G0 F6000 X113.382 Y97.876
G1 F600 X113.991 Y97.285 E29.36796
G1 X114.653 Y96.755 E29.39334
G1 X115.362 Y96.289 E29.41874
G1 X116.112 Y95.892 E29.44414
G1 X116.895 Y95.567 E29.46952
G1 X117.706 Y95.318 E29.49491
