;FLAVOR:Marlin
M117 Time Left 0h13m00s
;Filament used: 0.353205m
;Layer height: 0.2
;MINX:127.956
;MINY:124.117
;MINZ:0.2
;MAXX:172.059
;MAXY:175.877
;MAXZ:2.9
;POSTPROCESSED
;Generated with Cura_SteamEngine 4.4.1
M140 S55
M105
M190 S55
M104 S210
M105
M109 S210
M82 ;absolute extrusion mode
M201 X500.00 Y500.00 Z100.00 E5000.00 ;Setup machine max acceleration
M203 X500.00 Y500.00 Z10.00 E50.00 ;Setup machine max feedrate
M204 P500.00 R1000.00 T500.00 ;Setup Print/Retract/Travel acceleration
M205 X8.00 Y8.00 Z0.40 E5.00 ;Setup Jerk
M220 S100 ;Reset Feedrate
M221 S100 ;Reset Flowrate

G28 ;Home

G92 E0 ;Reset Extruder
G1 Z2.0 F3000 ;Move Z Axis up
G1 X10.1 Y20 Z0.28 F5000.0 ;Move to start position
G1 X10.1 Y200.0 Z0.28 F1500.0 E15 ;Draw the first line
G1 X10.4 Y200.0 Z0.28 F5000.0 ;Move to side a little
G1 X10.4 Y20 Z0.28 F1500.0 E30 ;Draw the second line
G92 E0 ;Reset Extruder
G1 Z2.0 F3000 ;Move Z Axis up

G92 E0
G92 E0
G1 F1800 E-6.5
;LAYER_COUNT:12
;LAYER:0
M117 Layer 1 base-front of 12
M107
G1 F300 Z0.7
G0 F6000 X138.317 Y127.434 Z0.7
;TYPE:SKIRT
G1 F300 Z0.2
G1 F1800 E0
G1 F600 X138.932 Y126.797 E0.0265
G1 X139.602 Y126.219 E0.05299
G1 X140.321 Y125.703 E0.07948
G1 X141.084 Y125.254 E0.10598
G1 X141.885 Y124.876 E0.1325
G1 X142.716 Y124.572 E0.15899
G1 X143.571 Y124.344 E0.18547
G1 X144.444 Y124.194 E0.21199
G1 X145.666 Y124.117 E0.24864
G1 X154.334 Y124.117 E0.50811
G1 X155.218 Y124.157 E0.5346
G1 X156.095 Y124.277 E0.5611
G1 X156.958 Y124.475 E0.5876
G1 X157.799 Y124.75 E0.61409
G1 X158.612 Y125.1 E0.64058
G1 X159.391 Y125.522 E0.6671
G1 X160.127 Y126.013 E0.69359
G1 X160.817 Y126.568 E0.72009
G1 X161.454 Y127.183 E0.7466
G1 X162.032 Y127.853 E0.77309
G1 X162.548 Y128.572 E0.79958
G1 X162.997 Y129.335 E0.82608
G1 X163.375 Y130.136 E0.85259
G1 X163.679 Y130.967 E0.87908
G1 X163.907 Y131.822 E0.90557
G1 X164.057 Y132.695 E0.93208
G1 X164.134 Y133.917 E0.96873
G1 X164.134 Y136.187 E1.03668
G1 X171.702 Y163.463 E1.88401
G1 X171.9 Y164.326 E1.91052
G1 X172.019 Y165.203 E1.93701
G1 X172.059 Y166.087 E1.9635
G1 X172.019 Y166.971 E1.98999
G1 X171.899 Y167.849 E2.01651
G1 X171.7 Y168.711 E2.043
G1 X171.424 Y169.552 E2.06949
G1 X171.074 Y170.365 E2.09599
G1 X170.652 Y171.143 E2.12248
G1 X170.161 Y171.88 E2.14899
G1 X169.605 Y172.569 E2.17549
G1 X168.99 Y173.206 E2.202
G1 X168.32 Y173.784 E2.22849
G1 X167.6 Y174.299 E2.25498
G1 X166.837 Y174.748 E2.28149
G1 X166.037 Y175.126 E2.30797
G1 X165.205 Y175.43 E2.33449
G1 X164.35 Y175.657 E2.36097
G1 X163.477 Y175.807 E2.38748
G1 X162.595 Y175.877 E2.41397
G1 X161.71 Y175.868 E2.44046
G1 X160.829 Y175.778 E2.46697
G1 X159.96 Y175.61 E2.49346
G1 X159.11 Y175.363 E2.51996
G1 X158.285 Y175.041 E2.54647
G1 X157.493 Y174.646 E2.57296
G1 X156.74 Y174.181 E2.59946
G1 X156.032 Y173.65 E2.62595
G1 X155.374 Y173.057 E2.65246
G1 X154.773 Y172.407 E2.67896
G1 X154.233 Y171.706 E2.70545
G1 X153.758 Y170.959 E2.73195
G1 X153.353 Y170.172 E2.75844
G1 X153.02 Y169.352 E2.78494
G1 X152.867 Y168.882 E2.79973
G1 X152.785 Y168.608 E2.80829
G1 X152.753 Y168.511 E2.81135
G1 X152.717 Y168.415 E2.81442
G1 X152.673 Y168.31 E2.81783
G1 X152.629 Y168.214 E2.82099
G1 X152.58 Y168.117 E2.82424
G1 X152.545 Y168.052 E2.82645
G1 X152.488 Y167.957 E2.82977
G1 X152.429 Y167.865 E2.83304
G1 X152.36 Y167.767 E2.83663
G1 X152.288 Y167.671 E2.84022
G1 X152.232 Y167.602 E2.84288
G1 X152.182 Y167.544 E2.84517
G1 X152.099 Y167.455 E2.84881
G1 X152.02 Y167.376 E2.85216
G1 X151.949 Y167.31 E2.85506
G1 X151.865 Y167.238 E2.85837
G1 X151.797 Y167.183 E2.86099
G1 X151.715 Y167.122 E2.86405
G1 X151.633 Y167.065 E2.86704
G1 X151.528 Y166.997 E2.87078
G1 X151.463 Y166.959 E2.87304
G1 X151.338 Y166.89 E2.87731
G1 X151.263 Y166.852 E2.87983
G1 X151.158 Y166.804 E2.88328
G1 X151.054 Y166.761 E2.88665
G1 X151.024 Y166.749 E2.88762
G1 X150.871 Y166.698 E2.89245
G1 X150.781 Y166.672 E2.89525
G1 X150.681 Y166.647 E2.89834
G1 X150.55 Y166.618 E2.90235
G1 X150.474 Y166.604 E2.90467
G1 X150.368 Y166.589 E2.90787
G1 X150.244 Y166.575 E2.91161
G1 X150.166 Y166.569 E2.91395
G1 X150.051 Y166.565 E2.91739
G1 X149.912 Y166.565 E2.92155
G1 X149.858 Y166.566 E2.92317
G1 X149.754 Y166.574 E2.92629
G1 X149.632 Y166.587 E2.92997
G1 X149.557 Y166.597 E2.93223
G1 X149.431 Y166.62 E2.93606
G1 X149.327 Y166.642 E2.93925
G1 X149.229 Y166.667 E2.94227
G1 X149.159 Y166.688 E2.94446
G1 X149.007 Y166.738 E2.94925
G1 X148.95 Y166.759 E2.95107
G1 X148.833 Y166.807 E2.95486
G1 X148.741 Y166.849 E2.95788
G1 X148.658 Y166.89 E2.96065
G1 X148.592 Y166.926 E2.9629
G1 X148.461 Y167.004 E2.96747
G1 X148.383 Y167.053 E2.97023
G1 X148.296 Y167.114 E2.97341
G1 X148.217 Y167.172 E2.97634
G1 X148.135 Y167.238 E2.97949
G1 X148.048 Y167.312 E2.98291
G1 X147.989 Y167.367 E2.98532
G1 X147.893 Y167.463 E2.98939
G1 X147.839 Y167.52 E2.99174
G1 X147.759 Y167.612 E2.99539
G1 X147.726 Y167.652 E2.99694
G1 X147.654 Y167.748 E3.00053
G1 X147.575 Y167.86 E3.00464
G1 X147.522 Y167.942 E3.00756
G1 X147.476 Y168.019 E3.01024
G1 X147.408 Y168.141 E3.01442
G1 X147.379 Y168.199 E3.01636
G1 X147.32 Y168.327 E3.02058
G1 X147.28 Y168.422 E3.02367
G1 X147.272 Y168.442 E3.02431
G1 X147.224 Y168.583 E3.02877
G1 X147.136 Y168.876 E3.03793
G1 X146.844 Y169.712 E3.06444
G1 X146.478 Y170.518 E3.09094
G1 X146.04 Y171.287 E3.11743
G1 X145.535 Y172.014 E3.14392
G1 X144.966 Y172.692 E3.17042
G1 X144.339 Y173.317 E3.19692
G1 X143.657 Y173.882 E3.22343
G1 X142.928 Y174.383 E3.24991
G1 X142.156 Y174.817 E3.27642
G1 X141.348 Y175.179 E3.30292
G1 X140.511 Y175.466 E3.32941
G1 X139.651 Y175.677 E3.35592
G1 X138.776 Y175.81 E3.38241
G1 X137.892 Y175.863 E3.40892
G1 X137.008 Y175.836 E3.43539
G1 X136.129 Y175.729 E3.4619
G1 X135.263 Y175.544 E3.48841
G1 X134.418 Y175.281 E3.5149
G1 X133.6 Y174.943 E3.54139
G1 X132.816 Y174.532 E3.56789
G1 X132.072 Y174.053 E3.59438
G1 X131.374 Y173.508 E3.62089
G1 X130.728 Y172.902 E3.6474
G1 X130.14 Y172.241 E3.67388
G1 X129.613 Y171.529 E3.7004
G1 X129.154 Y170.773 E3.72687
G1 X128.764 Y169.978 E3.75338
G1 X128.447 Y169.152 E3.77987
G1 X128.206 Y168.3 E3.80637
G1 X128.044 Y167.43 E3.83286
G1 X127.96 Y166.548 E3.85938
G1 X127.956 Y165.663 E3.88587
G1 X128.032 Y164.781 E3.91237
G1 X128.188 Y163.91 E3.93886
G1 X128.305 Y163.444 E3.95324
G1 X135.866 Y136.187 E4.79997
G1 X135.866 Y133.917 E4.86792
G1 X135.906 Y133.033 E4.89441
G1 X136.026 Y132.156 E4.9209
G1 X136.224 Y131.293 E4.94741
G1 X136.499 Y130.452 E4.97389
G1 X136.849 Y129.639 E5.00039
G1 X137.271 Y128.86 E5.02691
G1 X137.762 Y128.124 E5.05339
G1 X138.317 Y127.434 E5.0799
G0 F6000 X138.712 Y127.592
G1 F600 X139.325 Y126.978 E5.10587
G1 X139.991 Y126.423 E5.13182
G1 X140.705 Y125.933 E5.15775
G1 X141.462 Y125.509 E5.18372
G1 X142.255 Y125.158 E5.20968
G1 X143.076 Y124.881 E5.23561
G1 X143.92 Y124.681 E5.26158
G1 X144.778 Y124.559 E5.28752
G1 X145.666 Y124.517 E5.31413
G1 X154.334 Y124.517 E5.5736
G1 X155.2 Y124.557 E5.59955
G1 X156.059 Y124.677 E5.62551
G1 X156.903 Y124.875 E5.65146
G1 X157.725 Y125.15 E5.67741
G1 X158.518 Y125.5 E5.70336
G1 X159.276 Y125.921 E5.72931
G1 X159.991 Y126.41 E5.75524
G1 X160.659 Y126.963 E5.7812
G1 X161.273 Y127.576 E5.80717
G1 X161.828 Y128.242 E5.83312
G1 X162.318 Y128.956 E5.85905
G1 X162.742 Y129.713 E5.88502
G1 X163.093 Y130.506 E5.91098
G1 X163.37 Y131.327 E5.93691
G1 X163.57 Y132.171 E5.96288
G1 X163.692 Y133.029 E5.98882
G1 X163.734 Y133.917 E6.01543
G1 X163.734 Y136.24 E6.08497
G1 X171.317 Y163.57 E6.93397
G1 X171.51 Y164.415 E6.95992
G1 X171.624 Y165.274 E6.98586
G1 X171.659 Y166.141 E7.01183
G1 X171.614 Y167.006 E7.03776
G1 X171.489 Y167.864 E7.06372
G1 X171.285 Y168.707 E7.08968
G1 X171.005 Y169.528 E7.11564
G1 X170.651 Y170.319 E7.14159
G1 X170.225 Y171.074 E7.16753
G1 X169.731 Y171.786 E7.19348
G1 X169.174 Y172.451 E7.21944
G1 X168.558 Y173.061 E7.24539
G1 X167.888 Y173.611 E7.27134
G1 X167.171 Y174.098 E7.29729
G1 X166.411 Y174.516 E7.32325
G1 X165.617 Y174.863 E7.34919
G1 X164.793 Y175.135 E7.37516
G1 X163.949 Y175.33 E7.40109
G1 X163.09 Y175.446 E7.42704
G1 X162.223 Y175.483 E7.45302
G1 X161.358 Y175.44 E7.47894
G1 X160.499 Y175.317 E7.50492
G1 X159.656 Y175.115 E7.53087
G1 X158.835 Y174.837 E7.55681
G1 X158.043 Y174.485 E7.58276
G1 X157.287 Y174.06 E7.60872
G1 X156.573 Y173.568 E7.63467
G1 X155.908 Y173.013 E7.6606
G1 X155.296 Y172.398 E7.68657
G1 X154.744 Y171.73 E7.71251
G1 X154.256 Y171.013 E7.73847
G1 X153.836 Y170.255 E7.76441
G1 X153.487 Y169.461 E7.79038
G1 X153.251 Y168.768 E7.81229
G1 X153.178 Y168.522 E7.81997
G1 X153.121 Y168.352 E7.82534
G1 X153.093 Y168.279 E7.82768
G1 X153.042 Y168.155 E7.83169
G1 X152.996 Y168.054 E7.83502
G1 X152.936 Y167.934 E7.83903
G1 X152.897 Y167.864 E7.84143
G1 X152.799 Y167.7 E7.84715
G1 X152.762 Y167.643 E7.84918
G1 X152.677 Y167.521 E7.85363
G1 X152.618 Y167.443 E7.85656
G1 X152.539 Y167.345 E7.86033
G1 X152.48 Y167.276 E7.86305
G1 X152.392 Y167.182 E7.8669
G1 X152.298 Y167.088 E7.87088
G1 X152.21 Y167.006 E7.87448
G1 X152.141 Y166.947 E7.8772
G1 X152.017 Y166.847 E7.88197
G1 X151.972 Y166.813 E7.88366
G1 X151.848 Y166.727 E7.88817
G1 X151.75 Y166.664 E7.89166
G1 X151.639 Y166.599 E7.89551
G1 X151.513 Y166.529 E7.89983
G1 X151.452 Y166.499 E7.90186
G1 X151.325 Y166.44 E7.90605
G1 X151.212 Y166.393 E7.90972
G1 X151.139 Y166.367 E7.91204
G1 X150.976 Y166.312 E7.91719
G1 X150.894 Y166.288 E7.91974
G1 X150.769 Y166.256 E7.92361
G1 X150.619 Y166.223 E7.9282
G1 X150.554 Y166.211 E7.93018
G1 X150.411 Y166.191 E7.9345
G1 X150.286 Y166.177 E7.93827
G1 X150.186 Y166.17 E7.94127
G1 X150.067 Y166.165 E7.94484
G1 X149.901 Y166.165 E7.9498
G1 X149.839 Y166.167 E7.95166
G1 X149.716 Y166.176 E7.95535
G1 X149.591 Y166.189 E7.95911
G1 X149.479 Y166.204 E7.9625
G1 X149.38 Y166.222 E7.96551
G1 X149.249 Y166.25 E7.96952
G1 X149.11 Y166.286 E7.97382
G1 X149.025 Y166.31 E7.97646
G1 X148.896 Y166.353 E7.98053
G1 X148.795 Y166.39 E7.98375
G1 X148.673 Y166.44 E7.9877
G1 X148.576 Y166.484 E7.99089
G1 X148.467 Y166.538 E7.99453
G1 X148.375 Y166.589 E7.99768
G1 X148.257 Y166.659 E8.00178
G1 X148.168 Y166.715 E8.00493
G1 X148.064 Y166.787 E8.00872
G1 X147.978 Y166.851 E8.01193
G1 X147.867 Y166.94 E8.01619
G1 X147.799 Y166.998 E8.01886
G1 X147.705 Y167.085 E8.0227
G1 X147.619 Y167.171 E8.02634
G1 X147.525 Y167.27 E8.03042
G1 X147.473 Y167.331 E8.03282
G1 X147.387 Y167.437 E8.03691
G1 X147.342 Y167.496 E8.03913
G1 X147.249 Y167.629 E8.04399
G1 X147.19 Y167.72 E8.04723
G1 X147.11 Y167.853 E8.05188
G1 X147.059 Y167.946 E8.05505
G1 X147.01 Y168.042 E8.05828
G1 X146.964 Y168.143 E8.0616
G1 X146.906 Y168.28 E8.06606
G1 X146.889 Y168.325 E8.0675
G1 X146.843 Y168.462 E8.07182
G1 X146.753 Y168.761 E8.08117
G1 X146.466 Y169.579 E8.10712
G1 X146.105 Y170.368 E8.13309
G1 X145.673 Y171.119 E8.15903
G1 X145.173 Y171.828 E8.185
G1 X144.611 Y172.487 E8.21092
G1 X143.99 Y173.092 E8.23687
G1 X143.316 Y173.638 E8.26284
G1 X142.594 Y174.118 E8.28879
G1 X141.832 Y174.531 E8.31474
G1 X141.034 Y174.871 E8.3407
G1 X140.209 Y175.136 E8.36664
G1 X139.363 Y175.324 E8.39258
G1 X138.503 Y175.434 E8.41854
G1 X137.636 Y175.463 E8.4445
G1 X136.771 Y175.413 E8.47044
G1 X135.914 Y175.283 E8.49639
G1 X135.072 Y175.075 E8.52235
G1 X134.253 Y174.79 E8.54831
G1 X133.464 Y174.431 E8.57425
G1 X132.711 Y174.001 E8.60021
G1 X132.002 Y173.503 E8.62615
G1 X131.341 Y172.942 E8.6521
G1 X130.734 Y172.322 E8.67807
G1 X130.188 Y171.65 E8.70399
G1 X129.705 Y170.929 E8.72997
G1 X129.291 Y170.168 E8.7559
G1 X128.949 Y169.371 E8.78186
G1 X128.682 Y168.546 E8.80782
G1 X128.492 Y167.7 E8.83377
G1 X128.38 Y166.841 E8.8597
G1 X128.348 Y165.974 E8.88567
G1 X128.397 Y165.109 E8.91161
G1 X128.524 Y164.251 E8.93757
G1 X128.69 Y163.551 E8.95911
G1 X136.266 Y136.24 E9.80751
G1 X136.266 Y133.917 E9.87705
G1 X136.306 Y133.051 E9.903
G1 X136.426 Y132.192 E9.92896
G1 X136.624 Y131.348 E9.95491
G1 X136.899 Y130.526 E9.98086
G1 X137.249 Y129.733 E10.0068
G1 X137.67 Y128.975 E10.03276
G1 X138.159 Y128.26 E10.05869
G1 X138.712 Y127.592 E10.08465
G0 F6000 X139.107 Y127.754
G1 F600 X139.717 Y127.164 E10.11005
G1 X140.379 Y126.634 E10.13544
G1 X141.088 Y126.168 E10.16083
G1 X141.838 Y125.772 E10.18622
G1 X142.622 Y125.447 E10.21163
G1 X143.433 Y125.198 E10.23702
G1 X144.264 Y125.027 E10.26242
G1 X145.107 Y124.934 E10.2878
G1 X145.666 Y124.917 E10.30455
G1 X154.334 Y124.917 E10.56401
G1 X155.181 Y124.957 E10.5894
G1 X156.021 Y125.077 E10.6148
G1 X156.846 Y125.275 E10.64019
G1 X157.649 Y125.55 E10.6656
G1 X158.422 Y125.899 E10.69099
G1 X159.158 Y126.319 E10.71636
G1 X159.852 Y126.807 E10.74175
G1 X160.497 Y127.358 E10.76715
G1 X161.087 Y127.968 E10.79255
G1 X161.617 Y128.63 E10.81793
G1 X162.083 Y129.339 E10.84333
G1 X162.479 Y130.089 E10.86872
G1 X162.804 Y130.873 E10.89412
G1 X163.053 Y131.684 E10.91952
G1 X163.224 Y132.515 E10.94492
G1 X163.317 Y133.358 E10.9703
G1 X163.334 Y133.917 E10.98704
G1 X163.334 Y136.296 E11.05826
G1 X170.931 Y163.677 E11.90885
G1 X171.119 Y164.504 E11.93423
G1 X171.229 Y165.345 E11.95962
G1 X171.258 Y166.193 E11.98502
G1 X171.208 Y167.04 E12.01042
G1 X171.078 Y167.878 E12.0358
G1 X170.87 Y168.7 E12.06119
G1 X170.585 Y169.5 E12.08661
G1 X170.227 Y170.268 E12.11197
G1 X169.797 Y171 E12.13738
G1 X169.301 Y171.688 E12.16277
G1 X168.742 Y172.326 E12.18816
G1 X168.125 Y172.908 E12.21355
G1 X167.457 Y173.43 E12.23893
G1 X166.742 Y173.887 E12.26433
G1 X165.987 Y174.275 E12.28974
G1 X165.199 Y174.589 E12.31513
G1 X164.385 Y174.828 E12.34053
G1 X163.553 Y174.99 E12.3659
G1 X162.708 Y175.072 E12.39132
G1 X161.86 Y175.074 E12.4167
G1 X161.015 Y174.997 E12.4421
G1 X160.182 Y174.84 E12.46747
G1 X159.366 Y174.605 E12.49289
G1 X158.577 Y174.295 E12.51827
G1 X157.82 Y173.912 E12.54366
G1 X157.103 Y173.459 E12.56905
G1 X156.431 Y172.941 E12.59445
G1 X155.811 Y172.362 E12.61984
G1 X155.249 Y171.727 E12.64523
G1 X154.748 Y171.042 E12.67063
G1 X154.315 Y170.313 E12.69601
G1 X153.952 Y169.546 E12.72141
G1 X153.634 Y168.654 E12.74976
G1 X153.549 Y168.37 E12.75863
G1 X153.505 Y168.238 E12.7628
G1 X153.46 Y168.119 E12.76661
G1 X153.399 Y167.974 E12.77132
G1 X153.354 Y167.876 E12.77454
G1 X153.29 Y167.748 E12.77883
G1 X153.233 Y167.645 E12.78235
G1 X153.161 Y167.524 E12.78657
G1 X153.093 Y167.419 E12.79031
G1 X153.013 Y167.303 E12.79453
G1 X152.927 Y167.19 E12.79878
G1 X152.846 Y167.088 E12.80268
G1 X152.777 Y167.009 E12.80582
G1 X152.671 Y166.895 E12.81048
G1 X152.583 Y166.807 E12.8142
G1 X152.487 Y166.718 E12.81812
G1 X152.372 Y166.619 E12.82266
G1 X152.27 Y166.537 E12.82658
G1 X152.193 Y166.48 E12.82945
G1 X152.063 Y166.39 E12.83418
G1 X151.946 Y166.315 E12.83834
G1 X151.829 Y166.246 E12.84241
G1 X151.726 Y166.189 E12.84593
G1 X151.619 Y166.136 E12.84951
G1 X151.46 Y166.063 E12.85474
G1 X151.359 Y166.021 E12.85802
G1 X151.255 Y165.983 E12.86133
G1 X151.106 Y165.933 E12.86604
G1 X151.002 Y165.902 E12.86929
G1 X150.856 Y165.865 E12.87379
G1 X150.721 Y165.836 E12.87793
G1 X150.609 Y165.815 E12.88134
G1 X150.479 Y165.796 E12.88527
G1 X150.329 Y165.78 E12.88979
G1 X150.18 Y165.769 E12.89426
G1 X150.082 Y165.765 E12.8972
G1 X149.919 Y165.765 E12.90207
G1 X149.797 Y165.769 E12.90573
G1 X149.679 Y165.777 E12.90927
G1 X149.551 Y165.791 E12.91312
G1 X149.426 Y165.808 E12.9169
G1 X149.284 Y165.834 E12.92122
G1 X149.145 Y165.864 E12.92548
G1 X149.017 Y165.896 E12.92943
G1 X148.897 Y165.931 E12.93317
G1 X148.776 Y165.971 E12.93698
G1 X148.648 Y166.018 E12.94107
G1 X148.512 Y166.074 E12.94547
G1 X148.402 Y166.124 E12.94908
G1 X148.286 Y166.181 E12.95295
G1 X148.195 Y166.232 E12.95608
G1 X148.055 Y166.314 E12.96093
G1 X147.936 Y166.39 E12.96516
G1 X147.819 Y166.47 E12.9694
G1 X147.743 Y166.527 E12.97225
G1 X147.628 Y166.619 E12.97665
G1 X147.503 Y166.727 E12.9816
G1 X147.434 Y166.79 E12.9844
G1 X147.344 Y166.88 E12.98821
G1 X147.227 Y167.004 E12.99331
G1 X147.16 Y167.081 E12.99637
G1 X147.073 Y167.188 E13.00049
G1 X147.016 Y167.264 E13.00334
G1 X146.909 Y167.417 E13.00893
G1 X146.85 Y167.507 E13.01215
G1 X146.775 Y167.633 E13.01654
G1 X146.711 Y167.748 E13.02048
G1 X146.656 Y167.856 E13.0241
G1 X146.602 Y167.974 E13.02799
G1 X146.532 Y168.138 E13.03333
G1 X146.511 Y168.195 E13.03514
G1 X146.459 Y168.348 E13.03998
