;FLAVOR:Marlin
M117 Time Left 4h18m29s
;Filament used: 9.66178m
;Layer height: 0.2
;MINX:34.2
;MINY:103.21
;MINZ:0.2
;MAXX:265.8
;MAXY:196.795
;MAXZ:4.1
;POSTPROCESSED
;Generated with Cura_SteamEngine 4.4.1
M140 S55
M105
M190 S55
M104 S210
M105
M109 S210
M82 ;absolute extrusion mode
M201 X500.00 Y500.00 Z100.00 E5000.00 ;Setup machine max acceleration
M203 X500.00 Y500.00 Z10.00 E50.00 ;Setup machine max feedrate
M204 P500.00 R1000.00 T500.00 ;Setup Print/Retract/Travel acceleration
M205 X8.00 Y8.00 Z0.40 E5.00 ;Setup Jerk
M220 S100 ;Reset Feedrate
M221 S100 ;Reset Flowrate

G28 ;Home

G92 E0 ;Reset Extruder
G1 Z2.0 F3000 ;Move Z Axis up
G1 X10.1 Y20 Z0.28 F5000.0 ;Move to start position
G1 X10.1 Y200.0 Z0.28 F1500.0 E15 ;Draw the first line
G1 X10.4 Y200.0 Z0.28 F5000.0 ;Move to side a little
G1 X10.4 Y20 Z0.28 F1500.0 E30 ;Draw the second line
G92 E0 ;Reset Extruder
G1 Z2.0 F3000 ;Move Z Axis up

G92 E0
G92 E0
G1 F1800 E-6.5
;LAYER_COUNT:18
;LAYER:0
M117 Layer 1 base-bottom of 18
M107
G1 F300 Z0.7
G0 F6000 X39.286 Y103.687 Z0.7
;TYPE:SKIRT
G1 F300 Z0.2
G1 F1800 E0
G1 F600 X40.039 Y103.45 E0.0237
G1 X40.813 Y103.291 E0.04741
G1 X41.598 Y103.21 E0.0711
G1 X42.388 Y103.21 E0.09482
G1 X43.052 Y103.271 E0.11483
G1 X253.051 Y131.847 E6.47652
G1 X253.052 Y131.847 E6.47655
G1 X259.053 Y132.665 E6.65835
G1 X259.83 Y132.812 E6.68209
G1 X260.587 Y133.035 E6.70578
G1 X261.318 Y133.335 E6.7295
G1 X262.014 Y133.706 E6.75317
G1 X262.67 Y134.147 E6.7769
G1 X263.278 Y134.651 E6.8006
G1 X263.831 Y135.214 E6.82429
G1 X264.325 Y135.83 E6.848
G1 X264.754 Y136.493 E6.8717
G1 X265.114 Y137.196 E6.89541
G1 X265.401 Y137.932 E6.91912
G1 X265.612 Y138.693 E6.94283
G1 X265.745 Y139.471 E6.96652
G1 X265.8 Y140.394 E6.99427
G1 X265.8 Y159.592 E7.57054
G1 X265.76 Y160.381 E7.59426
G1 X265.641 Y161.161 E7.61794
G1 X265.443 Y161.926 E7.64166
G1 X265.169 Y162.666 E7.66535
G1 X264.821 Y163.375 E7.68906
G1 X264.403 Y164.046 E7.71279
G1 X263.92 Y164.67 E7.73647
G1 X263.377 Y165.243 E7.76017
G1 X262.778 Y165.758 E7.78388
G1 X262.13 Y166.209 E7.80758
G1 X261.439 Y166.593 E7.83131
G1 X260.714 Y166.905 E7.855
G1 X259.961 Y167.142 E7.8787
G1 X259.052 Y167.321 E7.90651
G1 X49.054 Y195.911 E14.26823
G1 X43.053 Y196.729 E14.45003
G1 X42.267 Y196.795 E14.4737
G1 X41.477 Y196.782 E14.49742
G1 X40.693 Y196.69 E14.52111
G1 X39.922 Y196.518 E14.54483
G1 X39.173 Y196.269 E14.56852
G1 X38.452 Y195.946 E14.59223
G1 X37.768 Y195.552 E14.61593
G1 X37.127 Y195.09 E14.63965
G1 X36.536 Y194.567 E14.66334
G1 X36.001 Y193.986 E14.68704
G1 X35.528 Y193.353 E14.71076
G1 X35.121 Y192.677 E14.73445
G1 X34.784 Y191.962 E14.75818
G1 X34.522 Y191.218 E14.78185
G1 X34.336 Y190.45 E14.80557
G1 X34.229 Y189.668 E14.82926
G1 X34.2 Y189 E14.84933
G1 X34.2 Y111 E17.19068
G1 X34.24 Y110.211 E17.2144
G1 X34.359 Y109.431 E17.23808
G1 X34.557 Y108.666 E17.2618
G1 X34.831 Y107.926 E17.28549
G1 X35.179 Y107.217 E17.30919
G1 X35.597 Y106.546 E17.33292
G1 X36.08 Y105.922 E17.35661
G1 X36.623 Y105.349 E17.38031
G1 X37.222 Y104.834 E17.40402
G1 X37.87 Y104.383 E17.42772
G1 X38.561 Y103.999 E17.45145
G1 X39.286 Y103.687 E17.47514
G0 F6000 X39.651 Y103.983
G1 F600 X40.393 Y103.777 E17.49825
G1 X41.151 Y103.649 E17.52133
G1 X41.919 Y103.6 E17.54443
G1 X42.998 Y103.668 E17.57688
G1 X252.997 Y132.244 E23.93857
G1 X252.998 Y132.244 E23.9386
G1 X258.999 Y133.062 E24.1204
G1 X259.755 Y133.205 E24.1435
G1 X260.492 Y133.426 E24.16659
G1 X261.202 Y133.722 E24.18968
G1 X261.877 Y134.091 E24.21278
G1 X262.51 Y134.527 E24.23585
G1 X263.095 Y135.027 E24.25895
G1 X263.624 Y135.585 E24.28203
G1 X264.093 Y136.195 E24.30513
G1 X264.496 Y136.85 E24.32821
G1 X264.829 Y137.543 E24.35129
G1 X265.088 Y138.268 E24.3744
G1 X265.27 Y139.015 E24.39748
G1 X265.374 Y139.777 E24.42056
G1 X265.4 Y140.394 E24.4391
G1 X265.4 Y159.592 E25.01537
G1 X265.36 Y160.36 E25.03846
G1 X265.241 Y161.12 E25.06155
G1 X265.043 Y161.863 E25.08463
G1 X264.769 Y162.582 E25.10772
G1 X264.422 Y163.268 E25.1308
G1 X264.006 Y163.915 E25.15389
G1 X263.525 Y164.515 E25.17697
G1 X262.984 Y165.062 E25.20007
G1 X262.389 Y165.55 E25.22317
G1 X261.747 Y165.973 E25.24624
G1 X261.064 Y166.328 E25.26935
G1 X260.349 Y166.609 E25.29241
G1 X259.607 Y166.815 E25.31553
G1 X258.998 Y166.924 E25.3341
G1 X49 Y195.514 E31.69581
G1 X42.999 Y196.332 E31.87761
G1 X42.233 Y196.396 E31.90069
G1 X41.464 Y196.381 E31.92378
G1 X40.701 Y196.285 E31.94686
G1 X39.952 Y196.111 E31.96994
G1 X39.225 Y195.86 E31.99303
G1 X38.528 Y195.535 E32.01611
G1 X37.868 Y195.139 E32.03922
G1 X37.253 Y194.677 E32.06231
G1 X36.689 Y194.153 E32.08541
G1 X36.183 Y193.574 E32.1085
G1 X35.74 Y192.946 E32.13156
G1 X35.364 Y192.275 E32.15465
G1 X35.06 Y191.568 E32.17775
G1 X34.831 Y190.834 E32.20083
G1 X34.679 Y190.08 E32.22392
G1 X34.6 Y189 E32.25643
G1 X34.6 Y111 E34.59777
G1 X34.64 Y110.232 E34.62086
G1 X34.759 Y109.472 E34.64395
G1 X34.957 Y108.729 E34.66703
G1 X35.231 Y108.01 E34.69013
G1 X35.578 Y107.324 E34.7132
G1 X35.994 Y106.677 E34.73629
G1 X36.475 Y106.077 E34.75938
G1 X37.016 Y105.53 E34.78247
G1 X37.611 Y105.042 E34.80557
G1 X38.253 Y104.619 E34.82865
G1 X38.936 Y104.264 E34.85175
G1 X39.651 Y103.983 E34.87481
G0 F6000 X39.308 Y104.538
G1 F600 X40.013 Y104.288 E34.89727
G1 X40.741 Y104.114 E34.91974
G1 X41.483 Y104.019 E34.94219
G1 X42.231 Y104.004 E34.96465
G1 X42.944 Y104.064 E34.98613
G1 X252.943 Y132.64 E41.34782
G1 X252.944 Y132.64 E41.34785
G1 X258.945 Y133.458 E41.52965
G1 X259.68 Y133.599 E41.55211
G1 X260.396 Y133.817 E41.57458
G1 X261.084 Y134.11 E41.59702
G1 X261.737 Y134.475 E41.61948
G1 X262.347 Y134.908 E41.64193
G1 X262.908 Y135.403 E41.66439
G1 X263.413 Y135.955 E41.68685
G1 X263.855 Y136.558 E41.70929
G1 X264.231 Y137.205 E41.73175
G1 X264.536 Y137.888 E41.75421
G1 X264.766 Y138.6 E41.77667
G1 X264.919 Y139.332 E41.79911
G1 X265 Y140.394 E41.83109
G1 X265 Y159.592 E42.40736
G1 X264.96 Y160.339 E42.42981
G1 X264.841 Y161.077 E42.45225
G1 X264.643 Y161.799 E42.47472
G1 X264.37 Y162.495 E42.49716
G1 X264.023 Y163.158 E42.51963
G1 X263.608 Y163.781 E42.5421
G1 X263.129 Y164.355 E42.56454
G1 X262.592 Y164.876 E42.587
G1 X262.002 Y165.335 E42.60944
G1 X261.366 Y165.73 E42.63191
G1 X260.692 Y166.054 E42.65436
G1 X259.987 Y166.304 E42.67681
G1 X258.944 Y166.528 E42.70883
G1 X48.946 Y195.118 E49.07055
G1 X42.945 Y195.936 E49.25235
G1 X42.2 Y195.997 E49.27479
G1 X41.452 Y195.979 E49.29725
G1 X40.71 Y195.88 E49.31972
G1 X39.984 Y195.703 E49.34215
G1 X39.28 Y195.45 E49.3646
G1 X38.607 Y195.123 E49.38706
G1 X37.973 Y194.726 E49.40952
G1 X37.385 Y194.263 E49.43198
G1 X36.85 Y193.741 E49.45442
G1 X36.373 Y193.164 E49.47689
G1 X35.961 Y192.54 E49.49934
G1 X35.618 Y191.875 E49.5218
G1 X35.347 Y191.178 E49.54424
G1 X35.153 Y190.455 E49.56672
G1 X35.037 Y189.716 E49.58917
G1 X35 Y189 E49.61069
G1 X35 Y111 E51.95204
G1 X35.04 Y110.253 E51.97449
G1 X35.159 Y109.515 E51.99693
G1 X35.357 Y108.793 E52.0194
G1 X35.63 Y108.097 E52.04185
G1 X35.977 Y107.434 E52.06431
G1 X36.392 Y106.811 E52.08678
G1 X36.871 Y106.237 E52.10922
G1 X37.408 Y105.716 E52.13168
G1 X37.998 Y105.257 E52.15412
G1 X38.634 Y104.862 E52.17659
G1 X39.308 Y104.538 E52.19904
G0 F6000 X39.678 Y104.822
G1 F600 X40.371 Y104.604 E52.22085
G1 X41.083 Y104.464 E52.24263
G1 X41.807 Y104.403 E52.26444
G1 X42.89 Y104.46 E52.29699
G1 X252.889 Y133.036 E58.65868
G1 X252.89 Y133.036 E58.65871
G1 X258.891 Y133.854 E58.84051
G1 X259.605 Y133.992 E58.86234
G1 X260.298 Y134.207 E58.88412
G1 X260.964 Y134.497 E58.90592
G1 X261.594 Y134.859 E58.92773
G1 X262.181 Y135.287 E58.94954
G1 X262.717 Y135.777 E58.97134
G1 X263.195 Y136.324 E58.99315
G1 X263.611 Y136.919 E59.01494
G1 X263.959 Y137.557 E59.03675
G1 X264.235 Y138.229 E59.05856
G1 X264.435 Y138.927 E59.08035
G1 X264.557 Y139.643 E59.10216
G1 X264.6 Y140.394 E59.12474
G1 X264.6 Y159.592 E59.70101
G1 X264.56 Y160.317 E59.7228
G1 X264.441 Y161.034 E59.74462
G1 X264.243 Y161.733 E59.76643
G1 X263.97 Y162.406 E59.78823
G1 X263.625 Y163.045 E59.81003
G1 X263.211 Y163.642 E59.83183
G1 X262.735 Y164.19 E59.85362
G1 X262.201 Y164.683 E59.87544
G1 X261.616 Y165.113 E59.89723
G1 X260.987 Y165.477 E59.91905
G1 X260.322 Y165.77 E59.94086
G1 X259.629 Y165.988 E59.96267
G1 X258.89 Y166.132 E59.98527
G1 X48.892 Y194.722 E66.34698
G1 X42.891 Y195.54 E66.52878
G1 X42.167 Y195.598 E66.55059
G1 X41.441 Y195.576 E66.57239
G1 X40.722 Y195.475 E66.59418
G1 X40.018 Y195.295 E66.61599
G1 X39.338 Y195.04 E66.63779
G1 X38.691 Y194.711 E66.65958
G1 X38.083 Y194.312 E66.68141
G1 X37.523 Y193.85 E66.7032
G1 X37.018 Y193.328 E66.72501
G1 X36.572 Y192.755 E66.7468
G1 X36.192 Y192.136 E66.7686
G1 X35.883 Y191.478 E66.79042
G1 X35.648 Y190.791 E66.81222
G1 X35.489 Y190.082 E66.83403
G1 X35.4 Y189 E66.86662
G1 X35.4 Y111 E69.20797
G1 X35.44 Y110.275 E69.22976
G1 X35.559 Y109.558 E69.25158
G1 X35.757 Y108.859 E69.27339
G1 X36.03 Y108.186 E69.29519
G1 X36.375 Y107.547 E69.31698
G1 X36.789 Y106.95 E69.33879
G1 X37.265 Y106.402 E69.36058
G1 X37.799 Y105.909 E69.3824
G1 X38.384 Y105.479 E69.40419
G1 X39.013 Y105.115 E69.426
G1 X39.678 Y104.822 E69.44782
G0 F6000 X40.043 Y105.117
G1 F600 X40.723 Y104.933 E69.46896
G1 X41.419 Y104.827 E69.4901
G1 X42.122 Y104.801 E69.51121
G1 X42.836 Y104.857 E69.53271
G1 X252.835 Y133.433 E75.8944
G1 X252.836 Y133.433 E75.89443
G1 X258.837 Y134.251 E76.07623
G1 X259.528 Y134.385 E76.09736
G1 X260.2 Y134.597 E76.11851
G1 X260.843 Y134.884 E76.13965
G1 X261.449 Y135.242 E76.16078
G1 X262.011 Y135.666 E76.18191
G1 X262.521 Y136.151 E76.20303
G1 X262.973 Y136.691 E76.22417
G1 X263.36 Y137.279 E76.2453
G1 X263.679 Y137.906 E76.26642
G1 X263.924 Y138.566 E76.28755
G1 X264.093 Y139.25 E76.3087
G1 X264.184 Y139.948 E76.32983
G1 X264.2 Y140.394 E76.34323
G1 X264.2 Y159.592 E76.9195
G1 X264.16 Y160.295 E76.94063
G1 X264.041 Y160.989 E76.96177
G1 X263.843 Y161.664 E76.98289
G1 X263.571 Y162.313 E77.00401
G1 X263.226 Y162.927 E77.02515
G1 X262.815 Y163.498 E77.04627
G1 X262.341 Y164.019 E77.06741
G1 X261.811 Y164.483 E77.08855
G1 X261.232 Y164.883 E77.10968
G1 X260.611 Y165.215 E77.13082
G1 X259.957 Y165.475 E77.15194
G1 X259.277 Y165.659 E77.17309
G1 X258.836 Y165.735 E77.18652
G1 X48.838 Y194.325 E83.54824
G1 X42.837 Y195.143 E83.73004
G1 X42.136 Y195.199 E83.75115
G1 X41.432 Y195.174 E83.77229
G1 X40.736 Y195.07 E83.79342
G1 X40.056 Y194.887 E83.81455
G1 X39.401 Y194.629 E83.83569
G1 X38.78 Y194.298 E83.85681
G1 X38.2 Y193.899 E83.87794
G1 X37.669 Y193.436 E83.89909
G1 X37.194 Y192.917 E83.92021
G1 X36.781 Y192.347 E83.94134
G1 X36.435 Y191.734 E83.96247
G1 X36.161 Y191.085 E83.98361
G1 X35.962 Y190.41 E84.00474
G1 X35.841 Y189.716 E84.02588
G1 X35.8 Y189 E84.04741
G1 X35.8 Y111 E86.38876
G1 X35.84 Y110.297 E86.40989
G1 X35.959 Y109.603 E86.43103
G1 X36.157 Y108.928 E86.45214
G1 X36.429 Y108.279 E86.47327
G1 X36.774 Y107.665 E86.49441
G1 X37.185 Y107.094 E86.51553
G1 X37.659 Y106.573 E86.53667
G1 X38.189 Y106.109 E86.55781
G1 X38.768 Y105.709 E86.57894
G1 X39.389 Y105.377 E86.60008
G1 X40.043 Y105.117 E86.6212
G0 F6000 X39.762 Y105.649
G1 F600 X40.404 Y105.424 E86.64162
G1 X41.069 Y105.275 E86.66208
G1 X41.746 Y105.206 E86.68251
G1 X42.427 Y105.216 E86.70295
G1 X42.782 Y105.253 E86.71366
G1 X252.781 Y133.829 E93.07535
G1 X252.782 Y133.829 E93.07538
G1 X258.783 Y134.647 E93.25718
G1 X259.451 Y134.779 E93.27762
G1 X260.1 Y134.987 E93.29808
G1 X260.719 Y135.271 E93.31852
G1 X261.3 Y135.625 E93.33895
G1 X261.837 Y136.044 E93.35939
G1 X262.32 Y136.524 E93.37983
G1 X262.744 Y137.057 E93.40027
G1 X263.102 Y137.636 E93.42071
G1 X263.39 Y138.253 E93.44115
G1 X263.604 Y138.899 E93.46158
G1 X263.741 Y139.566 E93.48201
G1 X263.8 Y140.394 E93.50693
G1 X263.8 Y159.592 E94.0832
G1 X263.76 Y160.272 E94.10365
G1 X263.641 Y160.942 E94.12408
G1 X263.444 Y161.594 E94.14452
G1 X263.172 Y162.218 E94.16495
G1 X262.828 Y162.806 E94.1854
G1 X262.418 Y163.35 E94.20585
G1 X261.947 Y163.841 E94.22627
G1 X261.422 Y164.275 E94.24672
G1 X260.85 Y164.644 E94.26715
G1 X260.238 Y164.943 E94.2876
G1 X259.596 Y165.168 E94.30802
G1 X258.782 Y165.339 E94.33299
G1 X48.783 Y193.929 E100.69474
G1 X42.782 Y194.747 E100.87653
G1 X42.104 Y194.799 E100.89695
G1 X41.423 Y194.771 E100.91741
G1 X40.751 Y194.664 E100.93783
G1 X40.096 Y194.478 E100.95827
G1 X39.467 Y194.218 E100.9787
G1 X38.873 Y193.885 E100.99914
G1 X38.322 Y193.485 E101.01958
G1 X37.822 Y193.023 E101.04001
G1 X37.379 Y192.505 E101.06047
G1 X37 Y191.94 E101.0809
G1 X36.69 Y191.333 E101.10135
G1 X36.453 Y190.695 E101.12178
G1 X36.293 Y190.033 E101.14223
G1 X36.211 Y189.357 E101.16267
G1 X36.2 Y189 E101.17339
G1 X36.2 Y111 E103.51474
G1 X36.24 Y110.32 E103.53518
G1 X36.359 Y109.65 E103.55561
G1 X36.556 Y108.998 E103.57606
G1 X36.828 Y108.374 E103.59649
G1 X37.172 Y107.786 E103.61694
G1 X37.582 Y107.242 E103.63738
G1 X38.053 Y106.751 E103.65781
G1 X38.578 Y106.317 E103.67825
G1 X39.15 Y105.948 E103.69869
G1 X39.762 Y105.649 E103.71913
G0 F6000 X40.131 Y105.934
G1 F600 X40.76 Y105.744 E103.73886
G1 X41.407 Y105.633 E103.75856
G1 X42.063 Y105.6 E103.77828
G1 X42.728 Y105.649 E103.79829
G1 X252.727 Y134.225 E110.15998
G1 X252.728 Y134.225 E110.16001
G1 X258.729 Y135.043 E110.34181
G1 X259.374 Y135.172 E110.36156
G1 X259.998 Y135.377 E110.38127
G1 X260.592 Y135.657 E110.40099
G1 X261.148 Y136.007 E110.42071
G1 X261.658 Y136.421 E110.44042
G1 X262.113 Y136.895 E110.46015
G1 X262.507 Y137.42 E110.47985
G1 X262.835 Y137.99 E110.49959
G1 X263.091 Y138.595 E110.51931
G1 X263.272 Y139.226 E110.53901
G1 X263.375 Y139.875 E110.55874
G1 X263.4 Y140.394 E110.57434
G1 X263.4 Y159.592 E111.15061
G1 X263.36 Y160.248 E111.17034
G1 X263.241 Y160.894 E111.19005
G1 X263.044 Y161.521 E111.20978
G1 X262.772 Y162.119 E111.2295
G1 X262.43 Y162.68 E111.24922
G1 X262.022 Y163.195 E111.26895
G1 X261.555 Y163.657 E111.28866
G1 X261.035 Y164.058 E111.30838
G1 X260.471 Y164.394 E111.32808
G1 X259.869 Y164.658 E111.34781
G1 X259.24 Y164.848 E111.36754
G1 X258.728 Y164.943 E111.38317
G1 X48.729 Y193.533 E117.74492
G1 X42.728 Y194.351 E117.92672
G1 X42.073 Y194.4 E117.94643
G1 X41.417 Y194.368 E117.96615
G1 X40.769 Y194.258 E117.98588
G1 X40.14 Y194.07 E118.00558
G1 X39.538 Y193.806 E118.02531
G1 X38.973 Y193.472 E118.04502
G1 X38.452 Y193.071 E118.06475
G1 X37.984 Y192.61 E118.08447
G1 X37.575 Y192.096 E118.10419
G1 X37.232 Y191.535 E118.12392
G1 X36.96 Y190.938 E118.14362
G1 X36.762 Y190.311 E118.16335
G1 X36.641 Y189.665 E118.18308
G1 X36.6 Y189 E118.20308
G1 X36.6 Y111 E120.54443
G1 X36.64 Y110.344 E120.56416
G1 X36.759 Y109.698 E120.58387
G1 X36.956 Y109.071 E120.6036
G1 X37.228 Y108.473 E120.62332
G1 X37.57 Y107.912 E120.64304
G1 X37.978 Y107.397 E120.66277
G1 X38.445 Y106.935 E120.68249
G1 X38.965 Y106.534 E120.7022
G1 X39.529 Y106.198 E120.7219
G1 X40.131 Y105.934 E120.74163
G0 F6000 X40.495 Y106.232
G1 F600 X41.109 Y106.08 E120.76062
G1 X41.737 Y106.007 E120.7796
G1 X42.674 Y106.046 E120.80775
G1 X252.673 Y134.622 E127.16944
G1 X252.674 Y134.622 E127.16947
G1 X258.675 Y135.44 E127.35127
G1 X259.295 Y135.565 E127.37026
G1 X259.894 Y135.767 E127.38923
G1 X260.463 Y136.043 E127.40821
G1 X260.992 Y136.388 E127.42717
G1 X261.474 Y136.798 E127.44617
G1 X261.9 Y137.265 E127.46514
G1 X262.263 Y137.782 E127.4841
G1 X262.559 Y138.34 E127.50306
G1 X262.782 Y138.932 E127.52205
G1 X262.928 Y139.547 E127.54103
G1 X263 Y140.394 E127.56654
G1 X263 Y159.592 E128.14281
G1 X262.96 Y160.223 E128.16179
G1 X262.841 Y160.844 E128.18077
G1 X262.644 Y161.444 E128.19973
G1 X262.373 Y162.016 E128.21873
G1 X262.033 Y162.548 E128.23768
G1 X261.627 Y163.033 E128.25667
G1 X261.164 Y163.463 E128.27563
G1 X260.65 Y163.832 E128.29463
G1 X260.094 Y164.132 E128.31359
G1 X259.505 Y164.36 E128.33255
G1 X258.674 Y164.546 E128.35811
G1 X48.675 Y193.136 E134.71986
G1 X42.674 Y193.954 E134.90166
G1 X42.044 Y194 E134.92062
G1 X41.413 Y193.965 E134.93959
G1 X40.791 Y193.852 E134.95857
G1 X40.188 Y193.66 E134.97756
G1 X39.615 Y193.394 E134.99652
G1 X39.08 Y193.058 E135.01549
G1 X38.591 Y192.658 E135.03445
G1 X38.157 Y192.198 E135.05344
G1 X37.784 Y191.688 E135.0724
G1 X37.478 Y191.134 E135.0914
G1 X37.245 Y190.547 E135.11036
