;FLAVOR:Marlin
M117 Time Left 0h08m37s
;Filament used: 0.190564m
;Layer height: 0.2
;MINX:126.288
;MINY:122.422
;MINZ:0.2
;MAXX:173.713
;MAXY:177.598
;MAXZ:1.1
;POSTPROCESSED
;Generated with Cura_SteamEngine 4.4.1
M140 S55
M105
M190 S55
M104 S210
M105
M109 S210
M82 ;absolute extrusion mode
M201 X500.00 Y500.00 Z100.00 E5000.00 ;Setup machine max acceleration
M203 X500.00 Y500.00 Z10.00 E50.00 ;Setup machine max feedrate
M204 P500.00 R1000.00 T500.00 ;Setup Print/Retract/Travel acceleration
M205 X8.00 Y8.00 Z0.40 E5.00 ;Setup Jerk
M220 S100 ;Reset Feedrate
M221 S100 ;Reset Flowrate

G28 ;Home

G92 E0 ;Reset Extruder
G1 Z2.0 F3000 ;Move Z Axis up
G1 X10.1 Y20 Z0.28 F5000.0 ;Move to start position
G1 X10.1 Y200.0 Z0.28 F1500.0 E15 ;Draw the first line
G1 X10.4 Y200.0 Z0.28 F5000.0 ;Move to side a little
G1 X10.4 Y20 Z0.28 F1500.0 E30 ;Draw the second line
G92 E0 ;Reset Extruder
G1 Z2.0 F3000 ;Move Z Axis up

G92 E0
G92 E0
G1 F1800 E-6.5
;LAYER_COUNT:3
;LAYER:0
M117 Layer 1 emblem-insert of 3
M107
G1 F300 Z0.7
G0 F6000 X133.299 Y131.436 Z0.7
;TYPE:SKIRT
G1 F300 Z0.2
G1 F1800 E0
G1 F600 X133.863 Y130.894 E0.02341
G1 X134.793 Y130.071 E0.06059
G1 X135.473 Y129.521 E0.08677
G1 X136.538 Y128.736 E0.12637
G1 X137.216 Y128.279 E0.15085
G1 X138.108 Y127.73 E0.1822
G1 X138.918 Y127.283 E0.2099
G1 X140.188 Y126.658 E0.25227
G1 X141.119 Y126.258 E0.2826
G1 X142.145 Y125.879 E0.31534
G1 X142.623 Y125.728 E0.33034
G1 X142.857 Y125.46 E0.34099
G1 X143.496 Y124.847 E0.3675
G1 X144.188 Y124.295 E0.394
G1 X144.927 Y123.807 E0.42051
G1 X145.707 Y123.388 E0.44701
G1 X146.521 Y123.041 E0.4735
G1 X147.363 Y122.77 E0.49998
G1 X148.227 Y122.575 E0.52649
G1 X149.104 Y122.459 E0.55297
G1 X149.95 Y122.422 E0.57832
G1 X150.07 Y122.422 E0.58191
G1 X150.954 Y122.462 E0.6084
G1 X151.831 Y122.582 E0.6349
G1 X152.694 Y122.78 E0.6614
G1 X153.535 Y123.055 E0.68789
G1 X154.348 Y123.405 E0.71438
G1 X155.127 Y123.827 E0.7409
G1 X155.863 Y124.318 E0.76739
G1 X156.553 Y124.873 E0.7939
G1 X157.19 Y125.488 E0.8204
G1 X157.39 Y125.72 E0.82957
G1 X157.513 Y125.759 E0.83343
G1 X157.939 Y125.905 E0.84691
G1 X158.469 Y126.1 E0.86382
G1 X158.884 Y126.263 E0.87716
G1 X159.4 Y126.48 E0.89392
G1 X159.772 Y126.646 E0.90611
G1 X160.278 Y126.884 E0.92285
G1 X160.664 Y127.076 E0.93576
G1 X161.159 Y127.336 E0.95249
G1 X161.541 Y127.548 E0.96557
G1 X162.026 Y127.831 E0.98238
G1 X162.35 Y128.028 E0.99373
G1 X162.826 Y128.331 E1.01062
G1 X163.142 Y128.541 E1.02198
G1 X163.607 Y128.863 E1.03891
G1 X163.903 Y129.076 E1.04983
G1 X164.361 Y129.419 E1.06696
G1 X164.662 Y129.654 E1.07839
G1 X165.108 Y130.016 E1.09558
G1 X165.384 Y130.249 E1.10639
G1 X165.823 Y130.633 E1.12385
G1 X166.046 Y130.834 E1.13284
G1 X166.476 Y131.234 E1.15042
G1 X166.792 Y131.542 E1.16363
G1 X167.29 Y132.049 E1.1849
G1 X167.653 Y132.438 E1.20083
G1 X168.119 Y132.967 E1.22193
G1 X168.441 Y133.352 E1.23695
G1 X168.876 Y133.9 E1.2579
G1 X169.196 Y134.328 E1.2739
G1 X169.597 Y134.894 E1.29466
G1 X169.883 Y135.321 E1.31004
G1 X170.253 Y135.906 E1.33076
G1 X170.505 Y136.327 E1.34545
G1 X170.842 Y136.924 E1.36597
G1 X171.079 Y137.37 E1.38109
G1 X171.385 Y137.984 E1.40163
G1 X171.59 Y138.422 E1.4161
G1 X171.863 Y139.045 E1.43646
G1 X172.059 Y139.528 E1.45207
G1 X172.299 Y140.166 E1.47247
G1 X172.453 Y140.604 E1.48637
G1 X172.662 Y141.251 E1.50672
G1 X172.798 Y141.713 E1.52114
G1 X172.974 Y142.366 E1.54138
G1 X173.081 Y142.802 E1.55482
G1 X173.227 Y143.463 E1.57508
G1 X173.325 Y143.971 E1.59057
G1 X173.436 Y144.639 E1.61084
G1 X173.498 Y145.067 E1.62379
G1 X173.579 Y145.736 E1.64396
G1 X173.624 Y146.204 E1.65803
G1 X173.673 Y146.879 E1.67829
G1 X173.696 Y147.357 E1.69262
G1 X173.712 Y148.032 E1.71283
G1 X173.713 Y148.481 E1.72627
G1 X173.698 Y149.157 E1.74651
G1 X173.676 Y149.624 E1.7605
G1 X173.629 Y150.296 E1.78067
G1 X173.584 Y150.772 E1.79498
G1 X173.504 Y151.443 E1.81521
G1 X173.44 Y151.894 E1.82884
G1 X173.329 Y152.56 E1.84906
G1 X173.24 Y153.024 E1.8632
G1 X173.097 Y153.684 E1.88341
G1 X172.989 Y154.132 E1.89721
G1 X172.815 Y154.785 E1.91744
G1 X172.678 Y155.252 E1.93201
G1 X172.471 Y155.898 E1.95231
G1 X172.316 Y156.344 E1.96644
G1 X172.079 Y156.977 E1.98668
G1 X171.892 Y157.44 E2.00162
G1 X171.621 Y158.065 E2.02202
G1 X171.424 Y158.491 E2.03607
G1 X171.124 Y159.101 E2.05641
G1 X170.876 Y159.572 E2.07235
G1 X170.541 Y160.169 E2.09284
G1 X170.289 Y160.593 E2.10761
G1 X170.007 Y161.041 E2.12345
G1 X170.26 Y162.618 E2.17126
G1 X170.361 Y163.497 E2.19775
G1 X170.382 Y164.382 E2.22425
G1 X170.323 Y165.265 E2.25074
G1 X170.184 Y166.139 E2.27723
G1 X169.967 Y166.998 E2.30375
G1 X169.674 Y167.833 E2.33024
G1 X169.307 Y168.638 E2.35672
G1 X168.868 Y169.407 E2.38323
G1 X168.362 Y170.133 E2.40972
G1 X167.792 Y170.811 E2.43623
G1 X167.163 Y171.434 E2.46273
G1 X166.481 Y171.998 E2.48922
G1 X165.751 Y172.498 E2.51571
G1 X164.978 Y172.931 E2.54223
G1 X164.17 Y173.291 E2.56871
G1 X163.7 Y173.462 E2.58368
G1 X163.539 Y173.516 E2.58877
G1 X162.688 Y173.76 E2.61527
G1 X161.819 Y173.925 E2.64174
G1 X160.938 Y174.011 E2.66824
G1 X160.052 Y174.018 E2.69476
G1 X159.17 Y173.945 E2.72126
G1 X158.298 Y173.792 E2.74776
G1 X157.444 Y173.561 E2.77424
G1 X156.613 Y173.254 E2.80076
G1 X155.814 Y172.874 E2.82724
G1 X155.053 Y172.422 E2.85374
G1 X154.335 Y171.904 E2.88024
G1 X154.039 Y171.647 E2.89197
G1 X153.811 Y171.686 E2.8989
G1 X153.138 Y171.776 E2.91922
G1 X151.858 Y171.903 E2.95773
G1 X151.099 Y171.949 E2.98049
G1 X150.069 Y171.971 E3.01133
G1 X149.376 Y171.961 E3.03207
G1 X148.183 Y171.902 E3.06783
G1 X147.726 Y171.869 E3.08154
G1 X147.33 Y171.831 E3.09345
G1 X145.488 Y174.054 E3.17987
G1 X144.893 Y174.709 E3.20636
G1 X144.241 Y175.308 E3.23286
G1 X143.538 Y175.846 E3.25936
G1 X142.789 Y176.318 E3.28586
G1 X142.001 Y176.721 E3.31236
G1 X141.179 Y177.051 E3.33887
G1 X140.331 Y177.305 E3.36537
G1 X139.464 Y177.482 E3.39186
G1 X138.584 Y177.58 E3.41836
G1 X137.699 Y177.598 E3.44486
G1 X136.816 Y177.536 E3.47136
G1 X135.942 Y177.395 E3.49786
G1 X135.085 Y177.175 E3.52434
G1 X133.872 Y176.716 E3.56317
G1 X133.734 Y176.653 E3.56771
G1 X132.946 Y176.249 E3.59422
G1 X132.198 Y175.776 E3.62071
G1 X131.496 Y175.238 E3.64718
G1 X130.845 Y174.638 E3.67368
G1 X130.25 Y173.982 E3.7002
G1 X129.718 Y173.275 E3.72668
G1 X129.251 Y172.522 E3.7532
G1 X128.854 Y171.731 E3.7797
G1 X128.531 Y170.907 E3.80619
G1 X128.282 Y170.057 E3.8327
G1 X128.112 Y169.189 E3.85918
G1 X128.021 Y168.308 E3.88569
G1 X128.009 Y167.423 E3.91219
G1 X128.126 Y166.199 E3.94899
G1 X128.327 Y164.935 E3.9873
G1 X128.35 Y164.796 E3.99152
G1 X128.556 Y163.611 E4.02753
G1 X128.577 Y163.491 E4.03117
G1 X128.797 Y162.312 E4.06707
G1 X128.821 Y162.188 E4.07085
G1 X129.056 Y161.013 E4.10672
G1 X129.08 Y160.897 E4.11027
G1 X129.296 Y159.88 E4.14139
G1 X129.121 Y159.576 E4.15189
G1 X128.792 Y158.954 E4.17296
G1 X128.389 Y158.121 E4.20066
G1 X128.149 Y157.583 E4.21829
G1 X127.886 Y156.944 E4.23897
G1 X127.662 Y156.345 E4.25812
G1 X127.37 Y155.479 E4.28547
G1 X127.193 Y154.895 E4.30374
G1 X127.014 Y154.23 E4.32436
G1 X126.919 Y153.849 E4.33611
G1 X126.817 Y153.399 E4.34992
G1 X126.725 Y152.943 E4.36385
G1 X126.604 Y152.26 E4.38461
G1 X126.535 Y151.807 E4.39833
G1 X126.445 Y151.111 E4.41933
G1 X126.393 Y150.606 E4.43453
G1 X126.342 Y149.943 E4.45444
G1 X126.316 Y149.445 E4.46936
G1 X126.288 Y148.367 E4.50164
G1 X126.289 Y147.839 E4.51745
G1 X126.306 Y147.231 E4.53566
G1 X126.333 Y146.728 E4.55073
G1 X126.421 Y145.621 E4.58398
G1 X126.518 Y144.819 E4.60816
G1 X126.702 Y143.692 E4.64234
G1 X126.871 Y142.878 E4.66723
G1 X127.112 Y141.921 E4.69677
G1 X127.324 Y141.195 E4.71941
G1 X127.657 Y140.203 E4.75073
G1 X127.935 Y139.475 E4.77406
G1 X128.323 Y138.566 E4.80364
G1 X128.617 Y137.938 E4.8244
G1 X129.044 Y137.106 E4.85239
G1 X129.367 Y136.526 E4.87227
G1 X129.842 Y135.737 E4.89983
G1 X130.184 Y135.208 E4.91869
G1 X130.704 Y134.458 E4.94601
G1 X131.17 Y133.841 E4.96915
G1 X131.966 Y132.867 E5.00681
G1 X132.495 Y132.271 E5.03066
G1 X133.299 Y131.436 E5.06536
G0 F6000 X133.587 Y131.713
G1 F600 X134.128 Y131.194 E5.0878
G1 X135.058 Y130.371 E5.12498
G1 X135.711 Y129.843 E5.15011
G1 X136.776 Y129.058 E5.18972
G1 X137.426 Y128.62 E5.21318
G1 X138.318 Y128.071 E5.24453
G1 X139.094 Y127.642 E5.27108
G1 X140.364 Y127.017 E5.31345
G1 X141.258 Y126.633 E5.34257
G1 X142.284 Y126.254 E5.37531
G1 X142.851 Y126.075 E5.39311
G1 X143.184 Y125.697 E5.40819
G1 X143.814 Y125.101 E5.43415
G1 X144.496 Y124.566 E5.4601
G1 X145.224 Y124.096 E5.48604
G1 X145.993 Y123.695 E5.512
G1 X146.795 Y123.367 E5.53793
G1 X147.625 Y123.114 E5.56391
G1 X148.474 Y122.939 E5.58986
G1 X149.335 Y122.842 E5.61579
G1 X149.95 Y122.822 E5.63421
G1 X150.07 Y122.822 E5.6378
G1 X150.936 Y122.862 E5.66376
G1 X151.795 Y122.982 E5.68972
G1 X152.639 Y123.18 E5.71567
G1 X153.461 Y123.455 E5.74162
G1 X154.254 Y123.805 E5.76756
G1 X155.012 Y124.226 E5.79352
G1 X155.727 Y124.715 E5.81945
G1 X156.395 Y125.268 E5.84541
G1 X157.009 Y125.881 E5.87138
G1 X157.165 Y126.068 E5.87867
G1 X157.392 Y126.14 E5.8858
G1 X157.801 Y126.28 E5.89874
G1 X158.331 Y126.475 E5.91564
G1 X158.729 Y126.632 E5.92845
G1 X159.245 Y126.849 E5.9452
G1 X159.602 Y127.008 E5.9569
G1 X160.108 Y127.246 E5.97364
G1 X160.478 Y127.43 E5.98601
G1 X160.973 Y127.69 E6.00275
G1 X161.339 Y127.893 E6.01528
G1 X161.824 Y128.176 E6.03208
G1 X162.135 Y128.365 E6.04298
G1 X162.611 Y128.668 E6.05987
G1 X162.914 Y128.87 E6.07077
G1 X163.379 Y129.192 E6.0877
G1 X163.663 Y129.396 E6.09817
G1 X164.121 Y129.739 E6.1153
G1 X164.41 Y129.965 E6.12628
G1 X164.856 Y130.327 E6.14347
G1 X165.121 Y130.55 E6.15384
G1 X165.56 Y130.934 E6.1713
G1 X165.773 Y131.126 E6.17988
G1 X166.203 Y131.526 E6.19746
G1 X166.507 Y131.822 E6.21016
G1 X167.005 Y132.329 E6.23144
G1 X167.353 Y132.702 E6.24671
G1 X167.819 Y133.231 E6.26781
G1 X168.127 Y133.601 E6.28222
G1 X168.562 Y134.149 E6.30317
G1 X168.87 Y134.559 E6.31852
G1 X169.271 Y135.125 E6.33928
G1 X169.545 Y135.534 E6.35402
G1 X169.915 Y136.119 E6.37474
G1 X170.157 Y136.523 E6.38883
G1 X170.494 Y137.12 E6.40935
G1 X170.721 Y137.548 E6.42386
G1 X171.027 Y138.162 E6.44439
G1 X171.224 Y138.582 E6.45828
G1 X171.497 Y139.205 E6.47864
G1 X171.685 Y139.668 E6.4936
G1 X171.925 Y140.306 E6.514
G1 X172.072 Y140.727 E6.52735
G1 X172.281 Y141.374 E6.5477
G1 X172.412 Y141.817 E6.56153
G1 X172.588 Y142.47 E6.58178
G1 X172.691 Y142.889 E6.59469
G1 X172.837 Y143.55 E6.61496
G1 X172.931 Y144.036 E6.62977
G1 X173.042 Y144.704 E6.65004
G1 X173.101 Y145.115 E6.66247
G1 X173.182 Y145.784 E6.68265
G1 X173.225 Y146.233 E6.69615
G1 X173.274 Y146.908 E6.71641
G1 X173.296 Y147.366 E6.73013
G1 X173.312 Y148.041 E6.75034
G1 X173.313 Y148.473 E6.76327
G1 X173.298 Y149.149 E6.78352
G1 X173.277 Y149.596 E6.79691
G1 X173.23 Y150.268 E6.81708
G1 X173.187 Y150.725 E6.83082
G1 X173.107 Y151.396 E6.85104
G1 X173.045 Y151.828 E6.86411
G1 X172.934 Y152.494 E6.88432
G1 X172.849 Y152.939 E6.89788
G1 X172.706 Y153.599 E6.9181
G1 X172.602 Y154.029 E6.93134
G1 X172.428 Y154.682 E6.95157
G1 X172.297 Y155.13 E6.96554
G1 X172.09 Y155.776 E6.98585
G1 X171.941 Y156.204 E6.99941
G1 X171.704 Y156.837 E7.01964
G1 X171.525 Y157.28 E7.03395
G1 X171.254 Y157.905 E7.05434
G1 X171.065 Y158.314 E7.06783
G1 X170.765 Y158.924 E7.08817
G1 X170.528 Y159.376 E7.10345
G1 X170.193 Y159.973 E7.12394
G1 X169.951 Y160.38 E7.13812
G1 X169.588 Y160.957 E7.15852
G1 X169.865 Y162.681 E7.21079
G1 X169.963 Y163.542 E7.23673
G1 X169.981 Y164.409 E7.26269
G1 X169.919 Y165.274 E7.28865
G1 X169.778 Y166.129 E7.31459
G1 X169.558 Y166.968 E7.34055
G1 X169.262 Y167.783 E7.36651
G1 X168.893 Y168.567 E7.39245
G1 X168.452 Y169.314 E7.41841
G1 X167.945 Y170.017 E7.44436
G1 X167.375 Y170.67 E7.4703
G1 X166.748 Y171.268 E7.49624
G1 X166.068 Y171.806 E7.5222
G1 X165.341 Y172.279 E7.54816
G1 X164.574 Y172.682 E7.57409
G1 X163.573 Y173.083 E7.60637
G1 X163.412 Y173.137 E7.61146
G1 X162.578 Y173.375 E7.63742
G1 X161.726 Y173.534 E7.66336
G1 X160.863 Y173.615 E7.68931
G1 X159.996 Y173.615 E7.71526
G1 X159.133 Y173.536 E7.7412
G1 X158.28 Y173.378 E7.76717
G1 X157.446 Y173.141 E7.79312
G1 X156.638 Y172.829 E7.81905
G1 X155.861 Y172.444 E7.84501
G1 X155.123 Y171.988 E7.87098
G1 X154.43 Y171.467 E7.89693
G1 X154.159 Y171.221 E7.90789
G1 X153.744 Y171.291 E7.92048
G1 X153.098 Y171.378 E7.94
G1 X151.818 Y171.505 E7.9785
G1 X151.091 Y171.549 E8.0003
G1 X150.061 Y171.571 E8.03114
G1 X149.396 Y171.562 E8.05105
G1 X148.203 Y171.503 E8.0868
G1 X147.764 Y171.471 E8.09998
G1 X147.339 Y171.43 E8.11276
G1 X147.16 Y171.409 E8.11816
G1 X145.18 Y173.799 E8.21106
G1 X144.596 Y174.44 E8.23702
G1 X143.957 Y175.025 E8.26295
G1 X143.265 Y175.548 E8.28892
G1 X142.529 Y176.006 E8.31487
G1 X141.754 Y176.394 E8.34081
G1 X140.946 Y176.708 E8.36676
G1 X140.112 Y176.947 E8.39273
G1 X139.26 Y177.108 E8.41868
G1 X138.397 Y177.19 E8.44463
G1 X137.53 Y177.192 E8.47059
G1 X136.667 Y177.114 E8.49652
G1 X135.814 Y176.957 E8.52249
G1 X134.98 Y176.722 E8.54842
G1 X134.038 Y176.352 E8.57872
G1 X133.9 Y176.289 E8.58326
G1 X133.129 Y175.893 E8.60921
G1 X132.398 Y175.428 E8.63514
G1 X131.712 Y174.897 E8.66111
G1 X131.078 Y174.305 E8.68707
G1 X130.502 Y173.658 E8.713
G1 X129.988 Y172.96 E8.73895
G1 X129.54 Y172.217 E8.76492
G1 X129.162 Y171.437 E8.79087
G1 X128.858 Y170.625 E8.81682
G1 X128.63 Y169.789 E8.84276
G1 X128.48 Y168.935 E8.86872
G1 X128.41 Y168.071 E8.89466
G1 X128.419 Y167.204 E8.92062
G1 X128.521 Y166.262 E8.94898
G1 X128.722 Y164.998 E8.98729
G1 X128.744 Y164.864 E8.99136
G1 X128.95 Y163.679 E9.02736
G1 X128.97 Y163.565 E9.03083
G1 X129.19 Y162.386 E9.06673
G1 X129.214 Y162.267 E9.07036
G1 X129.449 Y161.092 E9.10623
G1 X129.472 Y160.98 E9.10965
G1 X129.72 Y159.814 E9.14534
G1 X129.468 Y159.377 E9.16044
G1 X129.152 Y158.78 E9.18066
G1 X128.749 Y157.947 E9.20836
G1 X128.518 Y157.431 E9.22528
G1 X128.255 Y156.792 E9.24597
G1 X128.041 Y156.217 E9.26433
G1 X127.749 Y155.351 E9.29169
G1 X127.579 Y154.791 E9.30921
G1 X127.4 Y154.126 E9.32982
G1 X127.31 Y153.761 E9.34107
G1 X127.208 Y153.311 E9.35489
G1 X127.119 Y152.873 E9.36827
G1 X126.998 Y152.19 E9.38903
G1 X126.932 Y151.755 E9.4022
G1 X126.842 Y151.059 E9.42321
G1 X126.792 Y150.575 E9.43777
G1 X126.741 Y149.912 E9.45768
G1 X126.716 Y149.435 E9.47198
G1 X126.688 Y148.357 E9.50426
G1 X126.689 Y147.85 E9.51943
G1 X126.706 Y147.242 E9.53764
G1 X126.732 Y146.76 E9.55209
G1 X126.82 Y145.653 E9.58533
G1 X126.913 Y144.883 E9.60855
G1 X127.097 Y143.756 E9.64273
G1 X127.259 Y142.975 E9.66661
G1 X127.5 Y142.018 E9.69615
G1 X127.704 Y141.323 E9.71783
G1 X128.037 Y140.331 E9.74915
G1 X128.303 Y139.632 E9.77154
G1 X128.691 Y138.723 E9.80112
G1 X128.973 Y138.121 E9.82102
G1 X129.4 Y137.289 E9.84902
G1 X129.71 Y136.733 E9.86807
G1 X130.185 Y135.944 E9.89564
G1 X130.513 Y135.436 E9.91374
G1 X131.033 Y134.686 E9.94106
G1 X131.479 Y134.094 E9.96325
G1 X132.275 Y133.12 E10.0009
G1 X132.783 Y132.548 E10.0238
G1 X133.587 Y131.713 E10.0585
G0 F6000 X133.875 Y131.991
G1 F600 X134.394 Y131.493 E10.08003
G1 X135.324 Y130.67 E10.11721
G1 X135.948 Y130.165 E10.14123
G1 X137.013 Y129.38 E10.18084
G1 X137.636 Y128.96 E10.20333
G1 X138.528 Y128.411 E10.23468
G1 X139.271 Y128.001 E10.26009
G1 X140.541 Y127.376 E10.30246
G1 X141.396 Y127.009 E10.33031
G1 X142.422 Y126.63 E10.36305
G1 X143.077 Y126.423 E10.38361
G1 X143.51 Y125.935 E10.40314
G1 X144.13 Y125.357 E10.42851
G1 X144.802 Y124.839 E10.45391
G1 X145.52 Y124.388 E10.47929
G1 X146.278 Y124.005 E10.50472
G1 X147.068 Y123.696 E10.53011
G1 X147.883 Y123.463 E10.55548
G1 X148.717 Y123.307 E10.58088
G1 X149.95 Y123.222 E10.61788
G1 X150.07 Y123.222 E10.62147
G1 X150.917 Y123.262 E10.64685
G1 X151.757 Y123.382 E10.67225
G1 X152.582 Y123.58 E10.69765
G1 X153.385 Y123.855 E10.72306
G1 X154.158 Y124.204 E10.74844
G1 X154.894 Y124.624 E10.77381
G1 X155.588 Y125.112 E10.79921
G1 X156.233 Y125.663 E10.8246
G1 X156.823 Y126.273 E10.85
G1 X156.938 Y126.417 E10.85552
G1 X157.271 Y126.522 E10.86597
G1 X157.663 Y126.656 E10.87837
G1 X158.193 Y126.851 E10.89528
G1 X158.574 Y127.001 E10.90753
G1 X159.09 Y127.218 E10.92429
G1 X159.432 Y127.37 E10.93549
G1 X159.938 Y127.608 E10.95223
