;FLAVOR:Marlin
;TIME:1141
;Filament used: 0.440293m
;Layer height: 0.2
;MINX:128.815
;MINY:128.807
;MINZ:0.2
;MAXX:171.192
;MAXY:171.192
;MAXZ:12.7
;Generated with Cura_SteamEngine 4.4.1
M140 S55
M105
M190 S55
M104 S210
M105
M109 S210
M82 ;absolute extrusion mode
M201 X500.00 Y500.00 Z100.00 E5000.00 ;Setup machine max acceleration
M203 X500.00 Y500.00 Z10.00 E50.00 ;Setup machine max feedrate
M204 P500.00 R1000.00 T500.00 ;Setup Print/Retract/Travel acceleration
M205 X8.00 Y8.00 Z0.40 E5.00 ;Setup Jerk
M220 S100 ;Reset Feedrate
M221 S100 ;Reset Flowrate

G28 ;Home

G92 E0 ;Reset Extruder
G1 Z2.0 F3000 ;Move Z Axis up
G1 X10.1 Y20 Z0.28 F5000.0 ;Move to start position
G1 X10.1 Y200.0 Z0.28 F1500.0 E15 ;Draw the first line
G1 X10.4 Y200.0 Z0.28 F5000.0 ;Move to side a little
G1 X10.4 Y20 Z0.28 F1500.0 E30 ;Draw the second line
G92 E0 ;Reset Extruder
G1 Z2.0 F3000 ;Move Z Axis up

G92 E0
G92 E0
G1 F1800 E-6.5
;LAYER_COUNT:61
;LAYER:0
M107
G1 F300 Z0.7
G0 F6000 X135.115 Y134.914 Z0.7
;TYPE:SKIRT
G1 F300 Z0.2
G1 F1800 E0
G1 F600 X135.436 Y134.604 E0.01484
G1 X135.674 Y134.384 E0.02562
G1 X135.876 Y134.202 E0.03467
G1 X136.194 Y133.924 E0.04871
G1 X136.479 Y133.684 E0.06111
G1 X136.778 Y133.442 E0.0739
G1 X137.004 Y133.264 E0.08347
G1 X137.365 Y132.989 E0.09856
G1 X137.646 Y132.783 E0.11015
G1 X137.943 Y132.573 E0.12225
G1 X138.265 Y132.355 E0.13518
G1 X138.59 Y132.144 E0.14807
G1 X138.841 Y131.986 E0.15794
G1 X139.159 Y131.793 E0.17031
G1 X139.375 Y131.666 E0.17864
G1 X139.651 Y131.508 E0.18922
G1 X139.877 Y131.383 E0.19781
G1 X140.206 Y131.206 E0.21023
G1 X140.664 Y130.975 E0.2273
G1 X141.115 Y130.762 E0.24388
G1 X141.386 Y130.638 E0.2538
G1 X141.813 Y130.452 E0.26929
G1 X142.209 Y130.29 E0.28352
G1 X142.495 Y130.18 E0.29371
G1 X142.766 Y130.08 E0.30332
G1 X143.159 Y129.942 E0.31717
G1 X143.462 Y129.842 E0.32778
G1 X143.897 Y129.705 E0.34295
G1 X144.328 Y129.58 E0.35788
G1 X144.705 Y129.48 E0.37085
G1 X144.916 Y129.426 E0.3781
G1 X145.247 Y129.346 E0.38942
G1 X145.614 Y129.265 E0.40192
G1 X146.036 Y129.18 E0.41624
G1 X146.355 Y129.121 E0.42703
G1 X146.69 Y129.065 E0.43833
G1 X147.155 Y128.999 E0.45395
G1 X147.62 Y128.944 E0.46952
G1 X147.78 Y128.926 E0.47488
G1 X148.134 Y128.89 E0.48671
G1 X148.519 Y128.859 E0.49956
G1 X148.89 Y128.836 E0.51192
G1 X149.237 Y128.82 E0.52347
G1 X149.615 Y128.81 E0.53605
G1 X149.949 Y128.807 E0.54716
G1 X150.474 Y128.811 E0.56462
G1 X151.066 Y128.834 E0.58433
G1 X151.828 Y128.886 E0.60973
G1 X152.34 Y128.934 E0.62683
G1 X152.67 Y128.974 E0.63789
G1 X152.93 Y129.009 E0.64662
G1 X153.314 Y129.066 E0.65953
G1 X153.67 Y129.126 E0.67154
G1 X154.078 Y129.202 E0.68534
G1 X154.351 Y129.257 E0.6946
G1 X154.666 Y129.325 E0.70532
G1 X155.411 Y129.516 E0.7309
G1 X156.676 Y129.895 E0.77482
G1 X157.245 Y130.085 E0.79477
G1 X157.536 Y130.192 E0.80509
G1 X158.007 Y130.379 E0.82194
G1 X158.428 Y130.559 E0.83717
G1 X158.573 Y130.623 E0.84244
G1 X158.893 Y130.766 E0.8541
G1 X159.213 Y130.915 E0.86584
G1 X159.539 Y131.075 E0.87792
G1 X159.84 Y131.23 E0.88918
G1 X160.246 Y131.447 E0.90449
G1 X160.644 Y131.671 E0.91968
G1 X160.936 Y131.845 E0.93099
G1 X161.158 Y131.982 E0.93966
G1 X161.441 Y132.161 E0.9508
G1 X161.677 Y132.315 E0.96017
G1 X162.011 Y132.54 E0.97357
G1 X162.331 Y132.765 E0.98658
G1 X162.766 Y133.084 E1.00452
G1 X163.06 Y133.308 E1.01681
G1 X163.316 Y133.511 E1.02768
G1 X163.609 Y133.753 E1.04032
G1 X163.898 Y134.001 E1.05298
G1 X164.131 Y134.207 E1.06333
G1 X164.401 Y134.454 E1.0755
G1 X164.571 Y134.614 E1.08326
G1 X164.868 Y134.899 E1.09696
G1 X165.141 Y135.171 E1.10977
G1 X165.457 Y135.499 E1.12492
G1 X165.739 Y135.805 E1.13876
G1 X165.946 Y136.039 E1.14915
G1 X166.146 Y136.272 E1.15937
G1 X166.449 Y136.637 E1.17514
G1 X166.677 Y136.922 E1.18728
G1 X166.847 Y137.143 E1.19656
G1 X166.991 Y137.336 E1.20457
G1 X167.257 Y137.7 E1.21956
G1 X167.539 Y138.106 E1.236
G1 X167.827 Y138.545 E1.25346
G1 X167.954 Y138.744 E1.26132
G1 X168.089 Y138.961 E1.26982
G1 X168.247 Y139.225 E1.28005
G1 X168.484 Y139.634 E1.29577
G1 X168.671 Y139.971 E1.30859
G1 X168.803 Y140.221 E1.31799
G1 X168.929 Y140.468 E1.32722
G1 X169.121 Y140.858 E1.34167
G1 X169.308 Y141.261 E1.35645
G1 X169.475 Y141.643 E1.37032
G1 X169.603 Y141.949 E1.38135
G1 X169.793 Y142.427 E1.39846
G1 X169.925 Y142.778 E1.41093
G1 X169.994 Y142.973 E1.41781
G1 X170.076 Y143.216 E1.42634
G1 X170.226 Y143.678 E1.4425
G1 X170.31 Y143.948 E1.4519
G1 X170.419 Y144.32 E1.46479
G1 X170.53 Y144.732 E1.47899
G1 X170.614 Y145.073 E1.49067
G1 X170.677 Y145.347 E1.50002
G1 X170.76 Y145.731 E1.51308
G1 X170.833 Y146.107 E1.52582
G1 X170.909 Y146.54 E1.54044
G1 X170.964 Y146.884 E1.55203
G1 X171.011 Y147.222 E1.56338
G1 X171.053 Y147.575 E1.57521
G1 X171.094 Y147.976 E1.58861
G1 X171.113 Y148.185 E1.59559
G1 X171.151 Y148.656 E1.61131
G1 X171.179 Y149.177 E1.62866
G1 X171.188 Y149.507 E1.63964
G1 X171.192 Y149.774 E1.64852
G1 X171.192 Y150.196 E1.66256
G1 X171.187 Y150.498 E1.67261
G1 X171.173 Y150.952 E1.68771
G1 X171.154 Y151.337 E1.70053
G1 X171.132 Y151.65 E1.71097
G1 X171.101 Y152 E1.72266
G1 X171.071 Y152.282 E1.73209
G1 X171.034 Y152.582 E1.74214
G1 X170.962 Y153.105 E1.7597
G1 X170.902 Y153.487 E1.77256
G1 X170.827 Y153.908 E1.78679
G1 X170.75 Y154.296 E1.79994
G1 X170.597 Y154.991 E1.82361
G1 X170.427 Y155.65 E1.84625
G1 X170.309 Y156.051 E1.86015
G1 X170.245 Y156.263 E1.86752
G1 X170.105 Y156.702 E1.88284
G1 X169.968 Y157.099 E1.89681
G1 X169.844 Y157.437 E1.90878
G1 X169.729 Y157.736 E1.91944
G1 X169.6 Y158.055 E1.93088
G1 X169.505 Y158.282 E1.93907
G1 X169.331 Y158.683 E1.95361
G1 X169.198 Y158.976 E1.96431
G1 X169.019 Y159.354 E1.97822
G1 X168.804 Y159.781 E1.99412
G1 X168.642 Y160.084 E2.00555
G1 X168.523 Y160.3 E2.01375
G1 X168.313 Y160.67 E2.0279
G1 X168.075 Y161.068 E2.04332
G1 X167.96 Y161.25 E2.05049
G1 X167.878 Y161.377 E2.05551
G1 X167.542 Y161.891 E2.07594
G1 X167.279 Y162.274 E2.09139
G1 X167.101 Y162.52 E2.10149
G1 X166.926 Y162.753 E2.11118
G1 X166.635 Y163.131 E2.12705
G1 X166.426 Y163.394 E2.13822
G1 X166.165 Y163.71 E2.15185
G1 X165.85 Y164.073 E2.16784
G1 X165.622 Y164.323 E2.17909
G1 X165.475 Y164.48 E2.18625
G1 X165.231 Y164.736 E2.19801
G1 X165.021 Y164.95 E2.20798
G1 X164.64 Y165.326 E2.22578
G1 X164.324 Y165.625 E2.24025
G1 X164.118 Y165.811 E2.24948
G1 X163.841 Y166.051 E2.26168
G1 X163.46 Y166.37 E2.2782
G1 X163.248 Y166.543 E2.2873
G1 X163.052 Y166.698 E2.29561
G1 X162.773 Y166.91 E2.30727
G1 X162.359 Y167.214 E2.32435
G1 X162.104 Y167.395 E2.33475
G1 X161.798 Y167.605 E2.3471
G1 X161.534 Y167.78 E2.35763
G1 X161.237 Y167.97 E2.36936
G1 X160.871 Y168.193 E2.38361
G1 X160.438 Y168.444 E2.40026
G1 X160.165 Y168.597 E2.41067
G1 X159.901 Y168.739 E2.42064
G1 X159.566 Y168.911 E2.43316
G1 X159.192 Y169.094 E2.44701
G1 X158.921 Y169.221 E2.45697
G1 X158.505 Y169.409 E2.47215
G1 X158.218 Y169.534 E2.48256
G1 X157.875 Y169.676 E2.49491
G1 X157.496 Y169.824 E2.50844
G1 X157.171 Y169.943 E2.51995
G1 X156.852 Y170.053 E2.53118
G1 X156.443 Y170.187 E2.54549
G1 X156.153 Y170.277 E2.55559
G1 X155.775 Y170.388 E2.56869
G1 X155.322 Y170.509 E2.58429
G1 X154.608 Y170.682 E2.60872
G1 X154.159 Y170.78 E2.62401
G1 X153.75 Y170.859 E2.63786
G1 X153.277 Y170.939 E2.65382
G1 X152.878 Y170.996 E2.66722
G1 X152.565 Y171.035 E2.67771
G1 X152.084 Y171.088 E2.69381
G1 X151.81 Y171.114 E2.70296
G1 X151.492 Y171.14 E2.71358
G1 X151.088 Y171.165 E2.72704
G1 X150.691 Y171.181 E2.74025
G1 X150.364 Y171.189 E2.75113
G1 X149.929 Y171.192 E2.7656
G1 X149.486 Y171.185 E2.78034
G1 X148.807 Y171.159 E2.80294
G1 X148.205 Y171.117 E2.82301
G1 X147.736 Y171.07 E2.83869
G1 X147.507 Y171.044 E2.84635
G1 X147.12 Y170.996 E2.85932
G1 X146.614 Y170.92 E2.87634
G1 X146.225 Y170.851 E2.88948
G1 X146.069 Y170.822 E2.89476
G1 X145.693 Y170.749 E2.9075
G1 X145.305 Y170.666 E2.92069
G1 X144.916 Y170.574 E2.93399
G1 X144.549 Y170.479 E2.9466
G1 X144.081 Y170.349 E2.96275
G1 X143.779 Y170.26 E2.97323
G1 X143.504 Y170.174 E2.98281
G1 X143.171 Y170.064 E2.99447
G1 X142.788 Y169.929 E3.00798
G1 X142.425 Y169.792 E3.02088
G1 X141.995 Y169.621 E3.03628
G1 X141.748 Y169.519 E3.04516
G1 X141.471 Y169.4 E3.05519
G1 X141.15 Y169.256 E3.06689
G1 X140.691 Y169.039 E3.08378
G1 X140.385 Y168.887 E3.09514
G1 X139.922 Y168.648 E3.11247
G1 X139.295 Y168.295 E3.13641
G1 X138.76 Y167.967 E3.15728
G1 X138.415 Y167.745 E3.17092
G1 X138.116 Y167.544 E3.18291
G1 X137.943 Y167.425 E3.18989
G1 X137.548 Y167.147 E3.20595
G1 X137.181 Y166.876 E3.22113
G1 X136.909 Y166.665 E3.23258
G1 X136.693 Y166.493 E3.24176
G1 X136.401 Y166.253 E3.25433
G1 X136.158 Y166.046 E3.26495
G1 X135.83 Y165.758 E3.27947
G1 X135.57 Y165.522 E3.29115
G1 X135.304 Y165.271 E3.30331
G1 X135.03 Y165.001 E3.31611
G1 X134.789 Y164.755 E3.32756
G1 X134.6 Y164.557 E3.33666
G1 X134.273 Y164.204 E3.35267
G1 X134.006 Y163.904 E3.36603
G1 X133.774 Y163.632 E3.37792
G1 X133.575 Y163.391 E3.38831
G1 X133.348 Y163.107 E3.4004
G1 X133.129 Y162.822 E3.41236
G1 X132.846 Y162.44 E3.42817
G1 X132.626 Y162.131 E3.44079
G1 X132.398 Y161.797 E3.45424
G1 X132.298 Y161.647 E3.46023
G1 X132.094 Y161.336 E3.4726
G1 X131.869 Y160.977 E3.4867
G1 X131.701 Y160.695 E3.49761
G1 X131.504 Y160.348 E3.51088
G1 X131.297 Y159.966 E3.52534
G1 X131.158 Y159.699 E3.53535
G1 X130.98 Y159.345 E3.54853
G1 X130.828 Y159.03 E3.56016
G1 X130.683 Y158.714 E3.57172
G1 X130.553 Y158.418 E3.58248
G1 X130.394 Y158.039 E3.59615
G1 X130.276 Y157.744 E3.60671
G1 X130.103 Y157.291 E3.62284
G1 X129.987 Y156.97 E3.63419
G1 X129.875 Y156.643 E3.64569
G1 X129.75 Y156.254 E3.65928
G1 X129.656 Y155.937 E3.67028
G1 X129.576 Y155.65 E3.68019
G1 X129.446 Y155.157 E3.69714
G1 X129.352 Y154.767 E3.71049
G1 X129.272 Y154.404 E3.72285
G1 X129.221 Y154.157 E3.73124
G1 X129.161 Y153.847 E3.74174
G1 X129.098 Y153.486 E3.75393
G1 X129.025 Y153.015 E3.76978
G1 X128.972 Y152.622 E3.78297
G1 X128.929 Y152.244 E3.79562
G1 X128.903 Y151.985 E3.80428
G1 X128.871 Y151.617 E3.81657
G1 X128.841 Y151.132 E3.83273
G1 X128.828 Y150.782 E3.84438
G1 X128.822 Y150.579 E3.85113
G1 X128.815 Y150.154 E3.86527
G1 X128.815 Y149.85 E3.87538
G1 X128.823 Y149.301 E3.89364
G1 X128.835 Y148.947 E3.90542
G1 X128.848 Y148.691 E3.91395
G1 X128.872 Y148.335 E3.92582
G1 X128.908 Y147.923 E3.93957
G1 X128.945 Y147.577 E3.95115
G1 X128.989 Y147.22 E3.96311
G1 X129.044 Y146.834 E3.97608
G1 X129.102 Y146.48 E3.98801
G1 X129.156 Y146.179 E3.99818
G1 X129.258 Y145.659 E4.01581
G1 X129.329 Y145.327 E4.0271
G1 X129.385 Y145.086 E4.03533
G1 X129.463 Y144.774 E4.04602
G1 X129.599 Y144.265 E4.06355
G1 X129.678 Y143.985 E4.07322
G1 X129.763 Y143.701 E4.08308
G1 X129.912 Y143.245 E4.09904
G1 X130.082 Y142.764 E4.11601
G1 X130.19 Y142.474 E4.1263
G1 X130.308 Y142.171 E4.13711
G1 X130.422 Y141.89 E4.1472
G1 X130.562 Y141.561 E4.15909
G1 X130.682 Y141.291 E4.16892
G1 X130.844 Y140.94 E4.18178
G1 X130.981 Y140.655 E4.1923
G1 X131.173 Y140.272 E4.20654
G1 X131.296 Y140.035 E4.21543
G1 X131.408 Y139.826 E4.22331
G1 X131.601 Y139.484 E4.23637
G1 X131.86 Y139.044 E4.25336
G1 X132.108 Y138.644 E4.26901
G1 X132.376 Y138.235 E4.28527
G1 X132.52 Y138.022 E4.29382
G1 X132.71 Y137.748 E4.30491
G1 X132.928 Y137.445 E4.31733
G1 X133.215 Y137.063 E4.33322
G1 X133.385 Y136.844 E4.34244
G1 X133.569 Y136.613 E4.35226
G1 X133.856 Y136.269 E4.36716
G1 X134.127 Y135.959 E4.38086
G1 X134.304 Y135.762 E4.38967
G1 X134.568 Y135.476 E4.40261
G1 X134.796 Y135.237 E4.4136
G1 X135.115 Y134.914 E4.4287
G0 F6000 X135.4 Y135.195
G1 F600 X135.707 Y134.897 E4.44293
G1 X135.945 Y134.677 E4.45371
G1 X136.139 Y134.503 E4.46238
G1 X136.457 Y134.225 E4.47643
G1 X136.73 Y133.995 E4.4883
G1 X137.029 Y133.753 E4.50109
G1 X137.247 Y133.582 E4.51031
G1 X137.608 Y133.307 E4.5254
G1 X137.877 Y133.11 E4.53649
G1 X138.174 Y132.9 E4.54859
G1 X138.482 Y132.691 E4.56097
G1 X138.807 Y132.48 E4.57386
G1 X139.049 Y132.328 E4.58336
G1 X139.367 Y132.135 E4.59573
G1 X139.574 Y132.013 E4.60373
G1 X139.85 Y131.855 E4.6143
G1 X140.066 Y131.735 E4.62252
G1 X140.395 Y131.558 E4.63495
G1 X140.835 Y131.336 E4.65134
G1 X141.286 Y131.123 E4.66793
G1 X141.546 Y131.005 E4.67742
G1 X141.973 Y130.819 E4.69292
G1 X142.353 Y130.664 E4.70657
G1 X142.639 Y130.554 E4.71676
G1 X142.899 Y130.458 E4.72598
G1 X143.292 Y130.32 E4.73983
G1 X143.582 Y130.223 E4.75
G1 X144.017 Y130.086 E4.76517
G1 X144.431 Y129.966 E4.77951
G1 X144.808 Y129.866 E4.79248
G1 X145.01 Y129.815 E4.79941
G1 X145.341 Y129.735 E4.81073
G1 X145.693 Y129.657 E4.82272
G1 X146.115 Y129.572 E4.83704
G1 X146.421 Y129.516 E4.84739
G1 X146.756 Y129.46 E4.85869
G1 X147.202 Y129.396 E4.87367
G1 X147.667 Y129.341 E4.88925
G1 X147.82 Y129.324 E4.89437
G1 X148.174 Y129.288 E4.9062
G1 X148.543 Y129.258 E4.91851
G1 X148.914 Y129.235 E4.93088
G1 X149.247 Y129.22 E4.94196
G1 X149.625 Y129.21 E4.95454
G1 X149.946 Y129.207 E4.96522
G1 X150.471 Y129.211 E4.98268
G1 X151.039 Y129.233 E5.00159
G1 X151.801 Y129.285 E5.02699
G1 X152.292 Y129.331 E5.04339
G1 X152.622 Y129.371 E5.05445
G1 X152.871 Y129.405 E5.06281
G1 X153.255 Y129.462 E5.07572
G1 X153.596 Y129.519 E5.08722
G1 X154.004 Y129.595 E5.10102
G1 X154.267 Y129.648 E5.10994
G1 X154.582 Y129.716 E5.12066
G1 X155.296 Y129.899 E5.14518
G1 X156.561 Y130.278 E5.1891
G1 X157.107 Y130.461 E5.20825
G1 X157.398 Y130.568 E5.21856
G1 X157.849 Y130.747 E5.2347
G1 X158.27 Y130.927 E5.24993
G1 X158.41 Y130.988 E5.25501
G1 X158.73 Y131.131 E5.26667
G1 X159.037 Y131.275 E5.27795
G1 X159.363 Y131.435 E5.29003
G1 X159.652 Y131.583 E5.30082
G1 X160.058 Y131.8 E5.31614
G1 X160.439 Y132.015 E5.33069
G1 X160.731 Y132.189 E5.34199
G1 X160.944 Y132.32 E5.35031
G1 X161.227 Y132.499 E5.36145
G1 X161.454 Y132.647 E5.37046
G1 X161.788 Y132.872 E5.38385
G1 X162.095 Y133.088 E5.39634
G1 X162.53 Y133.407 E5.41428
G1 X162.812 Y133.622 E5.42607
G1 X163.068 Y133.825 E5.43694
G1 X163.349 Y134.056 E5.44904
G1 X163.638 Y134.304 E5.46171
G1 X163.861 Y134.502 E5.47162
G1 X164.131 Y134.749 E5.4838
G1 X164.294 Y134.903 E5.49125
G1 X164.591 Y135.188 E5.50495
G1 X164.852 Y135.448 E5.5172
G1 X165.168 Y135.776 E5.53235
G1 X165.44 Y136.07 E5.54567
G1 X165.647 Y136.304 E5.55606
G1 X165.839 Y136.528 E5.56587
G1 X166.142 Y136.893 E5.58165
G1 X166.36 Y137.166 E5.59327
G1 X166.53 Y137.387 E5.60254
G1 X166.668 Y137.572 E5.61022
G1 X166.934 Y137.936 E5.62521
G1 X167.205 Y138.326 E5.64101
G1 X167.493 Y138.765 E5.65847
G1 X167.614 Y138.956 E5.66599
G1 X167.749 Y139.173 E5.67449
G1 X167.901 Y139.425 E5.68428
G1 X168.138 Y139.834 E5.7
G1 X168.317 Y140.158 E5.71232
G1 X168.449 Y140.408 E5.72172
G1 X168.57 Y140.645 E5.73057
G1 X168.762 Y141.035 E5.74503
G1 X168.942 Y141.422 E5.75922
G1 X169.109 Y141.804 E5.77309
G1 X169.231 Y142.097 E5.78365
G1 X169.421 Y142.575 E5.80075
G1 X169.548 Y142.911 E5.8127
G1 X169.617 Y143.106 E5.81958
G1 X169.696 Y143.339 E5.82776
G1 X169.846 Y143.801 E5.84392
G1 X169.926 Y144.061 E5.85297
G1 X170.035 Y144.433 E5.86586
G1 X170.141 Y144.828 E5.87946
G1 X170.225 Y145.169 E5.89114
G1 X170.286 Y145.431 E5.90009
G1 X170.369 Y145.815 E5.91316
G1 X170.439 Y146.176 E5.92539
G1 X170.515 Y146.609 E5.94001
G1 X170.567 Y146.939 E5.95112
G1 X170.614 Y147.277 E5.96247
G1 X170.655 Y147.616 E5.97383
G1 X170.696 Y148.017 E5.98724
G1 X170.715 Y148.217 E5.99392
G1 X170.753 Y148.688 E6.00963
G1 X170.78 Y149.188 E6.02629
G1 X170.789 Y149.518 E6.03727
G1 X170.792 Y149.774 E6.04578
G1 X170.792 Y150.196 E6.05982
G1 X170.788 Y150.486 E6.06947
G1 X170.774 Y150.94 E6.08457
G1 X170.755 Y151.309 E6.09686
G1 X170.733 Y151.622 E6.1073
G1 X170.703 Y151.957 E6.11848
G1 X170.673 Y152.239 E6.12792
G1 X170.638 Y152.527 E6.13757
G1 X170.566 Y153.05 E6.15513
G1 X170.508 Y153.417 E6.16748
G1 X170.433 Y153.838 E6.18171
G1 X170.359 Y154.21 E6.19432
G1 X170.206 Y154.905 E6.21799
G1 X170.044 Y155.538 E6.23972
G1 X169.926 Y155.939 E6.25363
G1 X169.864 Y156.141 E6.26065
G1 X169.724 Y156.58 E6.27598
G1 X169.593 Y156.962 E6.28941
G1 X169.469 Y157.3 E6.30139
G1 X169.358 Y157.586 E6.31159
G1 X169.229 Y157.905 E6.32303
G1 X169.138 Y158.123 E6.33089
G1 X168.964 Y158.524 E6.34543
G1 X168.837 Y158.805 E6.35569
G1 X168.658 Y159.183 E6.3696
G1 X168.452 Y159.592 E6.38483
