;FLAVOR:Marlin
;TIME:939
;Filament used: 0.330987m
;Layer height: 0.2
;MINX:131.627
;MINY:131.635
;MINZ:0.2
;MAXX:168.372
;MAXY:168.363
;MAXZ:12
;Generated with Cura_SteamEngine 4.4.1
M140 S55
M105
M190 S55
M104 S210
M105
M109 S210
M82 ;absolute extrusion mode
M201 X500.00 Y500.00 Z100.00 E5000.00 ;Setup machine max acceleration
M203 X500.00 Y500.00 Z10.00 E50.00 ;Setup machine max feedrate
M204 P500.00 R1000.00 T500.00 ;Setup Print/Retract/Travel acceleration
M205 X8.00 Y8.00 Z0.40 E5.00 ;Setup Jerk
M220 S100 ;Reset Feedrate
M221 S100 ;Reset Flowrate

G28 ;Home

G92 E0 ;Reset Extruder
G1 Z2.0 F3000 ;Move Z Axis up
G1 X10.1 Y20 Z0.28 F5000.0 ;Move to start position
G1 X10.1 Y200.0 Z0.28 F1500.0 E15 ;Draw the first line
G1 X10.4 Y200.0 Z0.28 F5000.0 ;Move to side a little
G1 X10.4 Y20 Z0.28 F1500.0 E30 ;Draw the second line
G92 E0 ;Reset Extruder
G1 Z2.0 F3000 ;Move Z Axis up

G92 E0
G92 E0
G1 F1800 E-6.5
;LAYER_COUNT:61
;LAYER:0
M107
G1 F300 Z0.7
G0 F6000 X137.194 Y136.823 Z0.7
;TYPE:SKIRT
G1 F300 Z0.2
G1 F1800 E0
G1 F600 X137.696 Y136.386 E0.02214
G1 X137.871 Y136.208 E0.03044
G1 X138.546 Y135.636 E0.05987
G1 X138.957 Y135.342 E0.07667
G1 X139.059 Y135.253 E0.08118
G1 X139.776 Y134.734 E0.11062
G1 X140.302 Y134.42 E0.13099
G1 X140.413 Y134.339 E0.13556
G1 X141.173 Y133.885 E0.16501
G1 X141.738 Y133.612 E0.18588
G1 X141.859 Y133.54 E0.19056
G1 X142.657 Y133.157 E0.22
G1 X143.214 Y132.951 E0.23975
G1 X143.389 Y132.867 E0.24621
G1 X144.219 Y132.559 E0.27565
G1 X144.648 Y132.432 E0.29053
G1 X144.814 Y132.387 E0.29625
G1 X144.868 Y132.375 E0.29809
G1 X144.968 Y132.338 E0.30164
G1 X146.255 Y132.021 E0.34573
G1 X146.42 Y131.992 E0.3513
G1 X146.47 Y131.986 E0.35297
G1 X146.537 Y131.967 E0.35529
G1 X147.409 Y131.811 E0.38475
G1 X148.061 Y131.749 E0.40654
G1 X148.211 Y131.723 E0.4116
G1 X149.093 Y131.649 E0.44104
G1 X149.738 Y131.65 E0.46249
G1 X149.933 Y131.635 E0.469
G1 X150.818 Y131.647 E0.49843
G1 X151.385 Y131.697 E0.51737
G1 X151.478 Y131.708 E0.52048
G1 X151.568 Y131.708 E0.52347
G1 X152.45 Y131.789 E0.55293
G1 X153.06 Y131.901 E0.57356
G1 X153.152 Y131.91 E0.57663
G1 X154.022 Y132.074 E0.60608
G1 X154.57 Y132.225 E0.62499
G1 X154.681 Y132.245 E0.62874
G1 X155.534 Y132.48 E0.65817
G1 X156.146 Y132.705 E0.67985
G1 X156.206 Y132.721 E0.68192
G1 X157.037 Y133.027 E0.71137
G1 X157.672 Y133.329 E0.73476
G1 X157.821 Y133.385 E0.74005
G1 X158.617 Y133.773 E0.76951
G1 X159.095 Y134.059 E0.78803
G1 X159.186 Y134.102 E0.79138
G1 X159.949 Y134.55 E0.82081
G1 X160.507 Y134.955 E0.84374
G1 X160.661 Y135.048 E0.84972
G1 X161.375 Y135.571 E0.87916
G1 X161.86 Y135.995 E0.90059
G1 X162.037 Y136.128 E0.90795
G1 X162.696 Y136.72 E0.93742
G1 X163.068 Y137.115 E0.95546
G1 X163.242 Y137.272 E0.96326
G1 X163.843 Y137.921 E0.99268
G1 X164.137 Y138.297 E1.00855
G1 X164.264 Y138.431 E1.01469
G1 X164.812 Y139.126 E1.04413
G1 X165.143 Y139.635 E1.06432
G1 X165.273 Y139.801 E1.07134
G1 X165.753 Y140.545 E1.10079
G1 X166.022 Y141.054 E1.11993
G1 X166.165 Y141.281 E1.12886
G1 X166.57 Y142.068 E1.1583
G1 X166.762 Y142.531 E1.17497
G1 X166.868 Y142.735 E1.18261
G1 X167.203 Y143.555 E1.21207
G1 X167.357 Y144.038 E1.22894
G1 X167.417 Y144.18 E1.23406
G1 X167.687 Y145.023 E1.2635
G1 X167.823 Y145.632 E1.28426
G1 X167.89 Y145.847 E1.29175
G1 X168.075 Y146.712 E1.32117
G1 X168.14 Y147.222 E1.33827
G1 X168.181 Y147.407 E1.34457
G1 X168.293 Y148.285 E1.37401
G1 X168.314 Y148.857 E1.39305
G1 X168.345 Y149.112 E1.40159
G1 X168.372 Y149.997 E1.43104
G1 X168.344 Y150.579 E1.45042
G1 X168.35 Y150.748 E1.45604
G1 X168.266 Y151.916 E1.49499
G1 X168.243 Y152.089 E1.5008
G1 X168.214 Y152.247 E1.50614
G1 X168.199 Y152.479 E1.51387
G1 X168.061 Y153.354 E1.54334
G1 X167.951 Y153.822 E1.55933
G1 X167.93 Y153.968 E1.56423
G1 X167.726 Y154.829 E1.59366
G1 X167.557 Y155.341 E1.61159
G1 X167.526 Y155.479 E1.6163
G1 X167.252 Y156.321 E1.64575
G1 X167.021 Y156.857 E1.66516
G1 X166.977 Y156.994 E1.66995
G1 X166.633 Y157.809 E1.69937
G1 X166.335 Y158.357 E1.72012
G1 X166.244 Y158.566 E1.7277
G1 X165.821 Y159.343 E1.75712
G1 X165.499 Y159.823 E1.77635
G1 X165.391 Y160.02 E1.78382
G1 X164.897 Y160.754 E1.81325
G1 X164.558 Y161.173 E1.83117
G1 X164.451 Y161.333 E1.83758
G1 X163.895 Y162.022 E1.86702
G1 X163.516 Y162.411 E1.88509
G1 X163.402 Y162.554 E1.89117
G1 X162.79 Y163.192 E1.92057
G1 X162.284 Y163.633 E1.9429
G1 X162.108 Y163.811 E1.95122
G1 X161.432 Y164.382 E1.98065
G1 X161.051 Y164.654 E1.99622
G1 X160.966 Y164.728 E1.99997
G1 X160.251 Y165.249 E2.0294
G1 X159.686 Y165.588 E2.05131
G1 X159.555 Y165.682 E2.05668
G1 X158.793 Y166.133 E2.08613
G1 X158.278 Y166.379 E2.10511
G1 X158.147 Y166.457 E2.11018
G1 X157.35 Y166.841 E2.1396
G1 X156.777 Y167.053 E2.15992
G1 X156.61 Y167.133 E2.16608
G1 X155.78 Y167.441 E2.19553
G1 X155.182 Y167.605 E2.21615
G1 X154.983 Y167.677 E2.22319
G1 X154.127 Y167.904 E2.25265
G1 X153.592 Y167.997 E2.27071
G1 X153.444 Y168.037 E2.27581
G1 X152.573 Y168.192 E2.30523
G1 X152.002 Y168.242 E2.3243
G1 X151.878 Y168.265 E2.32849
G1 X150.997 Y168.347 E2.35792
G1 X150.476 Y168.358 E2.37525
G1 X150.299 Y168.357 E2.38114
G1 X150.238 Y168.354 E2.38317
G1 X150.128 Y168.363 E2.38684
G1 X148.813 Y168.324 E2.4306
G1 X148.638 Y168.307 E2.43644
G1 X148.624 Y168.305 E2.43692
G1 X148.544 Y168.305 E2.43958
G1 X147.662 Y168.224 E2.46904
G1 X147.181 Y168.146 E2.48524
G1 X147.011 Y168.114 E2.491
G1 X146.933 Y168.096 E2.49366
G1 X146.749 Y168.076 E2.49981
G1 X145.595 Y167.827 E2.53908
G1 X145.427 Y167.78 E2.54488
G1 X145.417 Y167.777 E2.54523
G1 X145.39 Y167.772 E2.54614
G1 X144.535 Y167.543 E2.57558
G1 X143.917 Y167.313 E2.59751
G1 X143.791 Y167.279 E2.60185
G1 X142.96 Y166.973 E2.63131
G1 X142.336 Y166.684 E2.65418
G1 X142.256 Y166.643 E2.65717
G1 X142.176 Y166.613 E2.66001
G1 X141.38 Y166.226 E2.68945
G1 X140.902 Y165.94 E2.70798
G1 X140.807 Y165.895 E2.71147
G1 X140.045 Y165.445 E2.74091
G1 X139.488 Y165.042 E2.76377
G1 X139.339 Y164.952 E2.76956
G1 X138.625 Y164.429 E2.799
G1 X138.142 Y164.007 E2.82033
G1 X137.929 Y163.846 E2.82921
G1 X137.274 Y163.251 E2.85865
G1 X136.954 Y162.905 E2.87432
G1 X136.768 Y162.738 E2.88263
G1 X136.166 Y162.09 E2.91205
G1 X135.89 Y161.734 E2.92703
G1 X135.856 Y161.699 E2.92866
G1 X135.293 Y161.015 E2.95812
G1 X134.794 Y160.284 E2.98756
G1 X134.758 Y160.223 E2.98992
G1 X134.607 Y160.022 E2.99828
G1 X134.139 Y159.27 E3.02774
G1 X133.997 Y158.974 E3.03866
G1 X133.885 Y158.803 E3.04546
G1 X133.469 Y158.021 E3.07492
G1 X133.233 Y157.46 E3.09516
G1 X133.132 Y157.265 E3.10246
G1 X132.797 Y156.446 E3.13189
G1 X132.622 Y155.894 E3.15115
G1 X132.527 Y155.66 E3.15955
G1 X132.268 Y154.813 E3.18901
G1 X132.169 Y154.344 E3.20496
G1 X132.112 Y154.16 E3.21136
G1 X131.926 Y153.294 E3.24082
G1 X131.85 Y152.721 E3.26005
G1 X131.811 Y152.539 E3.26624
G1 X131.683 Y151.312 E3.30727
G1 X131.676 Y151.14 E3.313
G1 X131.676 Y151.077 E3.31509
G1 X131.659 Y150.941 E3.31965
G1 X131.627 Y150.057 E3.34907
G1 X131.657 Y149.452 E3.36922
G1 X131.65 Y149.212 E3.3772
G1 X131.705 Y148.329 E3.40663
G1 X131.787 Y147.765 E3.42559
G1 X131.811 Y147.441 E3.43639
G1 X131.956 Y146.568 E3.46583
G1 X132.048 Y146.186 E3.47889
G1 X132.074 Y146.009 E3.48484
G1 X132.28 Y145.148 E3.51429
G1 X132.442 Y144.662 E3.53133
G1 X132.476 Y144.514 E3.53638
G1 X132.75 Y143.672 E3.56583
G1 X132.987 Y143.123 E3.58572
G1 X133.045 Y142.945 E3.59194
G1 X133.395 Y142.132 E3.62138
G1 X133.678 Y141.615 E3.64099
G1 X133.758 Y141.43 E3.64769
G1 X134.182 Y140.653 E3.67713
G1 X134.507 Y140.164 E3.69666
G1 X134.603 Y139.989 E3.7033
G1 X135.096 Y139.254 E3.73274
G1 X135.449 Y138.818 E3.75139
G1 X135.549 Y138.667 E3.75742
G1 X136.105 Y137.978 E3.78686
G1 X136.502 Y137.565 E3.80592
G1 X136.582 Y137.464 E3.8102
G1 X137.194 Y136.823 E3.83968
G0 F6000 X137.535 Y137.051
G1 F600 X137.996 Y136.653 E3.85994
G1 X138.196 Y136.453 E3.86934
G1 X138.861 Y135.898 E3.89815
G1 X139.232 Y135.635 E3.91328
G1 X139.364 Y135.522 E3.91906
G1 X140.071 Y135.02 E3.9479
G1 X140.552 Y134.735 E3.96649
G1 X140.693 Y134.634 E3.97226
G1 X141.441 Y134.196 E4.00109
G1 X141.96 Y133.948 E4.02022
G1 X142.112 Y133.859 E4.02608
G1 X142.896 Y133.49 E4.0549
G1 X143.407 Y133.304 E4.07299
G1 X143.611 Y133.208 E4.08049
G1 X144.753 Y132.818 E4.12062
G1 X144.919 Y132.773 E4.12634
G1 X144.996 Y132.756 E4.12897
G1 X145.158 Y132.697 E4.1347
G1 X146.324 Y132.415 E4.1746
G1 X146.489 Y132.386 E4.18017
G1 X146.569 Y132.376 E4.18285
G1 X146.695 Y132.342 E4.1872
G1 X147.55 Y132.196 E4.21604
G1 X148.151 Y132.142 E4.23611
G1 X148.334 Y132.111 E4.24229
G1 X149.198 Y132.046 E4.27111
G1 X149.779 Y132.05 E4.29043
G1 X150.017 Y132.033 E4.29837
G1 X150.884 Y132.052 E4.32721
G1 X151.338 Y132.094 E4.34237
G1 X151.471 Y132.11 E4.34683
G1 X151.586 Y132.11 E4.35065
G1 X152.449 Y132.193 E4.37949
G1 X153.008 Y132.299 E4.39841
G1 X153.167 Y132.316 E4.40373
G1 X154.017 Y132.485 E4.43256
G1 X154.513 Y132.623 E4.44968
G1 X154.662 Y132.651 E4.45472
G1 X155.496 Y132.888 E4.48356
G1 X156.054 Y133.097 E4.50338
G1 X156.153 Y133.124 E4.50679
G1 X156.964 Y133.431 E4.53563
G1 X157.541 Y133.709 E4.55694
G1 X157.728 Y133.781 E4.5636
G1 X158.504 Y134.167 E4.59243
G1 X158.939 Y134.43 E4.60933
G1 X159.062 Y134.489 E4.61387
G1 X159.805 Y134.935 E4.64269
G1 X160.312 Y135.306 E4.66359
G1 X160.499 Y135.421 E4.67089
G1 X161.194 Y135.939 E4.69972
G1 X161.626 Y136.321 E4.7189
G1 X161.839 Y136.482 E4.72778
G1 X162.478 Y137.068 E4.75662
G1 X162.806 Y137.419 E4.7726
G1 X163.011 Y137.607 E4.78185
G1 X163.595 Y138.248 E4.81069
G1 X163.851 Y138.579 E4.82461
G1 X164.008 Y138.747 E4.83226
G1 X164.539 Y139.433 E4.86111
G1 X164.838 Y139.897 E4.87947
G1 X164.988 Y140.092 E4.88765
G1 X165.452 Y140.824 E4.91648
G1 X165.689 Y141.278 E4.93351
G1 X165.854 Y141.542 E4.94386
G1 X166.243 Y142.316 E4.97268
G1 X166.407 Y142.717 E4.98709
G1 X166.535 Y142.968 E4.99646
G1 X166.856 Y143.774 E5.02531
G1 X166.988 Y144.196 E5.04002
G1 X167.067 Y144.386 E5.04686
G1 X167.323 Y145.214 E5.07569
G1 X167.443 Y145.758 E5.09422
G1 X167.521 Y146.017 E5.10321
G1 X167.695 Y146.867 E5.13207
G1 X167.751 Y147.323 E5.14735
G1 X167.799 Y147.546 E5.15494
G1 X167.901 Y148.407 E5.18378
G1 X167.918 Y148.925 E5.20101
G1 X167.951 Y149.214 E5.21069
G1 X167.97 Y150.081 E5.23953
G1 X167.944 Y150.6 E5.25682
G1 X167.949 Y150.815 E5.26397
G1 X167.869 Y151.863 E5.29893
G1 X167.846 Y152.036 E5.30473
G1 X167.815 Y152.207 E5.31051
G1 X167.793 Y152.506 E5.32048
G1 X167.651 Y153.361 E5.34931
G1 X167.554 Y153.762 E5.36303
G1 X167.524 Y153.964 E5.36982
G1 X167.316 Y154.806 E5.39867
G1 X167.165 Y155.256 E5.41446
G1 X167.121 Y155.442 E5.42082
G1 X166.846 Y156.264 E5.44964
G1 X166.632 Y156.755 E5.46746
G1 X166.577 Y156.922 E5.47331
G1 X166.233 Y157.718 E5.50215
G1 X165.956 Y158.222 E5.52128
G1 X165.853 Y158.455 E5.52975
G1 X165.432 Y159.212 E5.55856
G1 X165.141 Y159.642 E5.57583
G1 X165.012 Y159.873 E5.58463
G1 X164.522 Y160.588 E5.61346
G1 X164.22 Y160.956 E5.62929
G1 X164.086 Y161.154 E5.63724
G1 X163.536 Y161.824 E5.66607
G1 X163.193 Y162.172 E5.68233
G1 X163.054 Y162.344 E5.68968
G1 X162.449 Y162.964 E5.71849
G1 X161.989 Y163.361 E5.7387
G1 X161.784 Y163.566 E5.74835
G1 X161.117 Y164.119 E5.77716
G1 X160.776 Y164.36 E5.79105
G1 X160.66 Y164.46 E5.79615
G1 X159.955 Y164.965 E5.82499
G1 X159.434 Y165.274 E5.84514
G1 X159.276 Y165.386 E5.85158
G1 X158.526 Y165.821 E5.88042
G1 X158.065 Y166.039 E5.89738
G1 X157.895 Y166.139 E5.90394
G1 X157.11 Y166.508 E5.93279
G1 X156.588 Y166.698 E5.95126
G1 X156.388 Y166.792 E5.95861
G1 X155.572 Y167.087 E5.98747
G1 X155.035 Y167.231 E6.00596
G1 X154.795 Y167.317 E6.01444
G1 X153.955 Y167.532 E6.04328
G1 X153.473 Y167.613 E6.05954
G1 X153.287 Y167.662 E6.06594
G1 X152.432 Y167.806 E6.09477
G1 X151.915 Y167.849 E6.11203
G1 X151.752 Y167.878 E6.11753
G1 X150.478 Y167.958 E6.15999
G1 X150.301 Y167.957 E6.16588
G1 X150.216 Y167.953 E6.16871
G1 X150.041 Y167.966 E6.17455
G1 X148.852 Y167.926 E6.21411
G1 X148.677 Y167.909 E6.21996
G1 X148.635 Y167.903 E6.22137
G1 X148.491 Y167.902 E6.22616
G1 X147.255 Y167.753 E6.26757
G1 X147.085 Y167.721 E6.27332
G1 X146.985 Y167.697 E6.27674
G1 X146.739 Y167.669 E6.28498
G1 X145.702 Y167.441 E6.32029
G1 X145.534 Y167.394 E6.3261
G1 X145.494 Y167.381 E6.32749
G1 X145.406 Y167.365 E6.33047
G1 X144.571 Y167.135 E6.35928
G1 X143.998 Y166.919 E6.37964
G1 X143.844 Y166.876 E6.38496
G1 X143.033 Y166.569 E6.4138
G1 X142.516 Y166.327 E6.43279
G1 X142.404 Y166.27 E6.43697
G1 X142.269 Y166.218 E6.44178
G1 X141.493 Y165.831 E6.47062
G1 X141.071 Y165.576 E6.48702
G1 X140.931 Y165.508 E6.4922
G1 X140.188 Y165.061 E6.52104
G1 X139.675 Y164.685 E6.54219
G1 X139.501 Y164.579 E6.54897
G1 X138.806 Y164.061 E6.5778
G1 X138.374 Y163.679 E6.59698
G1 X138.129 Y163.492 E6.60723
G1 X137.492 Y162.904 E6.63606
G1 X137.216 Y162.601 E6.6497
G1 X136.998 Y162.403 E6.65949
G1 X136.413 Y161.762 E6.68835
G1 X136.172 Y161.447 E6.70155
G1 X136.117 Y161.391 E6.70416
G1 X135.57 Y160.718 E6.733
G1 X135.227 Y160.181 E6.75419
G1 X134.906 Y159.752 E6.77202
G1 X134.454 Y159.012 E6.80086
G1 X134.328 Y158.747 E6.81062
G1 X134.202 Y158.553 E6.81831
G1 X133.8 Y157.785 E6.84714
G1 X133.594 Y157.283 E6.86519
G1 X133.466 Y157.032 E6.87456
G1 X133.144 Y156.227 E6.9034
G1 X132.993 Y155.741 E6.92032
G1 X132.886 Y155.475 E6.92986
G1 X132.638 Y154.644 E6.9587
G1 X132.556 Y154.235 E6.97258
G1 X132.481 Y153.989 E6.98113
G1 X132.306 Y153.14 E7.00996
G1 X132.241 Y152.627 E7.02716
G1 X132.194 Y152.402 E7.03481
G1 X132.083 Y151.295 E7.07181
G1 X132.076 Y151.123 E7.07754
G1 X132.076 Y151.04 E7.0803
G1 X132.052 Y150.838 E7.08706
G1 X132.029 Y149.971 E7.11591
G1 X132.058 Y149.421 E7.13423
G1 X132.052 Y149.147 E7.14334
G1 X132.113 Y148.282 E7.17218
G1 X132.188 Y147.782 E7.189
G1 X132.217 Y147.418 E7.20115
G1 X132.44 Y146.285 E7.23955
G1 X132.481 Y146.014 E7.24867
G1 X132.69 Y145.173 E7.27749
G1 X132.836 Y144.741 E7.29266
G1 X132.881 Y144.552 E7.29912
G1 X133.156 Y143.73 E7.32795
G1 X133.375 Y143.229 E7.34613
G1 X133.445 Y143.019 E7.3535
G1 X133.795 Y142.226 E7.38233
G1 X134.055 Y141.754 E7.40025
G1 X134.149 Y141.541 E7.40799
G1 X134.571 Y140.784 E7.43682
G1 X134.866 Y140.345 E7.45441
G1 X134.982 Y140.136 E7.46236
G1 X135.471 Y139.42 E7.4912
G1 X135.791 Y139.028 E7.50803
G1 X135.914 Y138.846 E7.51534
G1 X136.464 Y138.176 E7.54417
G1 X136.828 Y137.8 E7.56157
G1 X136.931 Y137.673 E7.56701
G1 X137.535 Y137.051 E7.59585
G0 F6000 X137.876 Y137.28
G1 F600 X138.289 Y136.928 E7.6139
G1 X138.52 Y136.699 E7.62472
G1 X139.176 Y136.162 E7.65291
G1 X139.498 Y135.936 E7.666
G1 X139.668 Y135.792 E7.67341
G1 X140.364 Y135.308 E7.7016
G1 X140.789 Y135.059 E7.71799
G1 X140.972 Y134.93 E7.72543
G1 X141.708 Y134.508 E7.75365
G1 X142.174 Y134.288 E7.77079
G1 X142.363 Y134.179 E7.77805
G1 X143.134 Y133.825 E7.80626
G1 X143.596 Y133.659 E7.82259
G1 X143.832 Y133.55 E7.83124
G1 X144.857 Y133.205 E7.86721
G1 X145.023 Y133.16 E7.87293
G1 X145.119 Y133.139 E7.8762
G1 X145.347 Y133.058 E7.88425
G1 X146.393 Y132.809 E7.92001
G1 X146.558 Y132.78 E7.92558
G1 X146.66 Y132.767 E7.929
G1 X146.852 Y132.717 E7.9356
G1 X147.69 Y132.582 E7.96383
G1 X148.196 Y132.539 E7.98072
G1 X148.221 Y132.538 E7.98155
G1 X148.454 Y132.5 E7.98941
G1 X149.301 Y132.444 E8.01764
G1 X149.804 Y132.45 E8.03437
G1 X150.1 Y132.431 E8.04423
G1 X151.292 Y132.492 E8.08393
G1 X151.444 Y132.51 E8.08902
G1 X151.602 Y132.511 E8.09428
G1 X152.446 Y132.596 E8.12249
G1 X152.969 Y132.7 E8.14023
G1 X153.179 Y132.723 E8.14725
G1 X154.01 Y132.895 E8.17548
G1 X154.448 Y133.02 E8.19063
G1 X154.641 Y133.058 E8.19717
G1 X155.455 Y133.297 E8.22539
G1 X155.942 Y133.482 E8.24271
G1 X155.947 Y133.484 E8.24289
G1 X156.098 Y133.527 E8.24812
G1 X156.889 Y133.834 E8.27634
G1 X157.411 Y134.089 E8.29566
G1 X157.633 Y134.177 E8.3036
G1 X158.39 Y134.562 E8.33185
G1 X158.777 Y134.798 E8.34693
G1 X158.936 Y134.876 E8.35282
G1 X159.66 Y135.319 E8.38105
G1 X160.12 Y135.66 E8.40009
G1 X160.335 Y135.793 E8.4085
G1 X161.01 Y136.307 E8.43672
G1 X161.393 Y136.648 E8.45377
G1 X161.638 Y136.837 E8.46407
G1 X162.259 Y137.415 E8.49228
G1 X162.533 Y137.712 E8.50572
G1 X162.78 Y137.941 E8.51693
G1 X163.345 Y138.574 E8.54515
