;FLAVOR:Marlin
;TIME:1132
;Filament used: 0.39441m
;Layer height: 0.2
;MINX:131.042
;MINY:135.106
;MINZ:0.2
;MAXX:168.933
;MAXY:164.987
;MAXZ:14.5
;Generated with Cura_SteamEngine 4.4.1
M140 S55
M105
M190 S55
M104 S210
M105
M109 S210
M82 ;absolute extrusion mode
M201 X500.00 Y500.00 Z100.00 E5000.00 ;Setup machine max acceleration
M203 X500.00 Y500.00 Z10.00 E50.00 ;Setup machine max feedrate
M204 P500.00 R1000.00 T500.00 ;Setup Print/Retract/Travel acceleration
M205 X8.00 Y8.00 Z0.40 E5.00 ;Setup Jerk
M220 S100 ;Reset Feedrate
M221 S100 ;Reset Flowrate

G28 ;Home

G92 E0 ;Reset Extruder
G1 Z2.0 F3000 ;Move Z Axis up
G1 X10.1 Y20 Z0.28 F5000.0 ;Move to start position
G1 X10.1 Y200.0 Z0.28 F1500.0 E15 ;Draw the first line
G1 X10.4 Y200.0 Z0.28 F5000.0 ;Move to side a little
G1 X10.4 Y20 Z0.28 F1500.0 E30 ;Draw the second line
G92 E0 ;Reset Extruder
G1 Z2.0 F3000 ;Move Z Axis up

G92 E0
G92 E0
G1 F1800 E-6.5
;LAYER_COUNT:71
;LAYER:0
M107
G1 F300 Z0.7
G0 F6000 X137.062 Y140.434 Z0.7
;TYPE:SKIRT
G1 F300 Z0.2
G1 F1800 E0
G1 F600 X137.412 Y140.098 E0.01614
G1 X137.835 Y139.711 E0.03521
G1 X138.328 Y139.288 E0.05681
G1 X138.753 Y138.948 E0.07491
G1 X139.282 Y138.553 E0.09687
G1 X139.718 Y138.25 E0.11453
G1 X140.215 Y137.927 E0.13425
G1 X140.67 Y137.65 E0.15196
G1 X141.22 Y137.339 E0.17298
G1 X141.642 Y137.118 E0.18882
G1 X141.986 Y136.947 E0.2016
G1 X142.203 Y136.844 E0.20959
G1 X142.417 Y136.745 E0.21743
G1 X142.619 Y136.655 E0.22479
G1 X142.971 Y136.506 E0.2375
G1 X143.379 Y136.343 E0.25211
G1 X143.86 Y136.166 E0.26916
G1 X144.254 Y136.032 E0.283
G1 X144.685 Y135.896 E0.29803
G1 X145.072 Y135.784 E0.31143
G1 X145.507 Y135.669 E0.3264
G1 X145.915 Y135.571 E0.34035
G1 X146.302 Y135.486 E0.35353
G1 X146.681 Y135.411 E0.36638
G1 X147.22 Y135.32 E0.38456
G1 X147.64 Y135.261 E0.39867
G1 X148.074 Y135.21 E0.4132
G1 X148.473 Y135.172 E0.42654
G1 X148.936 Y135.139 E0.44197
G1 X149.356 Y135.119 E0.45596
G1 X149.628 Y135.11 E0.46501
G1 X149.83 Y135.106 E0.47173
G1 X150.286 Y135.108 E0.4869
G1 X150.697 Y135.119 E0.50057
G1 X151.119 Y135.139 E0.51462
G1 X151.519 Y135.167 E0.52796
G1 X152.051 Y135.219 E0.54574
G1 X152.451 Y135.269 E0.55915
G1 X152.789 Y135.317 E0.5705
G1 X153.038 Y135.357 E0.57889
G1 X153.347 Y135.412 E0.58933
G1 X153.6 Y135.461 E0.5979
G1 X153.912 Y135.526 E0.6085
G1 X154.158 Y135.582 E0.61689
G1 X154.46 Y135.656 E0.62723
G1 X154.705 Y135.72 E0.63565
G1 X154.975 Y135.795 E0.64497
G1 X155.201 Y135.861 E0.65281
G1 X155.441 Y135.934 E0.66115
G1 X155.666 Y136.006 E0.66901
G1 X155.938 Y136.098 E0.67856
G1 X156.162 Y136.177 E0.68646
G1 X156.424 Y136.273 E0.69574
G1 X156.637 Y136.355 E0.70333
G1 X156.982 Y136.496 E0.71572
G1 X157.378 Y136.666 E0.73006
G1 X157.654 Y136.789 E0.74011
G1 X157.847 Y136.879 E0.74719
G1 X158.215 Y137.06 E0.76083
G1 X158.597 Y137.258 E0.77514
G1 X158.867 Y137.404 E0.78535
G1 X159.046 Y137.504 E0.79217
G1 X159.487 Y137.766 E0.80923
G1 X160.035 Y138.111 E0.83077
G1 X160.535 Y138.447 E0.85081
G1 X160.873 Y138.69 E0.86465
G1 X161.263 Y138.985 E0.88092
G1 X161.594 Y139.249 E0.895
G1 X161.922 Y139.523 E0.90921
G1 X162.249 Y139.808 E0.92364
G1 X162.635 Y140.164 E0.9411
G1 X162.941 Y140.461 E0.95529
G1 X163.267 Y140.792 E0.97074
G1 X163.55 Y141.094 E0.98451
G1 X163.874 Y141.457 E1.00069
G1 X164.147 Y141.779 E1.01473
G1 X164.4 Y142.091 E1.02809
G1 X164.531 Y142.259 E1.03518
G1 X164.735 Y142.529 E1.04643
G1 X164.813 Y142.636 E1.05083
G1 X165.64 Y143.336 E1.08687
G1 X165.755 Y143.446 E1.09216
G1 X166.366 Y144.086 E1.12159
G1 X166.918 Y144.779 E1.15106
G1 X167.404 Y145.519 E1.18051
G1 X167.822 Y146.299 E1.20994
G1 X168.167 Y147.114 E1.23938
G1 X168.438 Y147.957 E1.26883
G1 X168.631 Y148.821 E1.29827
G1 X168.767 Y150.005 E1.33791
G1 X168.926 Y152.979 E1.43697
G1 X168.933 Y153.864 E1.4664
G1 X168.861 Y154.746 E1.49584
G1 X168.709 Y155.618 E1.52528
G1 X168.479 Y156.473 E1.55473
G1 X168.173 Y157.304 E1.58418
G1 X167.793 Y158.103 E1.61361
G1 X167.342 Y158.865 E1.64306
G1 X166.825 Y159.583 E1.67249
G1 X166.431 Y160.04 E1.69255
G1 X166.28 Y160.305 E1.7027
G1 X165.774 Y161.031 E1.73213
G1 X165.204 Y161.709 E1.76159
G1 X164.785 Y162.137 E1.78151
G1 X164.66 Y162.257 E1.78728
G1 X163.994 Y162.84 E1.81672
G1 X163.279 Y163.361 E1.84614
G1 X162.519 Y163.816 E1.8756
G1 X161.721 Y164.2 E1.90506
G1 X160.892 Y164.51 E1.93449
G1 X160.039 Y164.745 E1.96392
G1 X159.168 Y164.901 E1.99335
G1 X157.848 Y164.987 E2.03735
G1 X142.076 Y164.947 E2.56193
G1 X141.192 Y164.905 E2.59137
G1 X140.315 Y164.783 E2.62082
G1 X139.453 Y164.582 E2.65025
G1 X138.612 Y164.305 E2.6797
G1 X137.8 Y163.953 E2.70914
G1 X137.023 Y163.529 E2.73858
G1 X136.288 Y163.036 E2.76802
G1 X135.293 Y162.196 E2.81133
G1 X135.176 Y162.083 E2.81674
G1 X134.568 Y161.44 E2.84617
G1 X134.02 Y160.745 E2.87561
G1 X133.537 Y160.003 E2.90505
G1 X133.5 Y159.934 E2.90766
G1 X133.067 Y159.419 E2.93004
G1 X132.56 Y158.693 E2.95949
G1 X132.121 Y157.924 E2.98894
G1 X131.752 Y157.119 E3.01839
G1 X131.459 Y156.284 E3.04783
G1 X131.241 Y155.426 E3.07727
G1 X131.102 Y154.552 E3.1067
G1 X131.042 Y153.669 E3.13614
G1 X131.068 Y152.712 E3.16798
G1 X131.081 Y152.541 E3.17369
G1 X131.234 Y149.913 E3.26124
G1 X131.325 Y149.033 E3.29067
G1 X131.495 Y148.164 E3.32012
G1 X131.743 Y147.314 E3.34957
G1 X132.067 Y146.49 E3.37902
G1 X132.464 Y145.699 E3.40845
G1 X132.931 Y144.947 E3.4379
G1 X133.463 Y144.24 E3.46732
G1 X134.274 Y143.372 E3.50683
G1 X134.39 Y143.262 E3.51215
G1 X135.059 Y142.682 E3.5416
G1 X135.236 Y142.555 E3.54885
G1 X135.287 Y142.485 E3.55173
G1 X135.458 Y142.259 E3.56115
G1 X135.661 Y142 E3.5721
G1 X135.841 Y141.778 E3.5816
G1 X136.037 Y141.544 E3.59176
G1 X136.221 Y141.331 E3.60112
G1 X136.427 Y141.1 E3.61141
G1 X136.624 Y140.886 E3.62109
G1 X136.869 Y140.629 E3.6329
G1 X137.062 Y140.434 E3.64202
G0 F6000 X137.346 Y140.716
G1 F600 X137.682 Y140.393 E3.65752
G1 X138.105 Y140.006 E3.67659
G1 X138.578 Y139.601 E3.6973
G1 X139.003 Y139.261 E3.71541
G1 X139.511 Y138.882 E3.73649
G1 X139.947 Y138.579 E3.75415
G1 X140.423 Y138.269 E3.77304
G1 X140.878 Y137.992 E3.79076
G1 X141.405 Y137.694 E3.81089
G1 X141.827 Y137.473 E3.82674
G1 X142.157 Y137.308 E3.83901
G1 X142.374 Y137.205 E3.847
G1 X142.579 Y137.111 E3.8545
G1 X142.781 Y137.021 E3.86185
G1 X143.12 Y136.878 E3.87409
G1 X143.528 Y136.715 E3.8887
G1 X143.988 Y136.545 E3.90501
G1 X144.382 Y136.411 E3.91886
G1 X144.796 Y136.281 E3.93329
G1 X145.183 Y136.169 E3.94669
G1 X145.601 Y136.058 E3.96107
G1 X146.009 Y135.96 E3.97503
G1 X146.379 Y135.879 E3.98763
G1 X146.758 Y135.804 E4.00048
G1 X147.275 Y135.716 E4.01792
G1 X147.695 Y135.657 E4.03203
G1 X148.112 Y135.608 E4.04599
G1 X148.511 Y135.57 E4.05932
G1 X148.955 Y135.539 E4.07412
G1 X149.375 Y135.519 E4.08811
G1 X149.636 Y135.51 E4.0968
G1 X149.838 Y135.506 E4.10352
G1 X150.275 Y135.507 E4.11805
G1 X150.686 Y135.518 E4.13173
G1 X151.091 Y135.538 E4.14521
G1 X151.491 Y135.566 E4.15855
G1 X152.001 Y135.616 E4.17559
G1 X152.401 Y135.666 E4.189
G1 X152.726 Y135.712 E4.19992
G1 X152.975 Y135.752 E4.20831
G1 X153.271 Y135.804 E4.2183
G1 X153.524 Y135.853 E4.22687
G1 X153.823 Y135.916 E4.23704
G1 X154.069 Y135.972 E4.24543
G1 X154.359 Y136.043 E4.25536
G1 X154.604 Y136.107 E4.26378
G1 X154.863 Y136.179 E4.27272
G1 X155.089 Y136.245 E4.28055
G1 X155.319 Y136.315 E4.28855
G1 X155.544 Y136.387 E4.2964
G1 X155.805 Y136.475 E4.30557
G1 X156.029 Y136.554 E4.31347
G1 X156.28 Y136.647 E4.32237
G1 X156.493 Y136.729 E4.32996
G1 X156.824 Y136.863 E4.34184
G1 X157.22 Y137.033 E4.35617
G1 X157.485 Y137.152 E4.36583
G1 X157.678 Y137.242 E4.37292
G1 X158.031 Y137.415 E4.38599
G1 X158.413 Y137.613 E4.4003
G1 X158.671 Y137.753 E4.41006
G1 X158.85 Y137.853 E4.41688
G1 X159.274 Y138.104 E4.43327
G1 X159.822 Y138.449 E4.45481
G1 X160.301 Y138.772 E4.47402
G1 X160.639 Y139.015 E4.48787
G1 X161.013 Y139.298 E4.50347
G1 X161.344 Y139.562 E4.51755
G1 X161.659 Y139.825 E4.5312
G1 X161.986 Y140.11 E4.54563
G1 X162.357 Y140.451 E4.56239
G1 X162.663 Y140.748 E4.57657
G1 X162.975 Y141.065 E4.59136
G1 X163.258 Y141.367 E4.60513
G1 X163.569 Y141.716 E4.62068
G1 X163.842 Y142.038 E4.63472
G1 X164.085 Y142.337 E4.64753
G1 X164.216 Y142.505 E4.65462
G1 X164.411 Y142.764 E4.6654
G1 X164.518 Y142.911 E4.67145
G1 X164.591 Y142.962 E4.67441
G1 X165.363 Y143.625 E4.70826
G1 X165.478 Y143.735 E4.71355
G1 X166.077 Y144.363 E4.74242
G1 X166.615 Y145.043 E4.77126
G1 X167.087 Y145.769 E4.80006
G1 X167.491 Y146.536 E4.82889
G1 X167.823 Y147.337 E4.85773
G1 X168.079 Y148.166 E4.88659
G1 X168.258 Y149.014 E4.91541
G1 X168.368 Y150.026 E4.94927
G1 X168.527 Y153 E5.04833
G1 X168.533 Y153.867 E5.07716
G1 X168.459 Y154.731 E5.10601
G1 X168.306 Y155.584 E5.13483
G1 X168.076 Y156.42 E5.16367
G1 X167.769 Y157.231 E5.19251
G1 X167.389 Y158.01 E5.22134
G1 X166.938 Y158.751 E5.25019
G1 X166.421 Y159.447 E5.27903
G1 X166.1 Y159.814 E5.29524
G1 X165.885 Y160.182 E5.30942
G1 X165.38 Y160.887 E5.33826
G1 X164.508 Y161.848 E5.38142
G1 X164.383 Y161.968 E5.38719
G1 X163.73 Y162.539 E5.41604
G1 X163.028 Y163.047 E5.44486
G1 X162.282 Y163.489 E5.4737
G1 X161.498 Y163.86 E5.50255
G1 X160.684 Y164.157 E5.53137
G1 X159.846 Y164.378 E5.56019
G1 X158.99 Y164.52 E5.58905
G1 X157.849 Y164.587 E5.62707
G1 X142.077 Y164.547 E6.15165
G1 X141.211 Y164.505 E6.18048
G1 X140.353 Y164.383 E6.20931
G1 X139.509 Y164.183 E6.23816
G1 X138.688 Y163.905 E6.26699
G1 X137.896 Y163.554 E6.2958
G1 X137.139 Y163.131 E6.32464
G1 X136.424 Y162.639 E6.35351
G1 X135.571 Y161.908 E6.39087
G1 X135.454 Y161.795 E6.39628
G1 X134.859 Y161.165 E6.4251
G1 X134.324 Y160.482 E6.45396
G1 X133.855 Y159.754 E6.48276
G1 X133.828 Y159.703 E6.48468
G1 X133.373 Y159.161 E6.50822
G1 X132.879 Y158.449 E6.53704
G1 X132.452 Y157.694 E6.56589
G1 X132.097 Y156.903 E6.59473
G1 X131.816 Y156.083 E6.62356
G1 X131.612 Y155.24 E6.65241
G1 X131.486 Y154.383 E6.68122
G1 X131.44 Y153.517 E6.71006
G1 X131.467 Y152.742 E6.73585
G1 X131.478 Y152.594 E6.74079
G1 X131.633 Y149.936 E6.82934
G1 X131.723 Y149.074 E6.85817
G1 X131.892 Y148.224 E6.88699
G1 X132.139 Y147.393 E6.91583
G1 X132.462 Y146.588 E6.94468
G1 X132.857 Y145.817 E6.97349
G1 X133.322 Y145.085 E7.00234
G1 X133.852 Y144.399 E7.03117
G1 X134.549 Y143.662 E7.06491
G1 X134.665 Y143.552 E7.07022
G1 X135.321 Y142.985 E7.09906
G1 X135.522 Y142.842 E7.10727
G1 X135.606 Y142.726 E7.11203
G1 X135.777 Y142.5 E7.12146
G1 X135.971 Y142.252 E7.13193
G1 X136.151 Y142.03 E7.14144
G1 X136.34 Y141.805 E7.15121
G1 X136.524 Y141.592 E7.16057
G1 X136.721 Y141.371 E7.17042
G1 X136.918 Y141.157 E7.18009
G1 X137.153 Y140.911 E7.19141
G1 X137.346 Y140.716 E7.20053
G0 F6000 X137.63 Y140.997
G1 F600 X137.952 Y140.688 E7.21538
G1 X138.375 Y140.301 E7.23444
G1 X138.828 Y139.913 E7.25428
G1 X139.253 Y139.573 E7.27238
G1 X139.739 Y139.21 E7.29256
G1 X140.175 Y138.907 E7.31022
G1 X140.631 Y138.611 E7.3283
G1 X141.086 Y138.334 E7.34602
G1 X141.591 Y138.048 E7.36532
G1 X142.013 Y137.827 E7.38117
G1 X142.329 Y137.669 E7.39292
G1 X142.546 Y137.566 E7.40091
G1 X142.742 Y137.476 E7.40808
G1 X142.944 Y137.386 E7.41543
G1 X143.268 Y137.249 E7.42713
G1 X143.676 Y137.086 E7.44175
G1 X144.117 Y136.923 E7.45738
G1 X144.511 Y136.789 E7.47123
G1 X144.907 Y136.665 E7.48503
G1 X145.294 Y136.553 E7.49843
G1 X145.694 Y136.447 E7.51219
G1 X146.102 Y136.349 E7.52615
G1 X146.457 Y136.271 E7.53824
G1 X146.836 Y136.196 E7.55109
G1 X147.331 Y136.113 E7.56778
G1 X147.751 Y136.054 E7.58189
G1 X148.15 Y136.007 E7.59525
G1 X148.549 Y135.969 E7.60858
G1 X148.974 Y135.938 E7.62275
G1 X149.394 Y135.918 E7.63674
G1 X149.644 Y135.91 E7.64506
G1 X149.846 Y135.906 E7.65178
G1 X150.265 Y135.907 E7.66571
G1 X150.676 Y135.918 E7.67939
G1 X151.063 Y135.937 E7.69228
G1 X151.463 Y135.965 E7.70561
G1 X151.951 Y136.012 E7.72192
G1 X152.351 Y136.062 E7.73533
G1 X152.662 Y136.107 E7.74578
G1 X152.911 Y136.147 E7.75416
G1 X153.195 Y136.197 E7.76376
G1 X153.448 Y136.246 E7.77233
G1 X153.735 Y136.307 E7.78209
G1 X153.981 Y136.363 E7.79048
G1 X154.258 Y136.43 E7.79996
G1 X154.503 Y136.494 E7.80838
G1 X154.751 Y136.563 E7.81694
G1 X154.977 Y136.629 E7.82477
G1 X155.197 Y136.696 E7.83242
G1 X155.422 Y136.768 E7.84028
G1 X155.672 Y136.852 E7.84905
G1 X155.896 Y136.931 E7.85695
G1 X156.136 Y137.02 E7.86546
G1 X156.349 Y137.102 E7.87305
G1 X156.666 Y137.231 E7.88444
G1 X157.062 Y137.401 E7.89877
G1 X157.316 Y137.514 E7.90802
G1 X157.509 Y137.604 E7.9151
G1 X157.847 Y137.771 E7.92764
G1 X158.229 Y137.969 E7.94195
G1 X158.476 Y138.102 E7.95128
G1 X158.655 Y138.202 E7.9581
G1 X159.061 Y138.443 E7.9738
G1 X159.609 Y138.788 E7.99534
G1 X160.068 Y139.097 E8.01374
G1 X160.406 Y139.34 E8.02759
G1 X160.764 Y139.611 E8.04252
G1 X161.095 Y139.875 E8.05661
G1 X161.396 Y140.126 E8.06964
G1 X161.723 Y140.411 E8.08407
G1 X162.078 Y140.738 E8.10012
G1 X162.384 Y141.035 E8.1143
G1 X162.683 Y141.339 E8.12849
G1 X162.966 Y141.641 E8.14225
G1 X163.264 Y141.975 E8.15714
G1 X163.537 Y142.297 E8.17118
G1 X163.769 Y142.583 E8.18343
G1 X163.9 Y142.751 E8.19052
G1 X164.087 Y142.999 E8.20085
G1 X164.239 Y143.208 E8.20944
G1 X164.448 Y143.358 E8.218
G1 X165.087 Y143.914 E8.24617
G1 X165.202 Y144.024 E8.25146
G1 X165.787 Y144.639 E8.27969
G1 X166.311 Y145.306 E8.30791
G1 X166.77 Y146.019 E8.33611
G1 X167.16 Y146.772 E8.36431
G1 X167.477 Y147.559 E8.39253
G1 X167.719 Y148.372 E8.42075
G1 X167.883 Y149.205 E8.44898
G1 X167.968 Y150.048 E8.47716
G1 X168.127 Y153.022 E8.57622
G1 X168.132 Y153.87 E8.60443
G1 X168.058 Y154.715 E8.63264
G1 X167.904 Y155.549 E8.66085
G1 X167.672 Y156.365 E8.68906
G1 X167.365 Y157.156 E8.71728
G1 X166.984 Y157.914 E8.7455
G1 X166.534 Y158.633 E8.77371
G1 X166.018 Y159.306 E8.80192
G1 X165.773 Y159.582 E8.81419
G1 X165.489 Y160.056 E8.83257
G1 X164.986 Y160.739 E8.86078
G1 X164.231 Y161.559 E8.89786
G1 X164.106 Y161.679 E8.90362
G1 X163.467 Y162.237 E8.93184
G1 X162.778 Y162.733 E8.96007
G1 X162.046 Y163.161 E8.98828
G1 X161.277 Y163.519 E9.01649
G1 X160.477 Y163.802 E9.04471
G1 X159.654 Y164.009 E9.07294
G1 X158.816 Y164.137 E9.10113
G1 X157.85 Y164.187 E9.1333
G1 X142.078 Y164.147 E9.65789
G1 X141.231 Y164.105 E9.68609
G1 X140.391 Y163.983 E9.71432
G1 X139.567 Y163.783 E9.74253
G1 X138.765 Y163.506 E9.77075
G1 X137.993 Y163.155 E9.79895
G1 X137.257 Y162.732 E9.82719
G1 X136.565 Y162.243 E9.85537
G1 X135.849 Y161.621 E9.88691
G1 X135.732 Y161.508 E9.89232
G1 X135.15 Y160.89 E9.92056
G1 X134.629 Y160.221 E9.94876
G1 X134.173 Y159.505 E9.977
G1 X134.155 Y159.469 E9.97833
G1 X133.68 Y158.903 E10.00291
G1 X133.198 Y158.205 E10.03112
G1 X132.784 Y157.464 E10.05936
G1 X132.442 Y156.688 E10.08756
G1 X132.175 Y155.883 E10.11577
G1 X131.984 Y155.057 E10.14397
G1 X131.873 Y154.216 E10.17218
G1 X131.84 Y153.368 E10.20041
G1 X131.866 Y152.772 E10.22025
G1 X131.876 Y152.644 E10.22452
G1 X132.032 Y149.96 E10.31394
G1 X132.121 Y149.116 E10.34217
G1 X132.29 Y148.285 E10.37037
G1 X132.535 Y147.473 E10.39858
G1 X132.856 Y146.688 E10.42679
G1 X133.25 Y145.936 E10.45503
G1 X133.713 Y145.225 E10.48325
G1 X134.24 Y144.561 E10.51144
G1 X134.824 Y143.952 E10.53951
G1 X134.94 Y143.842 E10.54482
G1 X135.583 Y143.288 E10.57305
G1 X135.807 Y143.129 E10.58219
G1 X135.925 Y142.968 E10.58883
G1 X136.096 Y142.742 E10.59825
G1 X136.282 Y142.504 E10.6083
G1 X136.462 Y142.282 E10.61781
G1 X136.642 Y142.067 E10.62713
G1 X136.826 Y141.854 E10.63649
G1 X137.015 Y141.641 E10.64596
G1 X137.212 Y141.427 E10.65564
G1 X137.437 Y141.192 E10.66646
G1 X137.63 Y140.997 E10.67559
G0 F6000 X137.915 Y141.278
G1 F600 X138.222 Y140.983 E10.68975
G1 X138.645 Y140.596 E10.70882
G1 X139.078 Y140.226 E10.72776
G1 X139.503 Y139.886 E10.74586
G1 X139.967 Y139.539 E10.76513
G1 X140.403 Y139.236 E10.78279
G1 X140.839 Y138.952 E10.8001
G1 X141.294 Y138.675 E10.81781
G1 X141.776 Y138.402 E10.83624
G1 X142.198 Y138.181 E10.85208
G1 X142.5 Y138.031 E10.8633
G1 X142.717 Y137.928 E10.87129
G1 X142.905 Y137.841 E10.87818
G1 X143.107 Y137.751 E10.88553
G1 X143.416 Y137.621 E10.89668
G1 X143.824 Y137.458 E10.9113
G1 X144.246 Y137.302 E10.92626
G1 X144.64 Y137.168 E10.9401
G1 X145.018 Y137.049 E10.95328
G1 X145.405 Y136.937 E10.96668
G1 X145.787 Y136.836 E10.97982
