;FLAVOR:Marlin
;TIME:2605
;Filament used: 0.797477m
;Layer height: 0.2
;MINX:134.202
;MINY:138.396
;MINZ:0.2
;MAXX:165.798
;MAXY:161.605
;MAXZ:59.5
;Generated with Cura_SteamEngine 4.4.1
M140 S55
M105
M190 S55
M104 S210
M105
M109 S210
M82 ;absolute extrusion mode
M201 X500.00 Y500.00 Z100.00 E5000.00 ;Setup machine max acceleration
M203 X500.00 Y500.00 Z10.00 E50.00 ;Setup machine max feedrate
M204 P500.00 R1000.00 T500.00 ;Setup Print/Retract/Travel acceleration
M205 X8.00 Y8.00 Z0.40 E5.00 ;Setup Jerk
M220 S100 ;Reset Feedrate
M221 S100 ;Reset Flowrate

G28 ;Home

G92 E0 ;Reset Extruder
G1 Z2.0 F3000 ;Move Z Axis up
G1 X10.1 Y20 Z0.28 F5000.0 ;Move to start position
G1 X10.1 Y200.0 Z0.28 F1500.0 E15 ;Draw the first line
G1 X10.4 Y200.0 Z0.28 F5000.0 ;Move to side a little
G1 X10.4 Y20 Z0.28 F1500.0 E30 ;Draw the second line
G92 E0 ;Reset Extruder
G1 Z2.0 F3000 ;Move Z Axis up

G92 E0
G92 E0
G1 F1800 E-5
;LAYER_COUNT:295
;LAYER:0
M107
G1 F300 Z0.7
G0 F6000 X137.767 Y141.641 Z0.7
;TYPE:SKIRT
G1 F300 Z0.2
G1 F1800 E0
G1 F600 X137.921 Y141.496 E0.00704
G1 X138.729 Y140.813 E0.04222
G1 X138.897 Y140.686 E0.04923
G1 X139.884 Y140.03 E0.08865
G1 X140.063 Y139.926 E0.09553
G1 X141.097 Y139.405 E0.13404
G1 X141.289 Y139.322 E0.141
G1 X142.375 Y138.926 E0.17945
G1 X142.576 Y138.866 E0.18642
G1 X143.626 Y138.615 E0.22233
G1 X143.835 Y138.577 E0.22939
G1 X144.974 Y138.438 E0.26756
G1 X145.181 Y138.425 E0.27446
G1 X145.783 Y138.406 E0.29449
G1 X154.174 Y138.396 E0.57358
G1 X154.641 Y138.407 E0.58911
G1 X154.856 Y138.417 E0.59627
G1 X156.02 Y138.541 E0.63521
G1 X156.229 Y138.576 E0.64225
G1 X157.426 Y138.854 E0.68313
G1 X157.626 Y138.914 E0.69007
G1 X158.636 Y139.279 E0.72579
G1 X158.827 Y139.36 E0.73269
G1 X159.883 Y139.885 E0.77191
G1 X160.064 Y139.989 E0.77886
G1 X161.062 Y140.646 E0.8186
G1 X161.23 Y140.772 E0.82558
G1 X162.043 Y141.454 E0.86088
G1 X162.197 Y141.598 E0.86789
G1 X162.958 Y142.394 E0.90452
G1 X163.092 Y142.551 E0.91138
G1 X163.806 Y143.499 E0.95086
G1 X163.922 Y143.674 E0.95784
G1 X164.491 Y144.649 E0.99539
G1 X164.586 Y144.836 E1.00236
G1 X165.049 Y145.9 E1.04096
G1 X165.122 Y146.099 E1.04801
G1 X165.451 Y147.187 E1.08581
G1 X165.499 Y147.387 E1.09265
G1 X165.695 Y148.464 E1.12906
G1 X165.721 Y148.673 E1.13607
G1 X165.796 Y149.79 E1.1733
G1 X165.798 Y150 E1.18029
G1 X165.735 Y151.206 E1.22045
G1 X165.711 Y151.416 E1.22748
G1 X165.517 Y152.534 E1.26522
G1 X165.47 Y152.735 E1.27209
G1 X165.152 Y153.812 E1.30944
G1 X165.081 Y154.01 E1.31644
G1 X164.612 Y155.103 E1.35599
G1 X164.518 Y155.29 E1.36296
G1 X163.959 Y156.261 E1.40022
G1 X163.843 Y156.438 E1.40726
G1 X163.21 Y157.298 E1.44278
G1 X163.079 Y157.457 E1.44963
G1 X162.233 Y158.36 E1.49078
G1 X162.079 Y158.505 E1.49782
G1 X161.271 Y159.188 E1.53301
G1 X161.103 Y159.315 E1.54001
G1 X160.116 Y159.971 E1.57943
G1 X159.937 Y160.075 E1.58632
G1 X158.903 Y160.596 E1.62482
G1 X158.711 Y160.679 E1.63178
G1 X157.625 Y161.075 E1.67023
G1 X157.424 Y161.135 E1.67721
G1 X156.374 Y161.386 E1.71311
G1 X156.165 Y161.424 E1.72018
G1 X154.979 Y161.566 E1.75991
G1 X154.772 Y161.578 E1.7668
G1 X154.218 Y161.594 E1.78524
G1 X145.843 Y161.605 E2.06379
G1 X145.364 Y161.594 E2.07973
G1 X145.133 Y161.583 E2.08742
G1 X143.98 Y161.459 E2.12599
G1 X143.771 Y161.424 E2.13304
G1 X142.617 Y161.159 E2.17242
G1 X142.417 Y161.1 E2.17935
G1 X141.358 Y160.72 E2.21677
G1 X141.165 Y160.638 E2.22375
G1 X140.074 Y160.092 E2.26433
G1 X139.895 Y159.988 E2.27121
G1 X138.968 Y159.376 E2.30816
G1 X138.8 Y159.251 E2.31512
G1 X137.932 Y158.524 E2.35278
G1 X137.778 Y158.379 E2.35982
G1 X137.065 Y157.633 E2.39414
G1 X136.93 Y157.476 E2.40102
G1 X136.164 Y156.459 E2.44337
G1 X136.048 Y156.282 E2.45041
G1 X135.508 Y155.349 E2.48626
G1 X135.413 Y155.162 E2.49324
G1 X134.951 Y154.102 E2.5317
G1 X134.879 Y153.906 E2.53864
G1 X134.546 Y152.803 E2.57697
G1 X134.498 Y152.602 E2.58384
G1 X134.305 Y151.536 E2.61987
G1 X134.279 Y151.327 E2.62688
G1 X134.204 Y150.211 E2.66408
G1 X134.202 Y150.002 E2.67103
G1 X134.265 Y148.795 E2.71123
G1 X134.289 Y148.585 E2.71826
G1 X134.481 Y147.477 E2.75566
G1 X134.528 Y147.275 E2.76256
G1 X134.848 Y146.188 E2.80025
G1 X134.919 Y145.99 E2.80724
G1 X135.388 Y144.897 E2.8468
G1 X135.482 Y144.71 E2.85376
G1 X136.041 Y143.739 E2.89103
G1 X136.157 Y143.562 E2.89807
G1 X136.81 Y142.679 E2.93459
G1 X136.941 Y142.521 E2.94142
G1 X137.767 Y141.641 E2.98156
G0 F6000 X138.041 Y141.932
G1 F600 X138.195 Y141.787 E2.9886
G1 X138.97 Y141.132 E3.02235
G1 X139.138 Y141.005 E3.02935
G1 X140.085 Y140.376 E3.06716
G1 X140.264 Y140.272 E3.07405
G1 X141.256 Y139.772 E3.111
G1 X141.448 Y139.689 E3.11795
G1 X142.489 Y139.31 E3.1548
G1 X142.69 Y139.25 E3.16178
G1 X143.697 Y139.009 E3.19622
G1 X143.906 Y138.971 E3.20328
G1 X144.999 Y138.837 E3.23991
G1 X145.206 Y138.824 E3.24681
G1 X145.784 Y138.806 E3.26604
G1 X154.175 Y138.796 E3.54513
G1 X154.623 Y138.806 E3.56003
G1 X154.838 Y138.816 E3.56719
G1 X155.954 Y138.935 E3.60452
G1 X156.163 Y138.97 E3.61157
G1 X157.311 Y139.237 E3.65077
G1 X157.511 Y139.297 E3.65771
G1 X158.48 Y139.647 E3.69198
G1 X158.671 Y139.728 E3.69888
G1 X159.684 Y140.232 E3.73651
G1 X159.865 Y140.336 E3.74346
G1 X160.822 Y140.966 E3.78156
G1 X160.99 Y141.092 E3.78855
G1 X161.77 Y141.746 E3.8224
G1 X161.924 Y141.89 E3.82942
G1 X162.654 Y142.654 E3.86456
G1 X162.788 Y142.811 E3.87143
G1 X163.473 Y143.72 E3.90928
G1 X163.589 Y143.895 E3.91627
G1 X164.135 Y144.83 E3.95228
G1 X164.23 Y145.017 E3.95926
G1 X164.674 Y146.038 E3.99629
G1 X164.747 Y146.237 E4.00334
G1 X165.062 Y147.28 E4.03957
G1 X165.11 Y147.48 E4.04641
G1 X165.298 Y148.514 E4.08137
G1 X165.324 Y148.723 E4.08837
G1 X165.396 Y149.793 E4.12404
G1 X165.398 Y150.003 E4.13103
G1 X165.337 Y151.16 E4.16956
G1 X165.313 Y151.37 E4.17659
G1 X165.127 Y152.443 E4.21281
G1 X165.08 Y152.644 E4.21968
G1 X164.775 Y153.677 E4.2555
G1 X164.704 Y153.875 E4.2625
G1 X164.255 Y154.924 E4.30045
G1 X164.161 Y155.111 E4.30741
G1 X163.624 Y156.042 E4.34316
G1 X163.508 Y156.219 E4.3502
G1 X162.901 Y157.043 E4.38424
G1 X162.77 Y157.202 E4.39109
G1 X161.959 Y158.069 E4.43058
G1 X161.805 Y158.214 E4.43761
G1 X161.03 Y158.869 E4.47136
G1 X160.862 Y158.996 E4.47837
G1 X159.915 Y159.625 E4.51618
G1 X159.736 Y159.729 E4.52306
G1 X158.744 Y160.229 E4.56001
G1 X158.552 Y160.312 E4.56697
G1 X157.511 Y160.691 E4.60382
G1 X157.31 Y160.751 E4.61079
G1 X156.303 Y160.992 E4.64523
G1 X156.094 Y161.03 E4.6523
G1 X154.956 Y161.166 E4.69042
G1 X154.749 Y161.178 E4.69731
G1 X154.217 Y161.194 E4.71501
G1 X145.842 Y161.205 E4.99357
G1 X145.383 Y161.194 E5.00884
G1 X145.152 Y161.183 E5.01653
G1 X144.046 Y161.065 E5.05353
G1 X143.837 Y161.03 E5.06057
G1 X142.73 Y160.775 E5.09836
G1 X142.53 Y160.716 E5.10529
G1 X141.514 Y160.352 E5.14119
G1 X141.321 Y160.27 E5.14816
G1 X140.275 Y159.746 E5.18707
G1 X140.096 Y159.642 E5.19396
G1 X139.207 Y159.055 E5.22939
G1 X139.039 Y158.93 E5.23636
G1 X138.206 Y158.233 E5.27248
G1 X138.052 Y158.088 E5.27952
G1 X137.369 Y157.373 E5.3124
G1 X137.234 Y157.216 E5.31929
G1 X136.499 Y156.24 E5.35993
G1 X136.383 Y156.063 E5.36697
G1 X135.864 Y155.168 E5.40138
G1 X135.769 Y154.981 E5.40835
G1 X135.327 Y153.964 E5.44524
G1 X135.255 Y153.768 E5.45218
G1 X134.935 Y152.71 E5.48894
G1 X134.887 Y152.509 E5.49582
G1 X134.702 Y151.486 E5.53039
G1 X134.676 Y151.277 E5.5374
G1 X134.604 Y150.207 E5.57307
G1 X134.602 Y149.998 E5.58002
G1 X134.663 Y148.841 E5.61856
G1 X134.687 Y148.631 E5.62559
G1 X134.871 Y147.568 E5.66147
G1 X134.918 Y147.366 E5.66837
G1 X135.225 Y146.323 E5.70453
G1 X135.296 Y146.125 E5.71152
G1 X135.745 Y145.076 E5.74947
G1 X135.839 Y144.889 E5.75644
G1 X136.376 Y143.958 E5.79218
G1 X136.492 Y143.781 E5.79922
G1 X137.118 Y142.934 E5.83425
G1 X137.249 Y142.776 E5.84108
G1 X138.041 Y141.932 E5.87957
G0 F6000 X138.315 Y142.223
G1 F600 X138.469 Y142.078 E5.88661
G1 X139.212 Y141.452 E5.91892
G1 X139.38 Y141.325 E5.92593
G1 X140.286 Y140.722 E5.96213
G1 X140.465 Y140.618 E5.96901
G1 X141.415 Y140.139 E6.0044
G1 X141.607 Y140.056 E6.01135
G1 X142.604 Y139.693 E6.04664
G1 X142.805 Y139.633 E6.05362
G1 X143.769 Y139.402 E6.08659
G1 X143.978 Y139.364 E6.09366
G1 X145.024 Y139.237 E6.1287
G1 X145.231 Y139.224 E6.1356
G1 X145.784 Y139.206 E6.154
G1 X154.175 Y139.196 E6.43309
G1 X154.604 Y139.206 E6.44736
G1 X154.819 Y139.216 E6.45452
G1 X155.887 Y139.33 E6.49024
G1 X156.096 Y139.365 E6.49729
G1 X157.196 Y139.621 E6.53486
G1 X157.396 Y139.681 E6.5418
G1 X158.324 Y140.015 E6.57461
G1 X158.515 Y140.096 E6.58151
G1 X159.485 Y140.578 E6.61753
G1 X159.666 Y140.682 E6.62447
G1 X160.582 Y141.286 E6.66097
G1 X160.75 Y141.412 E6.66795
G1 X161.497 Y142.038 E6.70037
G1 X161.651 Y142.182 E6.70738
G1 X162.35 Y142.913 E6.74102
G1 X162.484 Y143.07 E6.74789
G1 X163.14 Y143.941 E6.78415
G1 X163.256 Y144.116 E6.79114
G1 X163.778 Y145.012 E6.82563
G1 X163.873 Y145.199 E6.8326
G1 X164.298 Y146.175 E6.86801
G1 X164.371 Y146.374 E6.87506
G1 X164.673 Y147.374 E6.9098
G1 X164.721 Y147.574 E6.91664
G1 X164.901 Y148.563 E6.95008
G1 X164.927 Y148.772 E6.95708
G1 X164.996 Y149.797 E6.99125
G1 X164.998 Y150.007 E6.99824
G1 X164.94 Y151.115 E7.03514
G1 X164.916 Y151.325 E7.04217
G1 X164.738 Y152.352 E7.07684
G1 X164.691 Y152.553 E7.0837
G1 X164.399 Y153.542 E7.118
G1 X164.328 Y153.74 E7.125
G1 X163.897 Y154.744 E7.16134
G1 X163.803 Y154.931 E7.1683
G1 X163.289 Y155.822 E7.20251
G1 X163.173 Y155.999 E7.20955
G1 X162.592 Y156.789 E7.24216
G1 X162.461 Y156.948 E7.24902
G1 X161.685 Y157.778 E7.28681
G1 X161.531 Y157.923 E7.29384
G1 X160.788 Y158.549 E7.32616
G1 X160.62 Y158.676 E7.33316
G1 X159.714 Y159.279 E7.36936
G1 X159.535 Y159.383 E7.37625
G1 X158.585 Y159.862 E7.41163
G1 X158.393 Y159.945 E7.41859
G1 X157.396 Y160.308 E7.45388
G1 X157.195 Y160.368 E7.46086
G1 X156.231 Y160.599 E7.49383
G1 X156.022 Y160.637 E7.50089
G1 X154.933 Y160.767 E7.53737
G1 X154.726 Y160.779 E7.54427
G1 X154.217 Y160.794 E7.5612
G1 X145.842 Y160.805 E7.83976
G1 X145.402 Y160.795 E7.85439
G1 X145.171 Y160.784 E7.86209
G1 X144.113 Y160.67 E7.89748
G1 X143.904 Y160.635 E7.90453
G1 X142.843 Y160.391 E7.94074
G1 X142.643 Y160.332 E7.94767
G1 X141.671 Y159.983 E7.98202
G1 X141.478 Y159.901 E7.989
G1 X140.476 Y159.4 E8.02626
G1 X140.297 Y159.296 E8.03314
G1 X139.446 Y158.735 E8.06704
G1 X139.278 Y158.61 E8.07401
G1 X138.48 Y157.942 E8.10862
G1 X138.326 Y157.797 E8.11566
G1 X137.672 Y157.112 E8.14716
G1 X137.537 Y156.955 E8.15404
G1 X136.834 Y156.02 E8.19295
G1 X136.718 Y155.843 E8.19999
G1 X136.221 Y154.986 E8.23294
G1 X136.126 Y154.799 E8.23992
G1 X135.702 Y153.826 E8.27522
G1 X135.63 Y153.63 E8.28216
G1 X135.324 Y152.617 E8.31736
G1 X135.276 Y152.416 E8.32423
G1 X135.099 Y151.437 E8.35732
G1 X135.073 Y151.228 E8.36433
G1 X135.004 Y150.203 E8.3985
G1 X135.002 Y149.994 E8.40545
G1 X135.06 Y148.886 E8.44235
G1 X135.084 Y148.676 E8.44938
G1 X135.26 Y147.658 E8.48374
G1 X135.307 Y147.456 E8.49064
G1 X135.601 Y146.458 E8.52524
G1 X135.672 Y146.26 E8.53224
G1 X136.103 Y145.256 E8.56858
G1 X136.197 Y145.069 E8.57554
G1 X136.711 Y144.178 E8.60975
G1 X136.827 Y144.001 E8.61679
G1 X137.426 Y143.19 E8.65033
G1 X137.557 Y143.032 E8.65715
G1 X138.315 Y142.223 E8.69402
G0 F6000 X138.59 Y142.515
G1 F600 X138.744 Y142.37 E8.70106
G1 X139.453 Y141.771 E8.73193
G1 X139.621 Y141.644 E8.73894
G1 X140.487 Y141.068 E8.77353
G1 X140.666 Y140.964 E8.78041
G1 X141.574 Y140.506 E8.81424
G1 X141.766 Y140.423 E8.8212
G1 X142.718 Y140.076 E8.8549
G1 X142.919 Y140.016 E8.86187
G1 X143.841 Y139.796 E8.8934
G1 X144.05 Y139.758 E8.90047
G1 X145.049 Y139.636 E8.93394
G1 X145.256 Y139.623 E8.94084
G1 X145.785 Y139.606 E8.95844
G1 X154.176 Y139.596 E9.23753
G1 X154.586 Y139.605 E9.25117
G1 X154.801 Y139.615 E9.25833
G1 X155.821 Y139.724 E9.29244
G1 X156.03 Y139.759 E9.29949
G1 X157.081 Y140.004 E9.33539
G1 X157.281 Y140.064 E9.34233
G1 X158.168 Y140.384 E9.37369
G1 X158.359 Y140.465 E9.38059
G1 X159.286 Y140.925 E9.41501
G1 X159.467 Y141.029 E9.42196
G1 X160.342 Y141.606 E9.45682
G1 X160.51 Y141.732 E9.4638
G1 X161.224 Y142.33 E9.49478
G1 X161.378 Y142.474 E9.50179
G1 X162.045 Y143.173 E9.53393
G1 X162.179 Y143.33 E9.54079
G1 X162.806 Y144.162 E9.57544
G1 X162.922 Y144.337 E9.58243
G1 X163.421 Y145.193 E9.61538
G1 X163.516 Y145.38 E9.62236
G1 X163.923 Y146.313 E9.65621
G1 X163.996 Y146.512 E9.66326
G1 X164.285 Y147.467 E9.69645
G1 X164.333 Y147.667 E9.70329
G1 X164.504 Y148.612 E9.73523
G1 X164.53 Y148.821 E9.74224
G1 X164.596 Y149.801 E9.7749
G1 X164.598 Y150.011 E9.78189
G1 X164.542 Y151.07 E9.81716
G1 X164.518 Y151.28 E9.82419
G1 X164.348 Y152.261 E9.85731
G1 X164.301 Y152.462 E9.86417
G1 X164.022 Y153.407 E9.89694
G1 X163.951 Y153.605 E9.90394
G1 X163.54 Y154.564 E9.93864
G1 X163.446 Y154.751 E9.9456
G1 X162.955 Y155.603 E9.97831
G1 X162.839 Y155.78 E9.98535
G1 X162.283 Y156.535 E10.01653
G1 X162.152 Y156.694 E10.02339
G1 X161.41 Y157.486 E10.05948
G1 X161.256 Y157.631 E10.06652
G1 X160.547 Y158.23 E10.09739
G1 X160.379 Y158.357 E10.10439
G1 X159.513 Y158.933 E10.13899
G1 X159.334 Y159.037 E10.14587
G1 X158.426 Y159.495 E10.1797
G1 X158.234 Y159.578 E10.18665
G1 X157.282 Y159.925 E10.22035
G1 X157.081 Y159.985 E10.22733
G1 X156.159 Y160.205 E10.25886
G1 X155.95 Y160.243 E10.26592
G1 X154.91 Y160.368 E10.30076
G1 X154.703 Y160.38 E10.30766
G1 X154.216 Y160.394 E10.32386
G1 X145.841 Y160.405 E10.60242
G1 X145.421 Y160.395 E10.61639
G1 X145.19 Y160.384 E10.62408
G1 X144.179 Y160.276 E10.6579
G1 X143.97 Y160.241 E10.66495
G1 X142.957 Y160.008 E10.69952
G1 X142.757 Y159.949 E10.70646
G1 X141.827 Y159.615 E10.73932
G1 X141.634 Y159.533 E10.7463
G1 X140.677 Y159.054 E10.78189
G1 X140.498 Y158.95 E10.78878
G1 X139.684 Y158.414 E10.82119
G1 X139.516 Y158.289 E10.82816
G1 X138.755 Y157.65 E10.86121
G1 X138.601 Y157.505 E10.86824
G1 X137.975 Y156.851 E10.89835
G1 X137.84 Y156.694 E10.90524
G1 X137.168 Y155.801 E10.94241
G1 X137.052 Y155.624 E10.94945
G1 X136.578 Y154.805 E10.98092
G1 X136.483 Y154.618 E10.9879
G1 X136.077 Y153.688 E11.02165
G1 X136.005 Y153.492 E11.0286
G1 X135.713 Y152.525 E11.06219
G1 X135.665 Y152.324 E11.06907
G1 X135.496 Y151.388 E11.1007
G1 X135.47 Y151.179 E11.10771
G1 X135.404 Y150.199 E11.14037
G1 X135.402 Y149.99 E11.14733
G1 X135.458 Y148.931 E11.1826
G1 X135.482 Y148.721 E11.18963
G1 X135.65 Y147.749 E11.22244
G1 X135.697 Y147.547 E11.22933
G1 X135.978 Y146.593 E11.26241
G1 X136.049 Y146.395 E11.26941
G1 X136.46 Y145.436 E11.30411
G1 X136.554 Y145.249 E11.31107
G1 X137.045 Y144.397 E11.34378
G1 X137.161 Y144.22 E11.35082
G1 X137.734 Y143.445 E11.38287
G1 X137.865 Y143.287 E11.3897
G1 X138.59 Y142.515 E11.42493
G0 F6000 X138.864 Y142.806
G1 F600 X139.018 Y142.661 E11.43196
G1 X139.694 Y142.09 E11.46139
G1 X139.862 Y141.963 E11.4684
G1 X140.688 Y141.414 E11.50138
G1 X140.867 Y141.31 E11.50827
G1 X141.732 Y140.873 E11.5405
G1 X141.924 Y140.79 E11.54746
G1 X142.833 Y140.46 E11.57962
G1 X143.034 Y140.4 E11.5866
G1 X143.912 Y140.189 E11.61663
G1 X144.121 Y140.151 E11.6237
G1 X145.074 Y140.035 E11.65563
G1 X145.281 Y140.022 E11.66253
G1 X145.785 Y140.006 E11.6793
G1 X154.176 Y139.996 E11.95839
G1 X154.567 Y140.005 E11.97139
G1 X154.782 Y140.015 E11.97855
G1 X155.755 Y140.119 E12.0111
G1 X155.964 Y140.154 E12.01815
G1 X156.966 Y140.387 E12.05236
G1 X157.166 Y140.447 E12.05931
G1 X158.011 Y140.752 E12.08919
G1 X158.202 Y140.833 E12.09609
G1 X159.086 Y141.272 E12.12892
G1 X159.267 Y141.376 E12.13586
G1 X160.102 Y141.926 E12.16912
G1 X160.27 Y142.052 E12.1761
G1 X160.951 Y142.623 E12.20566
G1 X161.105 Y142.767 E12.21267
G1 X161.741 Y143.433 E12.2433
G1 X161.875 Y143.59 E12.25017
G1 X162.473 Y144.383 E12.2832
G1 X162.589 Y144.558 E12.29018
G1 X163.065 Y145.374 E12.3216
G1 X163.16 Y145.561 E12.32858
G1 X163.547 Y146.451 E12.36086
G1 X163.62 Y146.65 E12.36791
G1 X163.896 Y147.56 E12.39954
G1 X163.944 Y147.76 E12.40638
G1 X164.107 Y148.662 E12.43686
G1 X164.133 Y148.871 E12.44387
G1 X164.196 Y149.805 E12.475
G1 X164.198 Y150.015 E12.48199
G1 X164.145 Y151.024 E12.51559
G1 X164.121 Y151.234 E12.52262
G1 X163.959 Y152.17 E12.55422
G1 X163.912 Y152.371 E12.56108
G1 X163.646 Y153.272 E12.59233
