;FLAVOR:Marlin
;TIME:3711
;Filament used: 2.00132m
;Layer height: 0.2
;MINX:136.268
;MINY:101.923
;MINZ:0.2
;MAXX:163.857
;MAXY:198.2
;MAXZ:25.3
;Generated with Cura_SteamEngine 4.4.1
M140 S55
M105
M190 S55
M104 S210
M105
M109 S210
M82 ;absolute extrusion mode
M201 X500.00 Y500.00 Z100.00 E5000.00 ;Setup machine max acceleration
M203 X500.00 Y500.00 Z10.00 E50.00 ;Setup machine max feedrate
M204 P500.00 R1000.00 T500.00 ;Setup Print/Retract/Travel acceleration
M205 X8.00 Y8.00 Z0.40 E5.00 ;Setup Jerk
M220 S100 ;Reset Feedrate
M221 S100 ;Reset Flowrate

G28 ;Home

G92 E0 ;Reset Extruder
G1 Z2.0 F3000 ;Move Z Axis up
G1 X10.1 Y20 Z0.28 F5000.0 ;Move to start position
G1 X10.1 Y200.0 Z0.28 F1500.0 E15 ;Draw the first line
G1 X10.4 Y200.0 Z0.28 F5000.0 ;Move to side a little
G1 X10.4 Y20 Z0.28 F1500.0 E30 ;Draw the second line
G92 E0 ;Reset Extruder
G1 Z2.0 F3000 ;Move Z Axis up

G92 E0
G92 E0
G1 F1800 E-6.5
;LAYER_COUNT:124
;LAYER:0
M107
G1 F300 Z0.7
G0 F6000 X139.926 Y107.083 Z0.7
;TYPE:SKIRT
G1 F300 Z0.2
G1 F1800 E0
G1 F600 X140.086 Y106.882 E0.00854
G1 X140.333 Y106.583 E0.02144
G1 X140.484 Y106.408 E0.02913
G1 X140.895 Y105.961 E0.04933
G1 X141.066 Y105.786 E0.05747
G1 X141.358 Y105.499 E0.07108
G1 X141.528 Y105.339 E0.07885
G1 X142.025 Y104.902 E0.10086
G1 X142.193 Y104.764 E0.10809
G1 X142.695 Y104.378 E0.12915
G1 X142.869 Y104.253 E0.13628
G1 X143.427 Y103.88 E0.1586
G1 X143.624 Y103.758 E0.16631
G1 X144.401 Y103.325 E0.19589
G1 X144.759 Y103.146 E0.20921
G1 X145.785 Y102.704 E0.24636
G1 X145.977 Y102.634 E0.25316
G1 X146.642 Y102.418 E0.27642
G1 X146.845 Y102.36 E0.28344
G1 X148.016 Y102.102 E0.32332
G1 X148.398 Y102.042 E0.33618
G1 X149.278 Y101.944 E0.36563
G1 X149.919 Y101.923 E0.38696
G1 X150.302 Y101.923 E0.3997
G1 X151.506 Y101.997 E0.43982
G1 X151.708 Y102.022 E0.44659
G1 X152.804 Y102.222 E0.48365
G1 X153.185 Y102.314 E0.49668
G1 X154.036 Y102.56 E0.52615
G1 X154.597 Y102.77 E0.54607
G1 X154.966 Y102.921 E0.55933
G1 X155.947 Y103.388 E0.59547
G1 X156.134 Y103.49 E0.60255
G1 X156.655 Y103.795 E0.62263
G1 X156.846 Y103.915 E0.63013
G1 X157.371 Y104.27 E0.65121
G1 X157.544 Y104.395 E0.65831
G1 X158.066 Y104.799 E0.68027
G1 X158.243 Y104.946 E0.68792
G1 X158.66 Y105.312 E0.70637
G1 X158.834 Y105.474 E0.71428
G1 X159.219 Y105.854 E0.73227
G1 X159.37 Y106.011 E0.73952
G1 X159.7 Y106.37 E0.75574
G1 X159.861 Y106.555 E0.76389
G1 X160.21 Y106.981 E0.78221
G1 X160.359 Y107.173 E0.79029
G1 X160.63 Y107.538 E0.80541
G1 X160.78 Y107.751 E0.81408
G1 X161.012 Y108.096 E0.82791
G1 X161.154 Y108.317 E0.83664
G1 X161.399 Y108.721 E0.85236
G1 X161.531 Y108.95 E0.86115
G1 X161.711 Y109.275 E0.87351
G1 X161.838 Y109.516 E0.88257
G1 X162.011 Y109.861 E0.8954
G1 X162.129 Y110.108 E0.90451
G1 X162.317 Y110.527 E0.91978
G1 X162.424 Y110.781 E0.92895
G1 X162.534 Y111.053 E0.93871
G1 X162.643 Y111.335 E0.94876
G1 X162.752 Y111.631 E0.95925
G1 X162.843 Y111.891 E0.96842
G1 X162.967 Y112.271 E0.98171
G1 X163.056 Y112.563 E0.99186
G1 X163.126 Y112.804 E1.00021
G1 X163.208 Y113.1 E1.01043
G1 X163.32 Y113.541 E1.02556
G1 X163.386 Y113.831 E1.03545
G1 X163.429 Y114.032 E1.04229
G1 X163.494 Y114.348 E1.05302
G1 X163.568 Y114.749 E1.06658
G1 X163.615 Y115.038 E1.07632
G1 X163.658 Y115.328 E1.08607
G1 X163.7 Y115.646 E1.09674
G1 X163.733 Y115.935 E1.10641
G1 X163.764 Y116.239 E1.11658
G1 X163.784 Y116.449 E1.12359
G1 X163.81 Y116.773 E1.1344
G1 X163.833 Y117.161 E1.14733
G1 X163.845 Y117.458 E1.15722
G1 X163.853 Y117.778 E1.16786
G1 X163.857 Y118.291 E1.18493
G1 X163.857 Y118.399 E1.18852
G1 X163.781 Y141.387 E1.95311
G1 X163.774 Y141.726 E1.96439
G1 X163.758 Y142.148 E1.97843
G1 X163.75 Y142.322 E1.98422
G1 X163.728 Y142.717 E1.99738
G1 X163.698 Y143.11 E2.01049
G1 X163.622 Y143.9 E2.03689
G1 X163.57 Y144.335 E2.05146
G1 X163.512 Y144.745 E2.06523
G1 X163.491 Y144.89 E2.07011
G1 X163.433 Y145.26 E2.08256
G1 X163.39 Y145.51 E2.091
G1 X163.317 Y145.908 E2.10446
G1 X163.263 Y146.182 E2.11375
G1 X163.188 Y146.534 E2.12572
G1 X163.131 Y146.786 E2.13431
G1 X163.04 Y147.164 E2.14724
G1 X162.974 Y147.423 E2.15613
G1 X162.882 Y147.764 E2.16788
G1 X162.799 Y148.054 E2.17791
G1 X162.692 Y148.407 E2.19018
G1 X162.592 Y148.718 E2.20105
G1 X162.537 Y148.879 E2.2067
G1 X162.4 Y156.274 E2.4527
G1 X162.403 Y156.537 E2.46145
G1 X162.404 Y156.754 E2.46867
G1 X162.391 Y158.045 E2.51161
G1 X162.394 Y158.245 E2.51826
G1 X162.395 Y158.421 E2.52412
G1 X162.391 Y159.737 E2.56789
G1 X162.544 Y160.227 E2.58496
G1 X162.73 Y161.092 E2.61439
G1 X162.837 Y161.971 E2.64384
G1 X162.863 Y162.935 E2.67592
G1 X162.318 Y187.298 E3.48643
G1 X162.258 Y188.181 E3.51587
G1 X162.119 Y189.056 E3.54534
G1 X161.901 Y189.914 E3.57478
G1 X161.607 Y190.749 E3.60423
G1 X161.105 Y191.806 E3.64315
G1 X160.931 Y192.122 E3.65514
G1 X160.449 Y192.906 E3.68575
G1 X160.247 Y193.203 E3.6977
G1 X159.717 Y193.912 E3.72714
G1 X159.125 Y194.57 E3.75658
G1 X158.476 Y195.172 E3.78602
G1 X157.775 Y195.713 E3.81547
G1 X157.028 Y196.188 E3.84492
G1 X156.637 Y196.399 E3.85969
G1 X156.541 Y196.463 E3.86353
G1 X155.764 Y196.887 E3.89297
G1 X154.952 Y197.24 E3.92242
G1 X154.111 Y197.518 E3.95188
G1 X153.408 Y197.681 E3.97588
G1 X153.101 Y197.776 E3.98657
G1 X152.8 Y197.857 E3.99694
G1 X151.935 Y198.049 E4.02641
G1 X151.057 Y198.161 E4.05585
G1 X150.331 Y198.194 E4.08002
G1 X149.577 Y198.2 E4.1051
G1 X148.692 Y198.167 E4.13456
G1 X147.814 Y198.054 E4.164
G1 X146.7 Y197.792 E4.20206
G1 X146.294 Y197.671 E4.21615
G1 X146.189 Y197.635 E4.21984
G1 X146.027 Y197.603 E4.22534
G1 X145.177 Y197.356 E4.25478
G1 X144.353 Y197.034 E4.2842
G1 X143.561 Y196.638 E4.31365
G1 X143.368 Y196.521 E4.32116
G1 X143.296 Y196.485 E4.32384
G1 X142.521 Y196.057 E4.35328
G1 X141.788 Y195.561 E4.38272
G1 X141.103 Y195 E4.41217
G1 X140.471 Y194.38 E4.44162
G1 X139.897 Y193.706 E4.47106
G1 X139.439 Y193.063 E4.49732
G1 X139.254 Y192.78 E4.50856
G1 X139.103 Y192.542 E4.51794
G1 X138.919 Y192.242 E4.52964
G1 X138.491 Y191.467 E4.55909
G1 X138.134 Y190.657 E4.58853
G1 X137.852 Y189.818 E4.61797
G1 X137.647 Y188.957 E4.64741
G1 X137.52 Y188.081 E4.67685
G1 X137.474 Y187.003 E4.71273
G1 X137.496 Y185.139 E4.77474
G1 X137.491 Y183.844 E4.81781
G1 X137.492 Y183.65 E4.82426
G1 X137.51 Y182.524 E4.86172
G1 X137.507 Y182.247 E4.87093
G1 X137.507 Y182.023 E4.87838
G1 X137.516 Y181.263 E4.90366
G1 X137.513 Y181.174 E4.90662
G1 X137.524 Y180.379 E4.93307
G1 X137.111 Y168.896 E5.31524
G1 X137.12 Y168.011 E5.34468
G1 X137.208 Y167.13 E5.37412
G1 X137.375 Y166.261 E5.40356
G1 X137.562 Y165.61 E5.42608
G1 X137.365 Y148.47 E5.9962
G1 X137.294 Y148.241 E6.00417
G1 X137.094 Y147.537 E6.02852
G1 X136.952 Y146.972 E6.04789
G1 X136.791 Y146.243 E6.07272
G1 X136.707 Y145.821 E6.08703
G1 X136.642 Y145.45 E6.09956
G1 X136.613 Y145.273 E6.10553
G1 X136.55 Y144.87 E6.11909
G1 X136.512 Y144.607 E6.12793
G1 X136.464 Y144.234 E6.14044
G1 X136.44 Y144.029 E6.14731
G1 X136.395 Y143.61 E6.16132
G1 X136.367 Y143.304 E6.17154
G1 X136.338 Y142.921 E6.18432
G1 X136.329 Y142.785 E6.18885
G1 X136.303 Y142.364 E6.20288
G1 X136.289 Y142.087 E6.2121
G1 X136.275 Y141.668 E6.22605
G1 X136.27 Y141.372 E6.23589
G1 X136.268 Y140.746 E6.25671
G1 X136.268 Y140.683 E6.25881
G1 X136.342 Y117.836 E7.01871
G1 X136.352 Y117.416 E7.03268
G1 X136.366 Y117.113 E7.04277
G1 X136.384 Y116.82 E7.05253
G1 X136.409 Y116.492 E7.06347
G1 X136.456 Y116.027 E7.07902
G1 X136.533 Y115.408 E7.09977
G1 X136.607 Y114.915 E7.11635
G1 X136.664 Y114.592 E7.12726
G1 X136.709 Y114.354 E7.13531
G1 X136.767 Y114.067 E7.14505
G1 X136.843 Y113.724 E7.15674
G1 X136.918 Y113.411 E7.16744
G1 X136.983 Y113.155 E7.17623
G1 X137.056 Y112.883 E7.18559
G1 X137.168 Y112.496 E7.19899
G1 X137.26 Y112.202 E7.20924
G1 X137.357 Y111.908 E7.21954
G1 X137.452 Y111.635 E7.22915
G1 X137.572 Y111.311 E7.24064
G1 X137.676 Y111.043 E7.2502
G1 X137.823 Y110.684 E7.26311
G1 X137.932 Y110.433 E7.27221
G1 X138.081 Y110.106 E7.28416
G1 X138.204 Y109.849 E7.29364
G1 X138.385 Y109.491 E7.30698
G1 X138.509 Y109.257 E7.31579
G1 X138.686 Y108.937 E7.32795
G1 X138.822 Y108.702 E7.33698
G1 X139.134 Y108.199 E7.35667
G1 X139.287 Y107.968 E7.36588
G1 X139.432 Y107.755 E7.37445
G1 X139.568 Y107.561 E7.38233
G1 X139.926 Y107.083 E7.40219
G0 F6000 X140.239 Y107.332
G1 F600 X140.399 Y107.131 E7.41074
G1 X140.636 Y106.844 E7.42312
G1 X140.787 Y106.669 E7.43081
G1 X141.181 Y106.24 E7.45018
G1 X141.352 Y106.065 E7.45832
G1 X141.633 Y105.79 E7.4714
G1 X141.803 Y105.63 E7.47916
G1 X142.278 Y105.211 E7.50023
G1 X142.446 Y105.073 E7.50746
G1 X142.929 Y104.703 E7.52769
G1 X143.103 Y104.578 E7.53482
G1 X143.638 Y104.22 E7.55623
G1 X143.835 Y104.098 E7.56394
G1 X144.58 Y103.682 E7.59232
G1 X144.938 Y103.503 E7.60563
G1 X145.922 Y103.08 E7.64125
G1 X146.114 Y103.01 E7.64805
G1 X146.752 Y102.803 E7.67036
G1 X146.955 Y102.745 E7.67738
G1 X148.078 Y102.497 E7.71563
G1 X148.46 Y102.437 E7.72849
G1 X149.322 Y102.342 E7.75734
G1 X149.919 Y102.323 E7.7772
G1 X150.302 Y102.323 E7.78994
G1 X151.457 Y102.394 E7.82843
G1 X151.659 Y102.419 E7.8352
G1 X152.71 Y102.611 E7.87074
G1 X153.091 Y102.703 E7.88377
G1 X153.924 Y102.945 E7.91262
G1 X154.445 Y103.14 E7.93113
G1 X154.814 Y103.291 E7.94439
G1 X155.755 Y103.739 E7.97905
G1 X155.942 Y103.841 E7.98614
G1 X156.442 Y104.134 E8.00541
G1 X156.633 Y104.254 E8.01291
G1 X157.137 Y104.594 E8.03313
G1 X157.31 Y104.719 E8.04023
G1 X157.811 Y105.107 E8.06131
G1 X157.988 Y105.254 E8.06896
G1 X158.387 Y105.605 E8.08664
G1 X158.561 Y105.767 E8.09454
G1 X158.931 Y106.131 E8.11181
G1 X159.082 Y106.288 E8.11905
G1 X159.398 Y106.633 E8.13461
G1 X159.559 Y106.818 E8.14277
G1 X159.894 Y107.226 E8.16033
G1 X160.043 Y107.418 E8.16841
G1 X160.302 Y107.769 E8.18292
G1 X160.452 Y107.982 E8.19158
G1 X160.675 Y108.313 E8.20486
G1 X160.817 Y108.534 E8.2136
G1 X161.053 Y108.921 E8.22867
G1 X161.185 Y109.15 E8.23746
G1 X161.357 Y109.462 E8.24931
G1 X161.484 Y109.703 E8.25837
G1 X161.65 Y110.033 E8.27066
G1 X161.768 Y110.28 E8.27976
G1 X161.949 Y110.683 E8.29446
G1 X162.056 Y110.937 E8.30363
G1 X162.161 Y111.197 E8.31295
G1 X162.27 Y111.479 E8.32301
G1 X162.374 Y111.763 E8.33307
G1 X162.465 Y112.023 E8.34223
G1 X162.585 Y112.387 E8.35498
G1 X162.674 Y112.679 E8.36513
G1 X162.741 Y112.91 E8.37313
G1 X162.823 Y113.206 E8.38334
G1 X162.93 Y113.63 E8.39789
G1 X162.996 Y113.92 E8.40778
G1 X163.037 Y114.112 E8.41431
G1 X163.102 Y114.428 E8.42504
G1 X163.173 Y114.813 E8.43806
G1 X163.22 Y115.102 E8.4478
G1 X163.261 Y115.38 E8.45715
G1 X163.303 Y115.698 E8.46782
G1 X163.336 Y115.975 E8.47709
G1 X163.367 Y116.279 E8.48726
G1 X163.385 Y116.481 E8.494
G1 X163.411 Y116.805 E8.50481
G1 X163.433 Y117.178 E8.51724
G1 X163.445 Y117.475 E8.52713
G1 X163.453 Y117.781 E8.53731
G1 X163.457 Y118.294 E8.55437
G1 X163.457 Y118.398 E8.55783
G1 X163.381 Y141.386 E9.32242
G1 X163.374 Y141.711 E9.33323
G1 X163.358 Y142.133 E9.34728
G1 X163.35 Y142.3 E9.35284
G1 X163.328 Y142.695 E9.366
G1 X163.3 Y143.072 E9.37857
G1 X163.224 Y143.862 E9.40497
G1 X163.174 Y144.279 E9.41893
G1 X163.116 Y144.689 E9.43271
G1 X163.096 Y144.828 E9.43738
G1 X163.038 Y145.198 E9.44983
G1 X162.997 Y145.438 E9.45793
G1 X162.924 Y145.836 E9.47139
G1 X162.872 Y146.099 E9.48031
G1 X162.797 Y146.451 E9.49228
G1 X162.742 Y146.692 E9.5005
G1 X162.651 Y147.07 E9.51343
G1 X162.588 Y147.319 E9.52197
G1 X162.496 Y147.66 E9.53372
G1 X162.416 Y147.938 E9.54334
G1 X162.309 Y148.291 E9.55561
G1 X162.213 Y148.589 E9.56602
G1 X162.138 Y148.808 E9.57372
G1 X162 Y156.271 E9.82199
G1 X162.003 Y156.542 E9.831
G1 X162.004 Y156.75 E9.83792
G1 X161.991 Y158.047 E9.88106
G1 X161.994 Y158.251 E9.88784
G1 X161.995 Y158.42 E9.89347
G1 X161.991 Y159.787 E9.93893
G1 X162.192 Y160.467 E9.96252
G1 X162.36 Y161.318 E9.99137
G1 X162.45 Y162.18 E10.02019
G1 X162.463 Y162.926 E10.04501
G1 X161.918 Y187.289 E10.85553
G1 X161.858 Y188.154 E10.88437
G1 X161.72 Y189.01 E10.91321
G1 X161.503 Y189.849 E10.94203
G1 X161.209 Y190.665 E10.97088
G1 X160.754 Y191.613 E11.00585
G1 X160.58 Y191.929 E11.01785
G1 X160.119 Y192.681 E11.04719
G1 X159.917 Y192.978 E11.05913
G1 X159.397 Y193.672 E11.08798
G1 X158.815 Y194.315 E11.11682
G1 X158.176 Y194.901 E11.14566
G1 X157.486 Y195.426 E11.1745
G1 X156.457 Y196.037 E11.2143
G1 X156.318 Y196.13 E11.21986
G1 X155.556 Y196.544 E11.24871
G1 X154.759 Y196.885 E11.27754
G1 X153.934 Y197.152 E11.30638
G1 X153.332 Y197.286 E11.32689
G1 X152.997 Y197.39 E11.33856
G1 X152.696 Y197.471 E11.34893
G1 X151.849 Y197.658 E11.37778
G1 X150.989 Y197.765 E11.4066
G1 X150.328 Y197.794 E11.42861
G1 X149.574 Y197.8 E11.45369
G1 X148.707 Y197.767 E11.48254
G1 X147.848 Y197.654 E11.51136
G1 X146.814 Y197.408 E11.54671
G1 X146.408 Y197.287 E11.5608
G1 X146.29 Y197.246 E11.56496
G1 X146.069 Y197.202 E11.57245
G1 X145.238 Y196.954 E11.60129
G1 X144.434 Y196.632 E11.6301
G1 X143.662 Y196.236 E11.65896
G1 X143.523 Y196.15 E11.6644
G1 X143.474 Y196.126 E11.66621
G1 X142.715 Y195.706 E11.69506
G1 X141.998 Y195.218 E11.72391
G1 X141.33 Y194.666 E11.75273
G1 X140.715 Y194.055 E11.78156
G1 X140.159 Y193.39 E11.81039
G1 X139.774 Y192.844 E11.83262
G1 X139.589 Y192.561 E11.84386
G1 X139.444 Y192.333 E11.85285
G1 X139.26 Y192.033 E11.86455
G1 X138.841 Y191.273 E11.89342
G1 X138.494 Y190.479 E11.92224
G1 X138.222 Y189.656 E11.95107
G1 X138.027 Y188.811 E11.97991
G1 X137.91 Y187.952 E12.00875
G1 X137.874 Y187.008 E12.04017
G1 X137.896 Y185.143 E12.1022
G1 X137.891 Y183.843 E12.14544
G1 X137.892 Y183.656 E12.15166
G1 X137.91 Y182.525 E12.18928
G1 X137.907 Y182.242 E12.19869
G1 X137.907 Y182.028 E12.20581
G1 X137.916 Y181.256 E12.23149
G1 X137.913 Y181.162 E12.23462
G1 X137.924 Y180.364 E12.26116
G1 X137.511 Y168.881 E12.64333
G1 X137.52 Y168.015 E12.67214
G1 X137.609 Y167.152 E12.701
G1 X137.776 Y166.302 E12.72981
G1 X137.963 Y165.669 E12.75176
G1 X137.765 Y148.442 E13.32477
G1 X137.766 Y148.412 E13.32577
G1 X137.679 Y148.132 E13.33552
G1 X137.479 Y147.428 E13.35986
G1 X137.342 Y146.886 E13.37846
G1 X137.181 Y146.157 E13.40329
G1 X137.101 Y145.752 E13.41702
G1 X137.036 Y145.381 E13.42955
G1 X137.008 Y145.211 E13.43528
G1 X136.945 Y144.808 E13.44884
G1 X136.909 Y144.556 E13.45731
G1 X136.861 Y144.183 E13.46982
G1 X136.838 Y143.987 E13.47638
G1 X136.793 Y143.568 E13.4904
G1 X136.766 Y143.274 E13.50022
G1 X136.737 Y142.891 E13.51299
G1 X136.728 Y142.76 E13.51736
G1 X136.702 Y142.339 E13.53139
G1 X136.689 Y142.074 E13.54021
G1 X136.675 Y141.655 E13.55416
G1 X136.67 Y141.371 E13.5636
G1 X136.668 Y140.745 E13.58443
G1 X136.668 Y140.685 E13.58642
G1 X136.742 Y117.838 E14.34632
G1 X136.752 Y117.434 E14.35976
G1 X136.766 Y117.131 E14.36985
G1 X136.783 Y116.851 E14.37918
G1 X136.808 Y116.523 E14.39012
G1 X136.853 Y116.077 E14.40503
G1 X136.93 Y115.458 E14.42578
G1 X137.001 Y114.984 E14.44172
G1 X137.058 Y114.661 E14.45263
G1 X137.101 Y114.433 E14.46034
G1 X137.159 Y114.146 E14.47008
G1 X137.232 Y113.818 E14.48126
G1 X137.307 Y113.505 E14.49196
G1 X137.369 Y113.258 E14.50043
G1 X137.442 Y112.986 E14.5098
G1 X137.55 Y112.616 E14.52262
G1 X137.642 Y112.322 E14.53287
G1 X137.735 Y112.04 E14.54274
G1 X137.83 Y111.767 E14.55236
G1 X137.945 Y111.455 E14.56342
G1 X138.049 Y111.187 E14.57298
G1 X138.19 Y110.844 E14.58531
G1 X138.299 Y110.593 E14.59441
G1 X138.442 Y110.279 E14.60589
G1 X138.565 Y110.022 E14.61537
G1 X138.738 Y109.679 E14.62814
G1 X138.862 Y109.445 E14.63695
G1 X139.032 Y109.138 E14.64862
G1 X139.168 Y108.903 E14.65765
G1 X139.467 Y108.42 E14.67655
G1 X139.62 Y108.189 E14.68576
G1 X139.76 Y107.984 E14.69402
G1 X139.896 Y107.79 E14.7019
G1 X140.239 Y107.332 E14.72093
G0 F6000 X140.552 Y107.581
G1 F600 X140.712 Y107.38 E14.72948
G1 X140.939 Y107.105 E14.74134
G1 X141.09 Y106.93 E14.74902
G1 X141.467 Y106.52 E14.76755
G1 X141.638 Y106.345 E14.77569
G1 X141.907 Y106.081 E14.78822
G1 X142.077 Y105.921 E14.79599
G1 X142.532 Y105.52 E14.81616
G1 X142.7 Y105.382 E14.82339
G1 X143.162 Y105.028 E14.84275
G1 X143.336 Y104.903 E14.84987
G1 X143.848 Y104.56 E14.87037
G1 X144.045 Y104.438 E14.87808
G1 X144.759 Y104.04 E14.90527
G1 X145.117 Y103.861 E14.91858
G1 X146.059 Y103.455 E14.9527
G1 X146.251 Y103.385 E14.95949
