;FLAVOR:Marlin
;TIME:915
;Filament used: 0.321086m
;Layer height: 0.2
;MINX:133.025
;MINY:133.026
;MINZ:0.2
;MAXX:167.014
;MAXY:166.974
;MAXZ:11.6
;Generated with Cura_SteamEngine 4.4.1
M140 S55
M105
M190 S55
M104 S210
M105
M109 S210
M82 ;absolute extrusion mode
M201 X500.00 Y500.00 Z100.00 E5000.00 ;Setup machine max acceleration
M203 X500.00 Y500.00 Z10.00 E50.00 ;Setup machine max feedrate
M204 P500.00 R1000.00 T500.00 ;Setup Print/Retract/Travel acceleration
M205 X8.00 Y8.00 Z0.40 E5.00 ;Setup Jerk
M220 S100 ;Reset Feedrate
M221 S100 ;Reset Flowrate

G28 ;Home

G92 E0 ;Reset Extruder
G1 Z2.0 F3000 ;Move Z Axis up
G1 X10.1 Y20 Z0.28 F5000.0 ;Move to start position
G1 X10.1 Y200.0 Z0.28 F1500.0 E15 ;Draw the first line
G1 X10.4 Y200.0 Z0.28 F5000.0 ;Move to side a little
G1 X10.4 Y20 Z0.28 F1500.0 E30 ;Draw the second line
G92 E0 ;Reset Extruder
G1 Z2.0 F3000 ;Move Z Axis up

G92 E0
G92 E0
G1 F1800 E-6.5
;LAYER_COUNT:73
;LAYER:0
M107
G1 F300 Z0.7
G0 F6000 X137.808 Y138.192 Z0.7
;TYPE:SKIRT
G1 F300 Z0.2
G1 F1800 E0
G1 F600 X138.197 Y137.803 E0.0183
G1 X138.438 Y137.575 E0.02933
G1 X138.812 Y137.239 E0.04605
G1 X139.214 Y136.896 E0.06363
G1 X139.746 Y136.473 E0.08624
G1 X140.115 Y136.2 E0.1015
G1 X140.761 Y135.761 E0.12748
G1 X141.236 Y135.465 E0.1461
G1 X141.863 Y135.106 E0.17013
G1 X142.221 Y134.918 E0.18358
G1 X142.577 Y134.74 E0.19681
G1 X143.026 Y134.527 E0.21334
G1 X143.688 Y134.242 E0.23731
G1 X144.029 Y134.11 E0.24948
G1 X144.589 Y133.912 E0.26923
G1 X145.075 Y133.757 E0.2862
G1 X145.626 Y133.599 E0.30526
G1 X146.029 Y133.496 E0.3191
G1 X146.642 Y133.36 E0.33998
G1 X147.088 Y133.276 E0.35508
G1 X147.551 Y133.201 E0.37068
G1 X147.982 Y133.141 E0.38515
G1 X148.768 Y133.063 E0.41142
G1 X149.097 Y133.044 E0.42238
G1 X149.61 Y133.028 E0.43945
G1 X149.986 Y133.026 E0.45196
G1 X150.628 Y133.044 E0.47332
G1 X151.407 Y133.091 E0.49928
G1 X151.873 Y133.13 E0.51483
G1 X152.076 Y133.152 E0.52162
G1 X152.759 Y133.25 E0.54457
G1 X153.175 Y133.325 E0.55863
G1 X153.606 Y133.413 E0.57326
G1 X154.064 Y133.517 E0.58888
G1 X154.881 Y133.74 E0.61705
G1 X155.331 Y133.884 E0.63276
G1 X155.842 Y134.063 E0.65077
G1 X156.355 Y134.259 E0.66904
G1 X157.274 Y134.666 E0.70247
G1 X158.088 Y135.077 E0.7328
G1 X159.019 Y135.613 E0.76853
G1 X159.343 Y135.824 E0.78139
G1 X159.697 Y136.065 E0.79563
G1 X160.115 Y136.364 E0.81272
G1 X160.706 Y136.822 E0.83759
G1 X161.014 Y137.08 E0.85096
G1 X161.452 Y137.471 E0.87048
G1 X161.78 Y137.781 E0.88549
G1 X162.093 Y138.089 E0.9001
G1 X162.271 Y138.273 E0.90862
G1 X162.664 Y138.705 E0.92804
G1 X163.13 Y139.248 E0.95184
G1 X163.604 Y139.846 E0.97722
G1 X163.865 Y140.203 E0.99193
G1 X164.321 Y140.884 E1.01919
G1 X164.64 Y141.407 E1.03956
G1 X165.015 Y142.08 E1.06519
G1 X165.241 Y142.526 E1.08182
G1 X165.457 Y142.981 E1.09857
G1 X165.674 Y143.47 E1.11636
G1 X165.927 Y144.098 E1.13888
G1 X166.205 Y144.863 E1.16595
G1 X166.469 Y145.708 E1.1954
G1 X166.695 Y146.819 E1.23311
G1 X166.821 Y147.698 E1.26264
G1 X166.889 Y148.308 E1.28305
G1 X166.984 Y149.496 E1.32269
G1 X167.014 Y150.381 E1.35215
G1 X166.965 Y151.264 E1.38156
G1 X166.906 Y151.736 E1.39738
G1 X166.774 Y152.613 E1.42688
G1 X166.717 Y152.948 E1.43818
G1 X166.663 Y153.238 E1.44799
G1 X166.593 Y153.58 E1.4596
G1 X166.503 Y153.983 E1.47334
G1 X166.299 Y154.752 E1.4998
G1 X166.164 Y155.187 E1.51495
G1 X166.046 Y155.542 E1.52739
G1 X165.943 Y155.834 E1.53769
G1 X165.695 Y156.466 E1.56027
G1 X165.46 Y157.009 E1.57995
G1 X165.137 Y157.684 E1.60484
G1 X164.91 Y158.115 E1.62104
G1 X164.634 Y158.604 E1.63971
G1 X164.422 Y158.956 E1.65338
G1 X164.002 Y159.596 E1.67884
G1 X163.687 Y160.037 E1.69687
G1 X163.471 Y160.328 E1.70892
G1 X163.248 Y160.617 E1.72106
G1 X162.647 Y161.323 E1.7519
G1 X162.258 Y161.739 E1.77084
G1 X161.841 Y162.16 E1.79055
G1 X161.574 Y162.413 E1.80279
G1 X161.531 Y162.453 E1.80474
G1 X161.374 Y162.6 E1.81189
G1 X160.835 Y163.069 E1.83566
G1 X160.481 Y163.355 E1.85079
G1 X159.897 Y163.792 E1.87505
G1 X159.443 Y164.106 E1.89341
G1 X158.913 Y164.448 E1.91439
G1 X158.48 Y164.708 E1.93119
G1 X157.691 Y165.134 E1.96101
G1 X157.187 Y165.377 E1.97962
G1 X156.623 Y165.627 E2.00014
G1 X156.173 Y165.81 E2.0163
G1 X155.498 Y166.056 E2.04019
G1 X154.846 Y166.267 E2.06299
G1 X154.143 Y166.466 E2.08729
G1 X153.785 Y166.553 E2.09954
G1 X152.967 Y166.715 E2.12728
G1 X152.475 Y166.791 E2.14384
G1 X152.17 Y166.833 E2.15408
G1 X151.827 Y166.875 E2.16557
G1 X151.126 Y166.936 E2.18897
G1 X150.607 Y166.962 E2.20626
G1 X150.051 Y166.974 E2.22475
G1 X149.605 Y166.971 E2.23959
G1 X149.105 Y166.955 E2.25623
G1 X148.863 Y166.941 E2.26429
G1 X148.233 Y166.884 E2.28533
G1 X147.745 Y166.824 E2.30168
G1 X147.019 Y166.707 E2.32614
G1 X146.429 Y166.589 E2.34615
G1 X145.98 Y166.488 E2.36146
G1 X145.595 Y166.392 E2.37466
G1 X144.802 Y166.158 E2.40215
G1 X144.462 Y166.042 E2.4141
G1 X144.215 Y165.954 E2.42282
G1 X143.776 Y165.791 E2.4384
G1 X142.925 Y165.429 E2.46916
G1 X142.484 Y165.216 E2.48545
G1 X142.163 Y165.053 E2.49742
G1 X141.802 Y164.862 E2.51101
G1 X141.219 Y164.528 E2.53335
G1 X140.816 Y164.278 E2.54913
G1 X140.162 Y163.835 E2.5754
G1 X139.803 Y163.57 E2.59024
G1 X139.484 Y163.324 E2.60364
G1 X139.153 Y163.058 E2.61776
G1 X138.585 Y162.564 E2.6428
G1 X138.291 Y162.288 E2.65621
G1 X137.92 Y161.921 E2.67357
G1 X137.627 Y161.615 E2.68766
G1 X137.307 Y161.264 E2.70346
G1 X136.996 Y160.906 E2.71923
G1 X136.677 Y160.52 E2.73588
G1 X136.468 Y160.253 E2.74716
G1 X135.921 Y159.479 E2.77869
G1 X135.522 Y158.853 E2.80338
G1 X135.221 Y158.349 E2.8229
G1 X135.008 Y157.966 E2.83748
G1 X134.66 Y157.278 E2.86312
G1 X134.505 Y156.939 E2.87552
G1 X134.29 Y156.43 E2.8939
G1 X134.131 Y156.023 E2.90843
G1 X133.945 Y155.504 E2.92677
G1 X133.788 Y155.024 E2.94356
G1 X133.616 Y154.438 E2.96388
G1 X133.513 Y154.041 E2.97752
G1 X133.35 Y153.291 E3.00305
G1 X133.275 Y152.868 E3.01733
G1 X133.194 Y152.322 E3.03569
G1 X133.103 Y151.562 E3.06115
G1 X133.037 Y150.681 E3.09054
G1 X133.029 Y150.405 E3.09972
G1 X133.025 Y150.121 E3.10917
G1 X133.025 Y149.875 E3.11735
G1 X133.035 Y149.431 E3.13212
G1 X133.058 Y148.924 E3.149
G1 X133.136 Y148.054 E3.17805
G1 X133.197 Y147.603 E3.19319
G1 X133.261 Y147.198 E3.20683
G1 X133.323 Y146.85 E3.21858
G1 X133.427 Y146.342 E3.23583
G1 X133.539 Y145.862 E3.25222
G1 X133.724 Y145.183 E3.27563
G1 X133.851 Y144.774 E3.28987
G1 X134.058 Y144.174 E3.31098
G1 X134.23 Y143.725 E3.32698
G1 X134.406 Y143.297 E3.34237
G1 X134.555 Y142.957 E3.35472
G1 X134.784 Y142.472 E3.37255
G1 X134.928 Y142.187 E3.38317
G1 X135.215 Y141.66 E3.40313
G1 X135.329 Y141.465 E3.41065
G1 X135.48 Y141.214 E3.42039
G1 X135.799 Y140.704 E3.4404
G1 X136.197 Y140.116 E3.46401
G1 X136.363 Y139.889 E3.47337
G1 X136.66 Y139.504 E3.48954
G1 X136.976 Y139.114 E3.50623
G1 X137.466 Y138.554 E3.53098
G1 X137.808 Y138.192 E3.54755
G0 F6000 X138.099 Y138.467
G1 F600 X138.472 Y138.094 E3.56509
G1 X138.713 Y137.866 E3.57612
G1 X139.072 Y137.543 E3.59219
G1 X139.474 Y137.2 E3.60976
G1 X139.984 Y136.794 E3.63144
G1 X140.353 Y136.521 E3.64671
G1 X140.973 Y136.1 E3.67164
G1 X141.448 Y135.804 E3.69025
G1 X142.049 Y135.46 E3.71328
G1 X142.407 Y135.272 E3.72673
G1 X142.748 Y135.101 E3.73942
G1 X143.197 Y134.888 E3.75595
G1 X143.833 Y134.615 E3.77897
G1 X144.174 Y134.483 E3.79113
G1 X144.711 Y134.293 E3.81008
G1 X145.197 Y134.138 E3.82704
G1 X145.725 Y133.987 E3.84531
G1 X146.128 Y133.884 E3.85914
G1 X146.716 Y133.753 E3.87918
G1 X147.162 Y133.669 E3.89428
G1 X147.606 Y133.597 E3.90924
G1 X148.037 Y133.537 E3.92371
G1 X148.791 Y133.463 E3.94891
G1 X149.12 Y133.444 E3.95987
G1 X149.612 Y133.428 E3.97624
G1 X149.988 Y133.426 E3.98875
G1 X150.604 Y133.443 E4.00924
G1 X151.383 Y133.49 E4.0352
G1 X151.83 Y133.528 E4.05012
G1 X152.033 Y133.55 E4.05691
G1 X152.688 Y133.644 E4.07892
G1 X153.104 Y133.719 E4.09298
G1 X153.518 Y133.803 E4.10703
G1 X153.976 Y133.907 E4.12265
G1 X154.759 Y134.121 E4.14965
G1 X155.209 Y134.265 E4.16536
G1 X155.699 Y134.437 E4.18264
G1 X156.212 Y134.633 E4.2009
G1 X157.094 Y135.023 E4.23298
G1 X157.908 Y135.434 E4.26331
G1 X158.801 Y135.948 E4.29758
G1 X159.125 Y136.159 E4.31044
G1 X159.464 Y136.391 E4.3241
G1 X159.882 Y136.69 E4.34119
G1 X160.449 Y137.129 E4.36504
G1 X160.757 Y137.387 E4.37841
G1 X161.178 Y137.761 E4.39714
G1 X161.506 Y138.071 E4.41215
G1 X161.805 Y138.367 E4.42614
G1 X161.983 Y138.551 E4.43466
G1 X162.36 Y138.965 E4.45328
G1 X162.826 Y139.508 E4.47708
G1 X163.281 Y140.082 E4.50144
G1 X163.542 Y140.439 E4.51615
G1 X163.979 Y141.092 E4.54228
G1 X164.298 Y141.615 E4.56266
G1 X164.658 Y142.261 E4.58725
G1 X164.884 Y142.707 E4.60388
G1 X165.091 Y143.143 E4.61994
G1 X165.308 Y143.632 E4.63773
G1 X165.551 Y144.234 E4.65932
G1 X165.829 Y144.999 E4.6864
G1 X166.087 Y145.827 E4.71524
G1 X166.299 Y146.876 E4.75084
G1 X166.425 Y147.755 E4.78037
G1 X166.49 Y148.34 E4.79995
G1 X166.585 Y149.528 E4.83959
G1 X166.614 Y150.394 E4.86841
G1 X166.51 Y151.676 E4.91119
G1 X166.378 Y152.553 E4.94068
G1 X166.324 Y152.875 E4.95154
G1 X166.27 Y153.165 E4.96135
G1 X166.203 Y153.493 E4.97249
G1 X166.113 Y153.896 E4.98622
G1 X165.917 Y154.633 E5.01159
G1 X165.782 Y155.068 E5.02674
G1 X165.669 Y155.409 E5.03868
G1 X165.566 Y155.701 E5.04898
G1 X165.328 Y156.307 E5.07064
G1 X165.093 Y156.85 E5.09032
G1 X164.783 Y157.497 E5.11418
G1 X164.556 Y157.928 E5.13038
G1 X164.291 Y158.398 E5.14833
G1 X164.079 Y158.75 E5.16199
G1 X163.676 Y159.364 E5.18642
G1 X163.361 Y159.805 E5.20445
G1 X163.154 Y160.083 E5.21597
G1 X162.931 Y160.372 E5.22811
G1 X162.355 Y161.05 E5.2577
G1 X161.966 Y161.466 E5.27665
G1 X161.566 Y161.869 E5.29553
G1 X161.299 Y162.122 E5.30777
G1 X161.258 Y162.161 E5.30965
G1 X161.101 Y162.308 E5.3168
G1 X160.583 Y162.758 E5.33962
G1 X160.229 Y163.044 E5.35476
G1 X159.669 Y163.463 E5.37802
G1 X159.215 Y163.777 E5.39638
G1 X158.707 Y164.105 E5.41649
G1 X158.274 Y164.365 E5.43329
G1 X157.517 Y164.773 E5.46189
G1 X157.013 Y165.016 E5.4805
G1 X156.472 Y165.257 E5.5002
G1 X156.022 Y165.44 E5.51636
G1 X155.375 Y165.675 E5.53926
G1 X154.723 Y165.886 E5.56205
G1 X154.049 Y166.077 E5.58535
G1 X153.691 Y166.164 E5.5976
G1 X152.906 Y166.32 E5.62422
G1 X152.414 Y166.396 E5.64078
G1 X152.121 Y166.436 E5.65062
G1 X151.778 Y166.478 E5.66211
G1 X151.106 Y166.536 E5.68454
G1 X150.587 Y166.562 E5.70183
G1 X150.054 Y166.574 E5.71956
G1 X149.608 Y166.571 E5.73439
G1 X149.128 Y166.555 E5.75037
G1 X148.886 Y166.541 E5.75843
G1 X148.282 Y166.487 E5.7786
G1 X147.794 Y166.427 E5.79495
G1 X147.098 Y166.314 E5.8184
G1 X146.508 Y166.196 E5.83842
G1 X146.077 Y166.1 E5.8531
G1 X145.692 Y166.004 E5.8663
G1 X144.931 Y165.779 E5.89269
G1 X144.591 Y165.663 E5.90464
G1 X144.354 Y165.579 E5.913
G1 X143.915 Y165.416 E5.92858
G1 X143.099 Y165.068 E5.95809
G1 X142.658 Y164.855 E5.97437
G1 X142.35 Y164.7 E5.98584
G1 X141.989 Y164.509 E5.99943
G1 X141.43 Y164.188 E6.02087
G1 X141.027 Y163.938 E6.03664
G1 X140.399 Y163.513 E6.06186
G1 X140.04 Y163.248 E6.0767
G1 X139.735 Y163.012 E6.08953
G1 X139.404 Y162.746 E6.10365
G1 X138.858 Y162.272 E6.1277
G1 X138.564 Y161.996 E6.14111
G1 X138.209 Y161.644 E6.15774
G1 X137.916 Y161.338 E6.17183
G1 X137.609 Y161.002 E6.18697
G1 X137.298 Y160.644 E6.20274
G1 X136.992 Y160.273 E6.21874
G1 X136.783 Y160.006 E6.23001
G1 X136.258 Y159.264 E6.26025
G1 X135.859 Y158.638 E6.28494
G1 X135.571 Y158.155 E6.30364
G1 X135.358 Y157.772 E6.31822
G1 X135.024 Y157.112 E6.34282
G1 X134.869 Y156.773 E6.35522
G1 X134.662 Y156.284 E6.37288
G1 X134.503 Y155.877 E6.38741
G1 X134.325 Y155.379 E6.405
G1 X134.168 Y154.899 E6.4218
G1 X134.003 Y154.338 E6.44125
G1 X133.9 Y153.941 E6.45489
G1 X133.743 Y153.221 E6.4794
G1 X133.668 Y152.798 E6.49369
G1 X133.591 Y152.275 E6.51127
G1 X133.5 Y151.515 E6.53673
G1 X133.437 Y150.669 E6.56494
G1 X133.429 Y150.393 E6.57413
G1 X133.425 Y150.121 E6.58318
G1 X133.425 Y149.875 E6.59136
G1 X133.435 Y149.449 E6.60553
G1 X133.458 Y148.942 E6.62241
G1 X133.533 Y148.108 E6.65026
G1 X133.594 Y147.657 E6.6654
G1 X133.655 Y147.268 E6.67849
G1 X133.717 Y146.92 E6.69025
G1 X133.817 Y146.433 E6.70679
G1 X133.929 Y145.953 E6.72318
G1 X134.106 Y145.301 E6.74565
G1 X134.233 Y144.892 E6.7599
G1 X134.432 Y144.317 E6.78013
G1 X134.604 Y143.868 E6.79613
G1 X134.772 Y143.458 E6.81086
G1 X134.921 Y143.118 E6.82321
G1 X135.141 Y142.652 E6.84035
G1 X135.285 Y142.367 E6.85097
G1 X135.56 Y141.862 E6.87009
G1 X135.674 Y141.667 E6.87761
G1 X135.82 Y141.426 E6.88698
G1 X136.139 Y140.916 E6.90699
G1 X136.52 Y140.352 E6.92962
G1 X136.686 Y140.125 E6.93898
G1 X136.971 Y139.756 E6.95449
G1 X137.287 Y139.366 E6.97118
G1 X137.757 Y138.829 E6.99492
G1 X138.099 Y138.467 E7.01148
G0 F6000 X138.39 Y138.741
G1 F600 X138.747 Y138.384 E7.02827
G1 X138.988 Y138.156 E7.03931
G1 X139.331 Y137.847 E7.05466
G1 X139.733 Y137.504 E7.07224
G1 X140.222 Y137.116 E7.093
G1 X140.591 Y136.843 E7.10827
G1 X141.184 Y136.44 E7.13211
G1 X141.659 Y136.144 E7.15073
G1 X142.235 Y135.814 E7.17281
G1 X142.593 Y135.626 E7.18626
G1 X142.92 Y135.463 E7.19841
G1 X143.369 Y135.25 E7.21494
G1 X143.977 Y134.988 E7.23696
G1 X144.318 Y134.856 E7.24912
G1 X144.832 Y134.675 E7.26724
G1 X145.318 Y134.52 E7.28421
G1 X145.824 Y134.374 E7.30173
G1 X146.227 Y134.271 E7.31556
G1 X146.79 Y134.147 E7.33474
G1 X147.236 Y134.063 E7.34983
G1 X147.661 Y133.993 E7.36416
G1 X148.092 Y133.933 E7.37863
G1 X148.814 Y133.862 E7.40276
G1 X149.143 Y133.843 E7.41372
G1 X149.614 Y133.828 E7.42939
G1 X149.99 Y133.826 E7.4419
G1 X150.58 Y133.842 E7.46153
G1 X151.359 Y133.889 E7.48749
G1 X151.787 Y133.925 E7.50177
G1 X151.99 Y133.947 E7.50856
G1 X152.617 Y134.038 E7.52964
G1 X153.033 Y134.113 E7.5437
G1 X153.429 Y134.193 E7.55713
G1 X153.887 Y134.297 E7.57275
G1 X154.637 Y134.502 E7.59861
G1 X155.087 Y134.646 E7.61433
G1 X155.556 Y134.811 E7.63086
G1 X156.069 Y135.007 E7.64913
G1 X156.913 Y135.38 E7.67982
G1 X157.727 Y135.791 E7.71015
G1 X158.582 Y136.283 E7.74296
G1 X158.906 Y136.494 E7.75582
G1 X159.231 Y136.716 E7.76891
G1 X159.649 Y137.015 E7.786
G1 X160.192 Y137.436 E7.80886
G1 X160.5 Y137.694 E7.82222
G1 X160.903 Y138.052 E7.84015
G1 X161.231 Y138.362 E7.85516
G1 X161.518 Y138.645 E7.86856
G1 X161.696 Y138.829 E7.87708
G1 X162.057 Y139.226 E7.89493
G1 X162.523 Y139.769 E7.91873
G1 X162.958 Y140.318 E7.94202
G1 X163.219 Y140.675 E7.95673
G1 X163.638 Y141.3 E7.98176
G1 X163.957 Y141.823 E8.00213
G1 X164.301 Y142.442 E8.02569
G1 X164.527 Y142.888 E8.04232
G1 X164.725 Y143.305 E8.05767
G1 X164.942 Y143.794 E8.07546
G1 X165.175 Y144.371 E8.09616
G1 X165.453 Y145.136 E8.12323
G1 X165.705 Y145.946 E8.15145
G1 X165.903 Y146.933 E8.18493
G1 X166.029 Y147.812 E8.21446
G1 X166.091 Y148.372 E8.2332
G1 X166.186 Y149.56 E8.27284
G1 X166.214 Y150.407 E8.30103
G1 X166.115 Y151.617 E8.34141
G1 X165.983 Y152.494 E8.37091
G1 X165.931 Y152.802 E8.3813
G1 X165.877 Y153.092 E8.39111
G1 X165.813 Y153.406 E8.40177
G1 X165.723 Y153.809 E8.4155
G1 X165.535 Y154.515 E8.4398
G1 X165.4 Y154.95 E8.45495
G1 X165.291 Y155.276 E8.46638
G1 X165.188 Y155.568 E8.47668
G1 X164.961 Y156.149 E8.49743
G1 X164.726 Y156.692 E8.5171
G1 X164.429 Y157.311 E8.53994
G1 X164.202 Y157.742 E8.55614
G1 X163.949 Y158.191 E8.57328
G1 X163.737 Y158.543 E8.58695
G1 X163.351 Y159.131 E8.61034
G1 X163.036 Y159.572 E8.62837
G1 X162.837 Y159.839 E8.63945
G1 X162.614 Y160.128 E8.65159
G1 X162.063 Y160.777 E8.6799
G1 X161.674 Y161.193 E8.69885
G1 X161.29 Y161.579 E8.71696
G1 X161.023 Y161.832 E8.72919
G1 X160.984 Y161.869 E8.73098
G1 X160.827 Y162.016 E8.73813
G1 X160.332 Y162.447 E8.75996
G1 X159.978 Y162.733 E8.7751
G1 X159.441 Y163.134 E8.79739
G1 X158.987 Y163.448 E8.81575
G1 X158.501 Y163.762 E8.83499
G1 X158.068 Y164.022 E8.85179
G1 X157.344 Y164.413 E8.87916
G1 X156.84 Y164.656 E8.89777
G1 X156.321 Y164.886 E8.91665
G1 X155.871 Y165.069 E8.93281
G1 X155.252 Y165.295 E8.95472
G1 X154.6 Y165.506 E8.97752
G1 X153.954 Y165.688 E8.99984
G1 X153.596 Y165.775 E9.01209
G1 X152.845 Y165.925 E9.03757
G1 X152.353 Y166.001 E9.05412
G1 X152.073 Y166.039 E9.06352
G1 X151.73 Y166.081 E9.07501
G1 X151.086 Y166.137 E9.09652
G1 X150.567 Y166.163 E9.1138
G1 X150.056 Y166.174 E9.1308
G1 X149.61 Y166.171 E9.14563
