;FLAVOR:Marlin
;TIME:3193
;Filament used: 1.86634m
;Layer height: 0.2
;MINX:120.85
;MINY:121.673
;MINZ:0.2
;MAXX:179.145
;MAXY:178.501
;MAXZ:18
;Generated with Cura_SteamEngine 4.4.1
M140 S55
M105
M190 S55
M104 S210
M105
M109 S210
M82 ;absolute extrusion mode
M201 X500.00 Y500.00 Z100.00 E5000.00 ;Setup machine max acceleration
M203 X500.00 Y500.00 Z10.00 E50.00 ;Setup machine max feedrate
M204 P500.00 R1000.00 T500.00 ;Setup Print/Retract/Travel acceleration
M205 X8.00 Y8.00 Z0.40 E5.00 ;Setup Jerk
M220 S100 ;Reset Feedrate
M221 S100 ;Reset Flowrate

G28 ;Home

G92 E0 ;Reset Extruder
G1 Z2.0 F3000 ;Move Z Axis up
G1 X10.1 Y20 Z0.28 F5000.0 ;Move to start position
G1 X10.1 Y200.0 Z0.28 F1500.0 E15 ;Draw the first line
G1 X10.4 Y200.0 Z0.28 F5000.0 ;Move to side a little
G1 X10.4 Y20 Z0.28 F1500.0 E30 ;Draw the second line
G92 E0 ;Reset Extruder
G1 Z2.0 F3000 ;Move Z Axis up

G92 E0
G92 E0
G1 F1800 E-6.5
;LAYER_COUNT:90
;LAYER:0
M107
G1 F300 Z0.7
G0 F6000 X130.495 Y129.696 Z0.7
;TYPE:SKIRT
G1 F300 Z0.2
G1 F1800 E0
G1 F600 X130.742 Y129.454 E0.0115
G1 X131.144 Y129.073 E0.02992
G1 X131.411 Y128.828 E0.04198
G1 X131.977 Y128.33 E0.06705
G1 X132.253 Y128.097 E0.07906
G1 X132.64 Y127.781 E0.09568
G1 X132.843 Y127.62 E0.1043
G1 X133.368 Y127.214 E0.12637
G1 X133.71 Y126.961 E0.14052
G1 X134.19 Y126.622 E0.16007
G1 X134.43 Y126.458 E0.16973
G1 X135.011 Y126.073 E0.19292
G1 X135.324 Y125.874 E0.20525
G1 X135.895 Y125.526 E0.22749
G1 X136.124 Y125.39 E0.23635
G1 X136.639 Y125.095 E0.25609
G1 X137.061 Y124.867 E0.27205
G1 X137.481 Y124.653 E0.28772
G1 X137.709 Y124.541 E0.29617
G1 X138.434 Y124.195 E0.32289
G1 X138.796 Y124.031 E0.33611
G1 X139.41 Y123.768 E0.35833
G1 X139.699 Y123.649 E0.36872
G1 X140.108 Y123.489 E0.38333
G1 X140.378 Y123.388 E0.39292
G1 X141.038 Y123.152 E0.41623
G1 X141.412 Y123.027 E0.42934
G1 X142.048 Y122.828 E0.45151
G1 X142.423 Y122.719 E0.4645
G1 X143.024 Y122.557 E0.4852
G1 X143.271 Y122.494 E0.49368
G1 X143.887 Y122.345 E0.51476
G1 X144.225 Y122.269 E0.52628
G1 X144.772 Y122.157 E0.54485
G1 X145.257 Y122.071 E0.56123
G1 X146.029 Y121.953 E0.58721
G1 X146.208 Y121.927 E0.59323
G1 X146.745 Y121.855 E0.61125
G1 X147.142 Y121.81 E0.62453
G1 X147.638 Y121.764 E0.6411
G1 X147.966 Y121.739 E0.65204
G1 X148.678 Y121.697 E0.67577
G1 X149.131 Y121.681 E0.69084
G1 X149.764 Y121.673 E0.7119
G1 X150.076 Y121.674 E0.72227
G1 X150.908 Y121.69 E0.74995
G1 X151.019 Y121.693 E0.75365
G1 X151.51 Y121.708 E0.76998
G1 X151.991 Y121.734 E0.78601
G1 X152.592 Y121.782 E0.80606
G1 X153.025 Y121.826 E0.82053
G1 X153.594 Y121.897 E0.83961
G1 X153.889 Y121.939 E0.84952
G1 X154.602 Y122.05 E0.87352
G1 X154.932 Y122.107 E0.88466
G1 X155.487 Y122.213 E0.90345
G1 X155.8 Y122.278 E0.91408
G1 X156.4 Y122.413 E0.93454
G1 X156.829 Y122.52 E0.94924
G1 X157.529 Y122.711 E0.97337
G1 X157.712 Y122.763 E0.9797
G1 X158.168 Y122.897 E0.99551
G1 X158.555 Y123.019 E1.00901
G1 X159.271 Y123.262 E1.03415
G1 X159.649 Y123.399 E1.04753
G1 X160.175 Y123.602 E1.06628
G1 X160.478 Y123.725 E1.07716
G1 X161.076 Y123.979 E1.09877
G1 X161.357 Y124.103 E1.10898
G1 X161.939 Y124.372 E1.13031
G1 X162.223 Y124.509 E1.14079
G1 X162.735 Y124.766 E1.15985
G1 X163.087 Y124.952 E1.17309
G1 X163.737 Y125.312 E1.1978
G1 X164.028 Y125.48 E1.20898
G1 X164.44 Y125.727 E1.22496
G1 X164.707 Y125.893 E1.23541
G1 X165.294 Y126.271 E1.25863
G1 X165.623 Y126.492 E1.27182
G1 X166.131 Y126.849 E1.29247
G1 X166.388 Y127.036 E1.30304
G1 X166.929 Y127.443 E1.32556
G1 X167.185 Y127.643 E1.33636
G1 X167.607 Y127.983 E1.35439
G1 X167.911 Y128.238 E1.36758
G1 X168.414 Y128.678 E1.38981
G1 X168.606 Y128.85 E1.39838
G1 X169.12 Y129.324 E1.42164
G1 X169.442 Y129.635 E1.43653
G1 X169.818 Y130.015 E1.45431
G1 X170.021 Y130.227 E1.46407
G1 X170.459 Y130.697 E1.48544
G1 X170.689 Y130.951 E1.49684
G1 X171.046 Y131.362 E1.51494
G1 X171.253 Y131.609 E1.52566
G1 X171.695 Y132.153 E1.54897
G1 X171.921 Y132.442 E1.56118
G1 X172.346 Y133.007 E1.58469
G1 X172.54 Y133.274 E1.59567
G1 X172.849 Y133.715 E1.61358
G1 X173.026 Y133.977 E1.6241
G1 X173.396 Y134.543 E1.64659
G1 X173.635 Y134.927 E1.66163
G1 X173.908 Y135.39 E1.67951
G1 X174.001 Y135.552 E1.68572
G1 X174.361 Y136.19 E1.71008
G1 X174.595 Y136.631 E1.72669
G1 X174.814 Y137.07 E1.74301
G1 X174.918 Y137.285 E1.75095
G1 X175.172 Y137.826 E1.77083
G1 X175.769 Y138.302 E1.79622
G1 X176.408 Y138.914 E1.82565
G1 X176.99 Y139.581 E1.85509
G1 X177.509 Y140.298 E1.88453
G1 X177.961 Y141.059 E1.91397
G1 X178.343 Y141.857 E1.9434
G1 X178.651 Y142.687 E1.97284
G1 X178.884 Y143.541 E2.00229
G1 X179.038 Y144.413 E2.03174
G1 X179.12 Y145.656 E2.07317
G1 X179.123 Y146.852 E2.11295
G1 X179.085 Y147.737 E2.14241
G1 X179.056 Y147.959 E2.14986
G1 X179.063 Y150.52 E2.23504
G1 X179.091 Y150.712 E2.24149
G1 X179.141 Y151.662 E2.27313
G1 X179.145 Y152.796 E2.31085
G1 X179.141 Y152.796 E2.31098
G1 X179.122 Y153.57 E2.33673
G1 X179.02 Y154.449 E2.36617
G1 X178.839 Y155.316 E2.39562
G1 X178.58 Y156.162 E2.42505
G1 X178.247 Y156.982 E2.45449
G1 X177.84 Y157.769 E2.48396
G1 X177.364 Y158.515 E2.51339
G1 X176.823 Y159.216 E2.54284
G1 X176.221 Y159.865 E2.57228
G1 X175.563 Y160.457 E2.60172
G1 X175.265 Y160.68 E2.6141
G1 X175.081 Y161.084 E2.62887
G1 X174.942 Y161.376 E2.63962
G1 X174.68 Y161.904 E2.65923
G1 X174.546 Y162.163 E2.66893
G1 X174.207 Y162.798 E2.69287
G1 X174.003 Y163.162 E2.70675
G1 X173.747 Y163.596 E2.7235
G1 X173.548 Y163.919 E2.73612
G1 X173.09 Y164.631 E2.76428
G1 X172.928 Y164.874 E2.77399
G1 X172.683 Y165.231 E2.7884
G1 X172.482 Y165.514 E2.79994
G1 X172.033 Y166.121 E2.82505
G1 X171.83 Y166.386 E2.83616
G1 X171.449 Y166.866 E2.85654
G1 X171.186 Y167.183 E2.87024
G1 X170.841 Y167.582 E2.88778
G1 X170.646 Y167.801 E2.89753
G1 X170.162 Y168.328 E2.92133
G1 X169.889 Y168.613 E2.93446
G1 X169.441 Y169.063 E2.95558
G1 X169.251 Y169.249 E2.96442
G1 X168.758 Y169.718 E2.98705
G1 X168.436 Y170.011 E3.00153
G1 X167.989 Y170.4 E3.02124
G1 X167.768 Y170.586 E3.03085
G1 X167.258 Y171.004 E3.05278
G1 X166.976 Y171.227 E3.06474
G1 X166.53 Y171.566 E3.08337
G1 X166.246 Y171.774 E3.09508
G1 X165.653 Y172.192 E3.11921
G1 X165.381 Y172.377 E3.13015
G1 X164.925 Y172.676 E3.14829
G1 X164.584 Y172.89 E3.16168
G1 X163.919 Y173.288 E3.18746
G1 X163.642 Y173.448 E3.1981
G1 X163.197 Y173.695 E3.21502
G1 X162.903 Y173.851 E3.22609
G1 X162.287 Y174.166 E3.2491
G1 X161.961 Y174.325 E3.26117
G1 X161.523 Y174.529 E3.27724
G1 X161.049 Y175.124 E3.30254
G1 X160.437 Y175.763 E3.33197
G1 X159.77 Y176.345 E3.36141
G1 X159.053 Y176.864 E3.39085
G1 X158.292 Y177.316 E3.42029
G1 X157.494 Y177.698 E3.44972
G1 X156.664 Y178.006 E3.47916
G1 X155.81 Y178.239 E3.5086
G1 X154.938 Y178.393 E3.53806
G1 X153.705 Y178.475 E3.57916
G1 X146.505 Y178.501 E3.81863
G1 X145.621 Y178.464 E3.84806
G1 X144.743 Y178.348 E3.87751
G1 X143.88 Y178.153 E3.90694
G1 X143.038 Y177.88 E3.93638
G1 X142.223 Y177.533 E3.96584
G1 X141.444 Y177.114 E3.99526
G1 X140.705 Y176.626 E4.02472
G1 X140.014 Y176.073 E4.05415
G1 X139.375 Y175.461 E4.08358
G1 X138.794 Y174.793 E4.11303
G1 X138.666 Y174.616 E4.12029
G1 X138.084 Y174.348 E4.1416
G1 X137.843 Y174.234 E4.15047
G1 X137.466 Y174.048 E4.16445
G1 X137.134 Y173.876 E4.17689
G1 X136.523 Y173.545 E4.2
G1 X136.201 Y173.363 E4.2123
G1 X135.633 Y173.027 E4.23425
G1 X135.32 Y172.833 E4.2465
G1 X134.818 Y172.51 E4.26636
G1 X134.552 Y172.333 E4.27698
G1 X133.967 Y171.929 E4.30063
G1 X133.677 Y171.721 E4.3125
G1 X133.205 Y171.369 E4.33208
G1 X132.937 Y171.161 E4.34337
G1 X132.419 Y170.746 E4.36544
G1 X132.123 Y170.5 E4.37824
G1 X131.692 Y170.126 E4.39722
G1 X131.507 Y169.961 E4.40547
G1 X130.978 Y169.478 E4.42929
G1 X130.666 Y169.18 E4.44364
G1 X130.295 Y168.81 E4.46107
G1 X130.088 Y168.597 E4.47095
G1 X129.601 Y168.081 E4.49455
G1 X129.343 Y167.797 E4.50731
G1 X128.892 Y167.28 E4.53013
G1 X128.656 Y166.999 E4.54233
G1 X128.31 Y166.571 E4.56064
G1 X128.081 Y166.276 E4.57306
G1 X127.741 Y165.821 E4.59195
G1 X127.592 Y165.616 E4.60038
G1 X127.132 Y164.966 E4.62687
G1 X126.91 Y164.639 E4.64001
G1 X126.594 Y164.152 E4.65932
G1 X126.397 Y163.835 E4.67173
G1 X126.037 Y163.231 E4.69512
G1 X125.859 Y162.921 E4.70701
G1 X125.6 Y162.448 E4.72495
G1 X125.452 Y162.167 E4.73551
G1 X125.167 Y161.604 E4.7565
G1 X125.038 Y161.337 E4.76636
G1 X124.824 Y160.881 E4.78311
G1 X124.228 Y160.406 E4.80846
G1 X123.588 Y159.794 E4.83791
G1 X123.006 Y159.127 E4.86736
G1 X122.487 Y158.41 E4.8968
G1 X122.035 Y157.649 E4.92624
G1 X121.653 Y156.85 E4.95569
G1 X121.345 Y156.02 E4.98514
G1 X121.113 Y155.166 E5.01457
G1 X120.958 Y154.294 E5.04403
G1 X120.876 Y153.059 E5.08519
G1 X120.872 Y151.871 E5.12471
G1 X120.909 Y150.987 E5.15414
G1 X120.939 Y150.759 E5.16178
G1 X120.925 Y148.149 E5.24859
G1 X120.885 Y147.826 E5.25942
G1 X120.854 Y147.083 E5.28415
G1 X120.85 Y145.91 E5.32317
G1 X120.85 Y145.826 E5.32596
G1 X120.89 Y144.942 E5.35539
G1 X121.01 Y144.065 E5.38483
G1 X121.208 Y143.202 E5.41428
G1 X121.483 Y142.361 E5.44371
G1 X121.833 Y141.548 E5.47315
G1 X122.255 Y140.769 E5.50262
G1 X122.746 Y140.033 E5.53205
G1 X123.301 Y139.343 E5.5615
G1 X123.916 Y138.706 E5.59095
G1 X124.586 Y138.128 E5.62038
G1 X124.731 Y138.024 E5.62631
G1 X124.9 Y137.656 E5.63978
G1 X125.021 Y137.403 E5.64911
G1 X125.366 Y136.705 E5.67501
G1 X125.541 Y136.367 E5.68767
G1 X125.828 Y135.839 E5.70765
G1 X125.996 Y135.541 E5.71903
G1 X126.269 Y135.078 E5.73691
G1 X126.43 Y134.815 E5.74717
G1 X126.773 Y134.273 E5.7685
G1 X126.989 Y133.946 E5.78153
G1 X127.386 Y133.371 E5.80477
G1 X127.578 Y133.104 E5.81571
G1 X127.933 Y132.625 E5.83554
G1 X128.1 Y132.406 E5.8447
G1 X128.492 Y131.907 E5.86581
G1 X128.795 Y131.54 E5.88164
G1 X129.292 Y130.967 E5.90687
G1 X129.463 Y130.774 E5.91544
G1 X129.72 Y130.493 E5.92811
G1 X129.964 Y130.236 E5.93989
G1 X130.495 Y129.696 E5.96508
G0 F6000 X130.781 Y129.976
G1 F600 X131.017 Y129.744 E5.97609
G1 X131.419 Y129.363 E5.99451
G1 X131.676 Y129.129 E6.00607
G1 X132.242 Y128.631 E6.03115
G1 X132.506 Y128.407 E6.04266
G1 X132.893 Y128.091 E6.05928
G1 X133.088 Y127.936 E6.06756
G1 X133.613 Y127.53 E6.08964
G1 X133.94 Y127.288 E6.10317
G1 X134.42 Y126.949 E6.12271
G1 X134.651 Y126.791 E6.13202
G1 X135.232 Y126.406 E6.1552
G1 X135.532 Y126.215 E6.16703
G1 X136.103 Y125.867 E6.18927
G1 X136.323 Y125.737 E6.19777
G1 X136.838 Y125.442 E6.21751
G1 X137.243 Y125.224 E6.23281
G1 X137.663 Y125.01 E6.24849
G1 X137.881 Y124.902 E6.25658
G1 X138.606 Y124.556 E6.2833
G1 X138.954 Y124.398 E6.29601
G1 X139.568 Y124.135 E6.31823
G1 X139.844 Y124.022 E6.32815
G1 X140.253 Y123.862 E6.34275
G1 X140.513 Y123.765 E6.35198
G1 X141.173 Y123.529 E6.3753
G1 X141.531 Y123.409 E6.38786
G1 X142.167 Y123.21 E6.41002
G1 X142.528 Y123.105 E6.42252
G1 X143.129 Y122.943 E6.44323
G1 X143.365 Y122.882 E6.45133
G1 X143.981 Y122.733 E6.47241
G1 X144.305 Y122.661 E6.48345
G1 X144.852 Y122.549 E6.50202
G1 X145.318 Y122.466 E6.51777
G1 X146.09 Y122.348 E6.54374
G1 X146.261 Y122.323 E6.54949
G1 X146.798 Y122.251 E6.56751
G1 X147.179 Y122.208 E6.58026
G1 X147.675 Y122.162 E6.59683
G1 X147.989 Y122.138 E6.6073
G1 X148.701 Y122.096 E6.63103
G1 X149.136 Y122.081 E6.6455
G1 X149.769 Y122.073 E6.66656
G1 X150.069 Y122.074 E6.67654
G1 X150.901 Y122.09 E6.70421
G1 X151.007 Y122.092 E6.70774
G1 X151.498 Y122.107 E6.72408
G1 X151.959 Y122.133 E6.73944
G1 X152.56 Y122.181 E6.75949
G1 X152.976 Y122.223 E6.7734
G1 X153.545 Y122.294 E6.79247
G1 X153.827 Y122.334 E6.80194
G1 X154.54 Y122.445 E6.82594
G1 X154.857 Y122.5 E6.83664
G1 X155.412 Y122.606 E6.85544
G1 X155.712 Y122.668 E6.86562
G1 X156.312 Y122.803 E6.88608
G1 X156.723 Y122.906 E6.90017
G1 X157.423 Y123.097 E6.92431
G1 X157.599 Y123.146 E6.93038
G1 X158.055 Y123.28 E6.94619
G1 X158.426 Y123.398 E6.95914
G1 X159.142 Y123.641 E6.98429
G1 X159.505 Y123.772 E6.99712
G1 X160.031 Y123.975 E7.01587
G1 X160.322 Y124.093 E7.02632
G1 X160.92 Y124.347 E7.04793
G1 X161.189 Y124.466 E7.05771
G1 X161.771 Y124.735 E7.07904
G1 X162.044 Y124.867 E7.08912
G1 X162.556 Y125.124 E7.10818
G1 X162.893 Y125.302 E7.12085
G1 X163.543 Y125.662 E7.14557
G1 X163.822 Y125.823 E7.15628
G1 X164.234 Y126.07 E7.17226
G1 X164.49 Y126.229 E7.18228
G1 X165.077 Y126.607 E7.2055
G1 X165.393 Y126.819 E7.21816
G1 X165.901 Y127.176 E7.23881
G1 X166.147 Y127.355 E7.24893
G1 X166.688 Y127.762 E7.27144
G1 X166.934 Y127.954 E7.28182
G1 X167.356 Y128.294 E7.29985
G1 X167.648 Y128.539 E7.31253
G1 X168.151 Y128.979 E7.33475
G1 X168.334 Y129.144 E7.34295
G1 X168.848 Y129.618 E7.3662
G1 X169.158 Y129.916 E7.38051
G1 X169.534 Y130.296 E7.39829
G1 X169.729 Y130.499 E7.40765
G1 X170.167 Y130.969 E7.42902
G1 X170.387 Y131.214 E7.43997
G1 X170.744 Y131.625 E7.45808
G1 X170.942 Y131.861 E7.46832
G1 X171.384 Y132.405 E7.49163
G1 X171.601 Y132.682 E7.50334
G1 X172.026 Y133.247 E7.52685
G1 X172.212 Y133.504 E7.5374
G1 X172.521 Y133.945 E7.55531
G1 X172.691 Y134.196 E7.5654
G1 X173.061 Y134.762 E7.58789
G1 X173.29 Y135.131 E7.60233
G1 X173.563 Y135.594 E7.62021
G1 X173.653 Y135.749 E7.62617
G1 X174.013 Y136.387 E7.65054
G1 X174.237 Y136.81 E7.66646
G1 X174.456 Y137.249 E7.68277
G1 X174.556 Y137.455 E7.69039
G1 X174.853 Y138.087 E7.71361
G1 X174.942 Y138.148 E7.7172
G1 X175.612 Y138.698 E7.74603
G1 X176.229 Y139.307 E7.77487
G1 X176.787 Y139.971 E7.80372
G1 X177.281 Y140.683 E7.83254
G1 X177.708 Y141.438 E7.86139
G1 X178.063 Y142.229 E7.89023
G1 X178.344 Y143.049 E7.91906
G1 X178.548 Y143.891 E7.94787
G1 X178.674 Y144.749 E7.97671
G1 X178.72 Y145.657 E8.00695
G1 X178.723 Y146.853 E8.04673
G1 X178.685 Y147.72 E8.0756
G1 X178.656 Y147.937 E8.08288
G1 X178.663 Y150.55 E8.16979
G1 X178.695 Y150.77 E8.17718
G1 X178.741 Y151.664 E8.20696
G1 X178.745 Y152.798 E8.24467
G1 X178.741 Y152.798 E8.24481
G1 X178.721 Y153.56 E8.27016
G1 X178.619 Y154.421 E8.299
G1 X178.438 Y155.268 E8.3278
G1 X178.179 Y156.096 E8.35666
G1 X177.845 Y156.896 E8.38549
G1 X177.439 Y157.662 E8.41433
G1 X176.964 Y158.387 E8.44316
G1 X176.425 Y159.066 E8.47199
G1 X175.825 Y159.692 E8.50083
G1 X175.17 Y160.26 E8.52967
G1 X174.943 Y160.423 E8.53896
G1 X174.717 Y160.918 E8.55706
G1 X174.583 Y161.198 E8.56738
G1 X174.321 Y161.726 E8.58699
G1 X174.193 Y161.975 E8.5963
G1 X173.854 Y162.61 E8.62024
G1 X173.658 Y162.959 E8.63355
G1 X173.402 Y163.393 E8.65031
G1 X173.212 Y163.702 E8.66238
G1 X172.754 Y164.414 E8.69054
G1 X172.598 Y164.648 E8.69989
G1 X172.353 Y165.005 E8.71429
G1 X172.16 Y165.276 E8.72536
G1 X171.711 Y165.883 E8.75047
G1 X171.517 Y166.137 E8.7611
G1 X171.136 Y166.617 E8.78148
G1 X170.884 Y166.921 E8.79461
G1 X170.539 Y167.32 E8.81216
G1 X170.351 Y167.53 E8.82153
G1 X169.867 Y168.057 E8.84533
G1 X169.606 Y168.331 E8.85792
G1 X169.158 Y168.781 E8.87904
G1 X168.975 Y168.96 E8.88755
G1 X168.482 Y169.429 E8.91018
G1 X168.174 Y169.709 E8.92403
G1 X167.727 Y170.098 E8.94374
G1 X167.515 Y170.277 E8.95296
G1 X167.005 Y170.695 E8.9749
G1 X166.734 Y170.909 E8.98638
G1 X166.288 Y171.248 E9.00501
G1 X166.016 Y171.447 E9.01622
G1 X165.423 Y171.865 E9.04035
G1 X165.161 Y172.043 E9.05089
G1 X164.705 Y172.342 E9.06903
G1 X164.378 Y172.547 E9.08186
G1 X163.713 Y172.945 E9.10764
G1 X163.448 Y173.098 E9.11782
G1 X163.003 Y173.345 E9.13474
G1 X162.721 Y173.495 E9.14537
G1 X162.105 Y173.81 E9.16838
G1 X161.793 Y173.963 E9.17994
G1 X161.262 Y174.21 E9.19942
G1 X161.203 Y174.297 E9.20291
G1 X160.653 Y174.967 E9.23174
G1 X160.044 Y175.584 E9.26058
G1 X159.38 Y176.142 E9.28943
G1 X158.668 Y176.636 E9.31825
G1 X157.913 Y177.063 E9.3471
G1 X157.123 Y177.418 E9.3759
G1 X156.302 Y177.699 E9.40477
G1 X155.46 Y177.903 E9.43358
G1 X154.602 Y178.029 E9.46242
G1 X153.704 Y178.075 E9.49233
G1 X146.504 Y178.101 E9.73181
G1 X145.638 Y178.064 E9.76064
G1 X144.779 Y177.948 E9.78946
G1 X143.934 Y177.752 E9.81832
G1 X143.111 Y177.48 E9.84715
G1 X142.316 Y177.133 E9.876
G1 X141.557 Y176.715 E9.90482
G1 X140.84 Y176.228 E9.93364
G1 X140.17 Y175.677 E9.9625
G1 X139.554 Y175.067 E9.99133
G1 X138.997 Y174.403 E10.02016
G1 X138.921 Y174.293 E10.0246
G1 X138.251 Y173.985 E10.04913
G1 X138.02 Y173.875 E10.05764
G1 X137.643 Y173.689 E10.07162
G1 X137.325 Y173.524 E10.08354
G1 X136.714 Y173.193 E10.10665
