;FLAVOR:Marlin
;TIME:6661
;Filament used: 3.52694m
;Layer height: 0.2
;MINX:118.2
;MINY:135.2
;MINZ:0.2
;MAXX:179.8
;MAXY:164.8
;MAXZ:66.4
;Generated with Cura_SteamEngine 4.4.0
M140 S50
M105
M190 S50
M104 S210
M105
M109 S210
M82 ;absolute extrusion mode
M201 X500.00 Y500.00 Z100.00 E5000.00 ;Setup machine max acceleration
M203 X500.00 Y500.00 Z10.00 E50.00 ;Setup machine max feedrate
M204 P500.00 R1000.00 T500.00 ;Setup Print/Retract/Travel acceleration
M205 X8.00 Y8.00 Z0.40 E5.00 ;Setup Jerk
M220 S100 ;Reset Feedrate
M221 S100 ;Reset Flowrate

G28 ;Home

G92 E0 ;Reset Extruder
G1 Z2.0 F3000 ;Move Z Axis up
G1 X10.1 Y20 Z0.28 F5000.0 ;Move to start position
G1 X10.1 Y200.0 Z0.28 F1500.0 E15 ;Draw the first line
G1 X10.4 Y200.0 Z0.28 F5000.0 ;Move to side a little
G1 X10.4 Y20 Z0.28 F1500.0 E30 ;Draw the second line
G92 E0 ;Reset Extruder
G1 Z2.0 F3000 ;Move Z Axis up

G92 E0
G92 E0
G1 F2700 E-5
;LAYER_COUNT:335
;LAYER:0
M107
G0 F6000 X120.623 Y137.349 Z0.2
;TYPE:SKIRT
G1 F2700 E0
G1 F1200 X121.222 Y136.834 E0.02627
G1 X121.87 Y136.383 E0.05253
G1 X122.561 Y135.999 E0.07883
G1 X123.286 Y135.687 E0.10508
G1 X124.039 Y135.45 E0.13133
G1 X124.813 Y135.291 E0.15761
G1 X125.598 Y135.21 E0.18386
G1 X126 Y135.2 E0.19724
G1 X172 Y135.2 E1.7272
G1 X172.789 Y135.24 E1.75348
G1 X173.569 Y135.359 E1.77972
G1 X174.334 Y135.557 E1.806
G1 X175.074 Y135.831 E1.83225
G1 X175.783 Y136.179 E1.85852
G1 X176.454 Y136.597 E1.88481
G1 X177.078 Y137.08 E1.91106
G1 X177.651 Y137.623 E1.93731
G1 X178.166 Y138.222 E1.96359
G1 X178.617 Y138.87 E1.98985
G1 X179.001 Y139.561 E2.01614
G1 X179.313 Y140.286 E2.04239
G1 X179.55 Y141.039 E2.06865
G1 X179.709 Y141.813 E2.09493
G1 X179.79 Y142.598 E2.12118
G1 X179.8 Y143 E2.13455
G1 X179.8 Y157 E2.60019
G1 X179.76 Y157.789 E2.62647
G1 X179.641 Y158.569 E2.65271
G1 X179.443 Y159.334 E2.67899
G1 X179.169 Y160.074 E2.70524
G1 X178.821 Y160.783 E2.73151
G1 X178.403 Y161.454 E2.7578
G1 X177.92 Y162.078 E2.78405
G1 X177.377 Y162.651 E2.8103
G1 X176.778 Y163.166 E2.83658
G1 X176.13 Y163.617 E2.86284
G1 X175.439 Y164.001 E2.88913
G1 X174.714 Y164.313 E2.91538
G1 X173.961 Y164.55 E2.94164
G1 X173.187 Y164.709 E2.96792
G1 X172.402 Y164.79 E2.99417
G1 X172 Y164.8 E3.00754
G1 X126 Y164.8 E4.53751
G1 X125.211 Y164.76 E4.56378
G1 X124.431 Y164.641 E4.59003
G1 X123.666 Y164.443 E4.61631
G1 X122.926 Y164.169 E4.64255
G1 X122.217 Y163.821 E4.66882
G1 X121.546 Y163.403 E4.69512
G1 X120.922 Y162.92 E4.72136
G1 X120.349 Y162.377 E4.74762
G1 X119.834 Y161.778 E4.77389
G1 X119.383 Y161.13 E4.80015
G1 X118.999 Y160.439 E4.82644
G1 X118.687 Y159.714 E4.8527
G1 X118.45 Y158.961 E4.87895
G1 X118.291 Y158.187 E4.90523
G1 X118.21 Y157.402 E4.93148
G1 X118.2 Y157 E4.94486
G1 X118.2 Y143 E5.4105
G1 X118.24 Y142.211 E5.43677
G1 X118.359 Y141.431 E5.46302
G1 X118.557 Y140.666 E5.4893
G1 X118.831 Y139.926 E5.51554
G1 X119.179 Y139.217 E5.54181
G1 X119.597 Y138.546 E5.56811
G1 X120.08 Y137.922 E5.59435
G1 X120.623 Y137.349 E5.62061
G0 F6000 X121.016 Y137.53
G1 F1200 X121.611 Y137.042 E5.6462
G1 X122.253 Y136.619 E5.67177
G1 X122.936 Y136.264 E5.69738
G1 X123.651 Y135.983 E5.72293
G1 X124.393 Y135.777 E5.74854
G1 X125.151 Y135.649 E5.77411
G1 X126 Y135.6 E5.80239
G1 X172 Y135.6 E7.33236
G1 X172.768 Y135.64 E7.35794
G1 X173.528 Y135.759 E7.38352
G1 X174.271 Y135.957 E7.4091
G1 X174.99 Y136.231 E7.43469
G1 X175.676 Y136.578 E7.46026
G1 X176.323 Y136.994 E7.48584
G1 X176.923 Y137.475 E7.51142
G1 X177.47 Y138.016 E7.53701
G1 X177.958 Y138.611 E7.5626
G1 X178.381 Y139.253 E7.58817
G1 X178.736 Y139.936 E7.61378
G1 X179.017 Y140.651 E7.63933
G1 X179.223 Y141.393 E7.66494
G1 X179.351 Y142.151 E7.69051
G1 X179.4 Y143 E7.71879
G1 X179.4 Y157 E8.18443
G1 X179.36 Y157.768 E8.21001
G1 X179.241 Y158.528 E8.2356
G1 X179.043 Y159.271 E8.26117
G1 X178.769 Y159.99 E8.28677
G1 X178.422 Y160.676 E8.31233
G1 X178.006 Y161.323 E8.33792
G1 X177.525 Y161.923 E8.3635
G1 X176.984 Y162.47 E8.38908
G1 X176.389 Y162.958 E8.41468
G1 X175.747 Y163.381 E8.44025
G1 X175.064 Y163.736 E8.46585
G1 X174.349 Y164.017 E8.4914
G1 X173.607 Y164.223 E8.51702
G1 X172.849 Y164.351 E8.54258
G1 X172 Y164.4 E8.57087
G1 X126 Y164.4 E10.10083
G1 X125.232 Y164.36 E10.12641
G1 X124.472 Y164.241 E10.152
G1 X123.729 Y164.043 E10.17757
G1 X123.01 Y163.769 E10.20317
G1 X122.324 Y163.422 E10.22873
G1 X121.677 Y163.006 E10.25432
G1 X121.077 Y162.525 E10.2799
G1 X120.53 Y161.984 E10.30548
G1 X120.042 Y161.389 E10.33108
G1 X119.619 Y160.747 E10.35665
G1 X119.264 Y160.064 E10.38225
G1 X118.983 Y159.349 E10.4078
G1 X118.777 Y158.607 E10.43342
G1 X118.649 Y157.849 E10.45898
G1 X118.6 Y157 E10.48727
G1 X118.6 Y143 E10.95291
G1 X118.64 Y142.232 E10.97849
G1 X118.759 Y141.472 E11.00407
G1 X118.957 Y140.729 E11.02965
G1 X119.231 Y140.01 E11.05524
G1 X119.578 Y139.324 E11.08081
G1 X119.994 Y138.677 E11.10639
G1 X120.475 Y138.077 E11.13197
G1 X121.016 Y137.53 E11.15756
G0 F6000 X121.408 Y137.716
G1 F1200 X121.998 Y137.257 E11.18242
G1 X122.634 Y136.862 E11.20732
G1 X123.308 Y136.538 E11.2322
G1 X124.013 Y136.288 E11.25708
G1 X124.741 Y136.114 E11.28197
G1 X125.483 Y136.019 E11.30685
G1 X126 Y136 E11.32406
G1 X172 Y136 E12.85402
G1 X172.747 Y136.04 E12.87891
G1 X173.485 Y136.159 E12.90377
G1 X174.207 Y136.357 E12.92867
G1 X174.903 Y136.63 E12.95353
G1 X175.566 Y136.977 E12.97842
G1 X176.189 Y137.392 E13.00332
G1 X176.763 Y137.871 E13.02819
G1 X177.284 Y138.408 E13.05307
G1 X177.743 Y138.998 E13.07793
G1 X178.138 Y139.634 E13.10284
G1 X178.462 Y140.308 E13.12771
G1 X178.712 Y141.013 E13.15259
G1 X178.886 Y141.741 E13.17748
G1 X178.981 Y142.483 E13.20236
G1 X179 Y143 E13.21957
G1 X179 Y157 E13.68521
G1 X178.96 Y157.747 E13.71009
G1 X178.841 Y158.485 E13.73496
G1 X178.643 Y159.207 E13.75986
G1 X178.37 Y159.903 E13.78472
G1 X178.023 Y160.566 E13.80961
G1 X177.608 Y161.189 E13.83451
G1 X177.129 Y161.763 E13.85938
G1 X176.592 Y162.284 E13.88426
G1 X176.002 Y162.743 E13.90912
G1 X175.366 Y163.138 E13.93402
G1 X174.692 Y163.462 E13.9589
G1 X173.987 Y163.712 E13.98378
G1 X173.259 Y163.886 E14.00867
G1 X172.517 Y163.981 E14.03355
G1 X172 Y164 E14.05076
G1 X126 Y164 E15.58073
G1 X125.253 Y163.96 E15.60561
G1 X124.515 Y163.841 E15.63047
G1 X123.793 Y163.643 E15.65537
G1 X123.097 Y163.37 E15.68024
G1 X122.434 Y163.023 E15.70513
G1 X121.811 Y162.608 E15.73002
G1 X121.237 Y162.129 E15.75489
G1 X120.716 Y161.592 E15.77977
G1 X120.257 Y161.002 E15.80464
G1 X119.862 Y160.366 E15.82954
G1 X119.538 Y159.692 E15.85441
G1 X119.288 Y158.987 E15.87929
G1 X119.114 Y158.259 E15.90418
G1 X119.019 Y157.517 E15.92907
G1 X119 Y157 E15.94627
G1 X119 Y143 E16.41191
G1 X119.04 Y142.253 E16.4368
G1 X119.159 Y141.515 E16.46166
G1 X119.357 Y140.793 E16.48656
G1 X119.63 Y140.097 E16.51142
G1 X119.977 Y139.434 E16.53631
G1 X120.392 Y138.811 E16.56121
G1 X120.871 Y138.237 E16.58608
G1 X121.408 Y137.716 E16.61096
G0 F6000 X121.265 Y138.402
G1 F1200 X121.799 Y137.909 E16.63514
G1 X122.384 Y137.479 E16.65928
G1 X123.013 Y137.115 E16.68345
G1 X123.678 Y136.822 E16.70762
G1 X124.371 Y136.604 E16.73179
G1 X125.083 Y136.464 E16.75592
G1 X126 Y136.4 E16.7865
G1 X172 Y136.4 E18.31646
G1 X172.725 Y136.44 E18.34061
G1 X173.442 Y136.559 E18.36479
G1 X174.141 Y136.757 E18.38895
G1 X174.814 Y137.03 E18.4131
G1 X175.453 Y137.375 E18.43726
G1 X176.05 Y137.789 E18.46142
G1 X176.598 Y138.265 E18.48556
G1 X177.091 Y138.799 E18.50974
G1 X177.521 Y139.384 E18.53388
G1 X177.885 Y140.013 E18.55806
G1 X178.178 Y140.678 E18.58223
G1 X178.396 Y141.371 E18.60639
G1 X178.536 Y142.083 E18.63052
G1 X178.6 Y143 E18.6611
G1 X178.6 Y157 E19.12674
G1 X178.56 Y157.725 E19.15089
G1 X178.441 Y158.442 E19.17506
G1 X178.243 Y159.141 E19.19923
G1 X177.97 Y159.814 E19.22338
G1 X177.625 Y160.453 E19.24753
G1 X177.211 Y161.05 E19.2717
G1 X176.735 Y161.598 E19.29584
G1 X176.201 Y162.091 E19.32001
G1 X175.616 Y162.521 E19.34416
G1 X174.987 Y162.885 E19.36833
G1 X174.322 Y163.178 E19.3925
G1 X173.629 Y163.396 E19.41666
G1 X172.917 Y163.536 E19.4408
G1 X172 Y163.6 E19.47137
G1 X126 Y163.6 E21.00134
G1 X125.275 Y163.56 E21.02549
G1 X124.558 Y163.441 E21.04966
G1 X123.859 Y163.243 E21.07383
G1 X123.186 Y162.97 E21.09798
G1 X122.547 Y162.625 E21.12214
G1 X121.95 Y162.211 E21.1463
G1 X121.402 Y161.735 E21.17044
G1 X120.909 Y161.201 E21.19461
G1 X120.479 Y160.616 E21.21876
G1 X120.115 Y159.987 E21.24293
G1 X119.822 Y159.322 E21.2671
G1 X119.604 Y158.629 E21.29127
G1 X119.464 Y157.917 E21.3154
G1 X119.4 Y157 E21.34597
G1 X119.4 Y143 E21.81162
G1 X119.44 Y142.275 E21.83577
G1 X119.559 Y141.558 E21.85994
G1 X119.757 Y140.859 E21.8841
G1 X120.03 Y140.186 E21.90826
G1 X120.375 Y139.547 E21.93241
G1 X120.789 Y138.95 E21.95658
G1 X121.265 Y138.402 E21.98072
G0 F6000 X121.659 Y138.573
G1 F1200 X122.189 Y138.109 E22.00415
G1 X122.768 Y137.709 E22.02755
G1 X123.389 Y137.377 E22.05097
G1 X124.043 Y137.117 E22.07438
G1 X124.723 Y136.933 E22.09781
G1 X125.419 Y136.827 E22.12123
G1 X126 Y136.8 E22.14057
G1 X172 Y136.8 E23.67054
G1 X172.703 Y136.84 E23.69396
G1 X173.397 Y136.959 E23.71738
G1 X174.072 Y137.157 E23.74078
G1 X174.721 Y137.429 E23.76418
G1 X175.335 Y137.774 E23.78761
G1 X175.906 Y138.185 E23.811
G1 X176.427 Y138.659 E23.83443
G1 X176.891 Y139.189 E23.85786
G1 X177.291 Y139.768 E23.88127
G1 X177.623 Y140.389 E23.90469
G1 X177.883 Y141.043 E23.9281
G1 X178.067 Y141.723 E23.95153
G1 X178.173 Y142.419 E23.97494
G1 X178.2 Y143 E23.99429
G1 X178.2 Y157 E24.45993
G1 X178.16 Y157.703 E24.48335
G1 X178.041 Y158.397 E24.50677
G1 X177.843 Y159.072 E24.53016
G1 X177.571 Y159.721 E24.55357
G1 X177.226 Y160.335 E24.57699
G1 X176.815 Y160.906 E24.60039
G1 X176.341 Y161.427 E24.62382
G1 X175.811 Y161.891 E24.64725
G1 X175.232 Y162.291 E24.67066
G1 X174.611 Y162.623 E24.69408
G1 X173.957 Y162.883 E24.71749
G1 X173.277 Y163.067 E24.74092
G1 X172.581 Y163.173 E24.76433
G1 X172 Y163.2 E24.78368
G1 X126 Y163.2 E26.31364
G1 X125.297 Y163.16 E26.33706
G1 X124.603 Y163.041 E26.36048
G1 X123.928 Y162.843 E26.38388
G1 X123.279 Y162.571 E26.40728
G1 X122.665 Y162.226 E26.43071
G1 X122.094 Y161.815 E26.45411
G1 X121.573 Y161.341 E26.47753
G1 X121.109 Y160.811 E26.50096
G1 X120.709 Y160.232 E26.52437
G1 X120.377 Y159.611 E26.54779
G1 X120.117 Y158.957 E26.5712
G1 X119.933 Y158.277 E26.59463
G1 X119.827 Y157.581 E26.61804
G1 X119.8 Y157 E26.63739
G1 X119.8 Y143 E27.10303
G1 X119.84 Y142.297 E27.12645
G1 X119.959 Y141.603 E27.14987
G1 X120.157 Y140.928 E27.17327
G1 X120.429 Y140.279 E27.19667
G1 X120.774 Y139.665 E27.2201
G1 X121.185 Y139.094 E27.2435
G1 X121.659 Y138.573 E27.26692
G0 F6000 X122.053 Y138.751
G1 F1200 X122.578 Y138.317 E27.28958
G1 X123.15 Y137.948 E27.31222
G1 X123.762 Y137.649 E27.33487
G1 X124.404 Y137.424 E27.3575
G1 X125.069 Y137.275 E27.38017
G1 X126 Y137.2 E27.41123
G1 X172 Y137.2 E28.9412
G1 X172.68 Y137.24 E28.96385
G1 X173.35 Y137.359 E28.98649
G1 X174.002 Y137.556 E29.00914
G1 X174.626 Y137.828 E29.03178
G1 X175.214 Y138.172 E29.05444
G1 X175.758 Y138.582 E29.0771
G1 X176.249 Y139.053 E29.09973
G1 X176.683 Y139.578 E29.12238
G1 X177.052 Y140.15 E29.14502
G1 X177.351 Y140.762 E29.16768
G1 X177.576 Y141.404 E29.1903
G1 X177.725 Y142.069 E29.21297
G1 X177.8 Y143 E29.24403
G1 X177.8 Y157 E29.70968
G1 X177.76 Y157.68 E29.73233
G1 X177.641 Y158.35 E29.75497
G1 X177.444 Y159.002 E29.77762
G1 X177.172 Y159.626 E29.80026
G1 X176.828 Y160.214 E29.82292
G1 X176.418 Y160.758 E29.84557
G1 X175.947 Y161.249 E29.8682
G1 X175.422 Y161.683 E29.89086
G1 X174.85 Y162.052 E29.9135
G1 X174.238 Y162.351 E29.93615
G1 X173.596 Y162.576 E29.95878
G1 X172.931 Y162.725 E29.98145
G1 X172 Y162.8 E30.01251
G1 X126 Y162.8 E31.54248
G1 X125.32 Y162.76 E31.56513
G1 X124.65 Y162.641 E31.58777
G1 X123.998 Y162.444 E31.61042
G1 X123.374 Y162.172 E31.63306
G1 X122.786 Y161.828 E31.65572
G1 X122.242 Y161.418 E31.67838
G1 X121.751 Y160.947 E31.70101
G1 X121.317 Y160.422 E31.72366
G1 X120.948 Y159.85 E31.7463
G1 X120.649 Y159.238 E31.76896
G1 X120.424 Y158.596 E31.79158
G1 X120.275 Y157.931 E31.81425
G1 X120.2 Y157 E31.84531
G1 X120.2 Y143 E32.31096
G1 X120.24 Y142.32 E32.33361
G1 X120.359 Y141.65 E32.35625
G1 X120.556 Y140.998 E32.3789
G1 X120.828 Y140.374 E32.40154
G1 X121.172 Y139.786 E32.4242
G1 X121.582 Y139.242 E32.44685
G1 X122.053 Y138.751 E32.46948
G0 F6000 X122.445 Y138.935
G1 F1200 X122.965 Y138.534 E32.49133
G1 X123.529 Y138.198 E32.51316
G1 X124.131 Y137.934 E32.53502
G1 X124.76 Y137.744 E32.55688
G1 X125.407 Y137.633 E32.57871
G1 X126 Y137.6 E32.59847
G1 X172 Y137.6 E34.12843
G1 X172.656 Y137.64 E34.15029
G1 X173.302 Y137.759 E34.17214
G1 X173.929 Y137.956 E34.194
G1 X174.527 Y138.228 E34.21585
G1 X175.088 Y138.57 E34.2377
G1 X175.603 Y138.978 E34.25955
G1 X176.065 Y139.445 E34.2814
G1 X176.466 Y139.965 E34.30324
G1 X176.802 Y140.529 E34.32508
G1 X177.066 Y141.131 E34.34694
G1 X177.256 Y141.76 E34.3688
G1 X177.367 Y142.407 E34.39063
G1 X177.4 Y143 E34.41038
G1 X177.4 Y157 E34.87603
G1 X177.36 Y157.656 E34.89788
G1 X177.241 Y158.302 E34.91973
G1 X177.044 Y158.929 E34.94159
G1 X176.772 Y159.527 E34.96344
G1 X176.43 Y160.088 E34.98529
G1 X176.022 Y160.603 E35.00715
G1 X175.555 Y161.065 E35.029
G1 X175.035 Y161.466 E35.05084
G1 X174.471 Y161.802 E35.07267
G1 X173.869 Y162.066 E35.09454
G1 X173.24 Y162.256 E35.11639
G1 X172.593 Y162.367 E35.13822
G1 X172 Y162.4 E35.15798
G1 X126 Y162.4 E36.68794
G1 X125.344 Y162.36 E36.7098
G1 X124.698 Y162.241 E36.73165
G1 X124.071 Y162.044 E36.75351
G1 X123.473 Y161.772 E36.77536
G1 X122.912 Y161.43 E36.79721
G1 X122.397 Y161.022 E36.81907
G1 X121.935 Y160.555 E36.84091
G1 X121.534 Y160.035 E36.86276
G1 X121.198 Y159.471 E36.88459
G1 X120.934 Y158.869 E36.90645
G1 X120.744 Y158.24 E36.92831
G1 X120.633 Y157.593 E36.95014
G1 X120.6 Y157 E36.9699
G1 X120.6 Y143 E37.43554
G1 X120.64 Y142.344 E37.4574
G1 X120.759 Y141.698 E37.47924
G1 X120.956 Y141.071 E37.5011
G1 X121.228 Y140.473 E37.52295
G1 X121.57 Y139.912 E37.54481
G1 X121.978 Y139.397 E37.56666
G1 X122.445 Y138.935 E37.58851
G0 F6000 X122.373 Y139.559
G1 F1200 X122.836 Y139.129 E37.60952
G1 X123.35 Y138.76 E37.63057
G1 X123.906 Y138.46 E37.65158
G1 X124.495 Y138.232 E37.67259
G1 X125.109 Y138.08 E37.69363
G1 X126 Y138 E37.72338
G1 X172 Y138 E39.25335
G1 X172.631 Y138.04 E39.27438
G1 X173.252 Y138.159 E39.29541
G1 X173.852 Y138.356 E39.31641
G1 X174.424 Y138.627 E39.33746
G1 X174.956 Y138.967 E39.35846
G1 X175.441 Y139.373 E39.3795
G1 X175.871 Y139.836 E39.40052
G1 X176.24 Y140.35 E39.42156
G1 X176.54 Y140.906 E39.44257
G1 X176.768 Y141.495 E39.46358
G1 X176.92 Y142.109 E39.48462
G1 X177 Y143 E39.51437
G1 X177 Y157 E39.98001
G1 X176.96 Y157.631 E40.00104
G1 X176.841 Y158.252 E40.02207
G1 X176.644 Y158.852 E40.04308
G1 X176.373 Y159.424 E40.06413
G1 X176.033 Y159.956 E40.08513
G1 X175.627 Y160.441 E40.10617
G1 X175.164 Y160.871 E40.12718
G1 X174.65 Y161.24 E40.14823
G1 X174.094 Y161.54 E40.16924
G1 X173.505 Y161.768 E40.19025
G1 X172.891 Y161.92 E40.21129
G1 X172 Y162 E40.24104
G1 X126 Y162 E41.77101
G1 X125.369 Y161.96 E41.79204
G1 X124.748 Y161.841 E41.81307
G1 X124.148 Y161.644 E41.83407
G1 X123.576 Y161.373 E41.85512
G1 X123.044 Y161.033 E41.87612
G1 X122.559 Y160.627 E41.89716
G1 X122.129 Y160.164 E41.91818
G1 X121.76 Y159.65 E41.93922
G1 X121.46 Y159.094 E41.96023
G1 X121.232 Y158.505 E41.98124
G1 X121.08 Y157.891 E42.00228
G1 X121 Y157 E42.03203
G1 X121 Y143 E42.49767
G1 X121.04 Y142.369 E42.5187
G1 X121.159 Y141.748 E42.53973
G1 X121.356 Y141.148 E42.56074
G1 X121.627 Y140.576 E42.58179
G1 X121.967 Y140.044 E42.60279
G1 X122.373 Y139.559 E42.62383
G0 F6000 X122.767 Y139.728
G1 F1200 X123.225 Y139.331 E42.64399
G1 X123.732 Y138.998 E42.66416
G1 X124.278 Y138.734 E42.68433
G1 X124.854 Y138.545 E42.70449
G1 X125.45 Y138.433 E42.72466
G1 X126 Y138.4 E42.74299
G1 X172 Y138.4 E44.27296
G1 X172.605 Y138.44 E44.29312
G1 X173.199 Y138.559 E44.31327
G1 X173.773 Y138.755 E44.33345
G1 X174.316 Y139.026 E44.35363
G1 X174.819 Y139.365 E44.3738
G1 X175.272 Y139.767 E44.39395
G1 X175.669 Y140.225 E44.41411
G1 X176.002 Y140.732 E44.43428
G1 X176.266 Y141.278 E44.45445
G1 X176.455 Y141.854 E44.47462
