;FLAVOR:Marlin
M117 Time Left 10h14m11s
;Filament used: 26.0268m
;Layer height: 0.2
;MINX:75.924
;MINY:128.991
;MINZ:0.2
;MAXX:224.076
;MAXY:172.3
;MAXZ:133.6
;POSTPROCESSED
;Generated with Cura_SteamEngine 4.4.1
M140 S55
M105
M190 S55
M104 S210
M105
M109 S210
M82 ;absolute extrusion mode
M201 X500.00 Y500.00 Z100.00 E5000.00 ;Setup machine max acceleration
M203 X500.00 Y500.00 Z10.00 E50.00 ;Setup machine max feedrate
M204 P500.00 R1000.00 T500.00 ;Setup Print/Retract/Travel acceleration
M205 X8.00 Y8.00 Z0.40 E5.00 ;Setup Jerk
M220 S100 ;Reset Feedrate
M221 S100 ;Reset Flowrate

G28 ;Home

G92 E0 ;Reset Extruder
G1 Z2.0 F3000 ;Move Z Axis up
G1 X10.1 Y20 Z0.28 F5000.0 ;Move to start position
G1 X10.1 Y200.0 Z0.28 F1500.0 E15 ;Draw the first line
G1 X10.4 Y200.0 Z0.28 F5000.0 ;Move to side a little
G1 X10.4 Y20 Z0.28 F1500.0 E30 ;Draw the second line
G92 E0 ;Reset Extruder
G1 Z2.0 F3000 ;Move Z Axis up

G92 E0
G92 E0
G1 F1800 E-6.5
;LAYER_COUNT:668
;LAYER:0
M117 Layer 1 heart-decoration of 668
M107
G1 F300 Z0.7
G0 F6000 X83.258 Y130.601 Z0.7
;TYPE:SKIRT
G1 F300 Z0.2
G1 F1800 E0
G1 F600 X83.938 Y130.2 E0.02619
G1 X84.656 Y129.87 E0.05241
G1 X85.403 Y129.615 E0.07859
G1 X86.172 Y129.436 E0.10479
G1 X86.956 Y129.336 E0.13101
G1 X87.551 Y129.313 E0.15077
G1 X87.881 Y129.313 E0.16172
G1 X88.518 Y129.339 E0.18287
G1 X91.433 Y129.578 E0.2799
G1 X91.727 Y129.609 E0.28971
G1 X91.912 Y129.615 E0.29585
G1 X97.216 Y129.988 E0.47226
G1 X97.764 Y130.02 E0.49047
G1 X98.52 Y130.062 E0.51559
G1 X101.34 Y130.193 E0.60925
G1 X101.355 Y130.193 E0.60975
G1 X101.845 Y130.208 E0.62601
G1 X102.017 Y130.219 E0.63173
G1 X102.381 Y130.229 E0.64381
G1 X102.581 Y130.24 E0.65046
G1 X102.637 Y130.24 E0.65231
G1 X103.066 Y130.252 E0.66655
G1 X103.266 Y130.263 E0.6732
G1 X103.351 Y130.263 E0.67602
G1 X103.779 Y130.275 E0.69022
G1 X103.961 Y130.285 E0.69627
G1 X104.162 Y130.285 E0.70294
G1 X104.652 Y130.3 E0.7192
G1 X104.795 Y130.309 E0.72396
G1 X104.985 Y130.309 E0.73026
G1 X105.42 Y130.321 E0.7447
G1 X105.617 Y130.332 E0.75124
G1 X105.994 Y130.332 E0.76375
G1 X106.434 Y130.344 E0.77835
G1 X106.629 Y130.355 E0.78483
G1 X107.145 Y130.355 E0.80195
G1 X107.594 Y130.368 E0.81686
G1 X107.767 Y130.378 E0.82261
G1 X108.568 Y130.378 E0.84918
G1 X109.357 Y130.418 E0.87539
G1 X109.754 Y130.479 E0.88872
G1 X109.994 Y130.448 E0.89674
G1 X110.589 Y130.425 E0.9165
G1 X116.266 Y130.425 E1.10485
G1 X117.055 Y130.465 E1.13106
G1 X117.241 Y130.493 E1.1373
G1 X117.573 Y130.442 E1.14844
G1 X118.218 Y130.403 E1.16988
G1 X119.203 Y130.383 E1.20256
G1 X119.466 Y130.368 E1.2113
G1 X119.915 Y130.355 E1.22621
G1 X120.553 Y130.355 E1.24737
G1 X120.748 Y130.344 E1.25385
G1 X121.188 Y130.332 E1.26846
G1 X121.639 Y130.332 E1.28342
G1 X121.836 Y130.321 E1.28997
G1 X122.271 Y130.309 E1.3044
G1 X122.606 Y130.309 E1.31552
G1 X122.804 Y130.298 E1.3221
G1 X123.237 Y130.286 E1.33647
G1 X123.511 Y130.286 E1.34556
G1 X123.71 Y130.275 E1.35217
G1 X124.14 Y130.263 E1.36644
G1 X124.332 Y130.263 E1.37281
G1 X124.532 Y130.252 E1.37946
G1 X124.961 Y130.24 E1.3937
G1 X125.09 Y130.24 E1.39798
G1 X125.233 Y130.231 E1.40273
G1 X125.723 Y130.216 E1.41899
G1 X125.856 Y130.216 E1.42341
G1 X126.056 Y130.205 E1.43005
G1 X126.485 Y130.193 E1.44429
G1 X126.536 Y130.193 E1.44598
G1 X126.736 Y130.182 E1.45263
G1 X127.165 Y130.17 E1.46687
G1 X127.212 Y130.17 E1.46843
G1 X127.415 Y130.159 E1.47517
G1 X127.468 Y130.157 E1.47693
G1 X139.16 Y129.605 E1.86527
G1 X142.029 Y129.463 E1.96057
G1 X142.929 Y129.393 E1.99052
G1 X143.094 Y129.382 E1.99601
G1 X143.77 Y129.344 E2.01847
G1 X143.77 Y129.345 E2.0185
G1 X145.959 Y129.215 E2.09125
G1 X145.959 Y129.214 E2.09129
G1 X149.272 Y129.006 E2.20142
G1 X149.761 Y128.991 E2.21765
G1 X150.337 Y128.991 E2.23676
G1 X150.833 Y129.007 E2.25322
G1 X154.967 Y129.271 E2.39066
G1 X154.967 Y129.27 E2.39069
G1 X156.842 Y129.384 E2.45301
G1 X156.912 Y129.389 E2.45534
G1 X157.914 Y129.459 E2.48866
G1 X160.961 Y129.615 E2.58989
G1 X161.026 Y129.615 E2.59204
G1 X161.448 Y129.626 E2.60605
G1 X167.398 Y129.948 E2.80374
G1 X170.902 Y130.1 E2.9201
G1 X170.928 Y130.1 E2.92097
G1 X171.418 Y130.115 E2.93723
G1 X171.595 Y130.126 E2.94311
G1 X171.947 Y130.136 E2.9548
G1 X172.147 Y130.147 E2.96144
G1 X172.156 Y130.147 E2.96174
G1 X172.585 Y130.159 E2.97598
G1 X172.785 Y130.17 E2.98262
G1 X172.835 Y130.17 E2.98428
G1 X173.264 Y130.182 E2.99852
G1 X173.464 Y130.193 E3.00517
G1 X173.515 Y130.193 E3.00686
G1 X173.944 Y130.205 E3.0211
G1 X174.144 Y130.216 E3.02774
G1 X174.277 Y130.216 E3.03216
G1 X174.767 Y130.231 E3.04842
G1 X174.91 Y130.24 E3.05317
G1 X175.039 Y130.24 E3.05745
G1 X175.468 Y130.252 E3.07169
G1 X175.668 Y130.263 E3.07834
G1 X175.86 Y130.263 E3.08471
G1 X176.29 Y130.275 E3.09898
G1 X176.489 Y130.286 E3.10559
G1 X176.763 Y130.286 E3.11468
G1 X177.196 Y130.298 E3.12905
G1 X177.394 Y130.309 E3.13563
G1 X177.729 Y130.309 E3.14675
G1 X178.164 Y130.321 E3.16118
G1 X178.361 Y130.332 E3.16773
G1 X178.812 Y130.332 E3.18269
G1 X179.252 Y130.344 E3.1973
G1 X179.447 Y130.355 E3.20378
G1 X180.085 Y130.355 E3.22494
G1 X180.534 Y130.368 E3.23985
G1 X180.707 Y130.378 E3.24559
G1 X181.614 Y130.378 E3.27569
G1 X182.403 Y130.418 E3.3019
G1 X182.845 Y130.485 E3.31673
G1 X183.139 Y130.448 E3.32656
G1 X183.734 Y130.425 E3.34631
G1 X189.411 Y130.425 E3.53466
G1 X190.2 Y130.465 E3.56087
G1 X190.34 Y130.486 E3.56557
G1 X190.62 Y130.443 E3.57497
G1 X191.241 Y130.404 E3.59561
G1 X192.146 Y130.383 E3.62564
G1 X192.406 Y130.368 E3.63428
G1 X192.855 Y130.355 E3.64919
G1 X193.371 Y130.355 E3.6663
G1 X193.566 Y130.344 E3.67278
G1 X194.006 Y130.332 E3.68739
G1 X194.383 Y130.332 E3.6999
G1 X194.58 Y130.321 E3.70644
G1 X195.015 Y130.309 E3.72088
G1 X195.22 Y130.309 E3.72768
G1 X195.418 Y130.298 E3.73426
G1 X195.851 Y130.286 E3.74863
G1 X196.026 Y130.286 E3.75444
G1 X196.225 Y130.275 E3.76105
G1 X196.655 Y130.263 E3.77532
G1 X196.716 Y130.263 E3.77734
G1 X196.859 Y130.254 E3.7821
G1 X197.349 Y130.239 E3.79836
G1 X197.432 Y130.239 E3.80112
G1 X197.614 Y130.229 E3.80716
G1 X197.988 Y130.219 E3.81958
G1 X198.155 Y130.208 E3.82513
G1 X198.634 Y130.193 E3.84103
G1 X198.84 Y130.182 E3.84787
G1 X198.918 Y130.178 E3.85046
G1 X200.941 Y130.087 E3.91765
G1 X203.033 Y129.976 E3.98715
G1 X204.866 Y129.861 E4.04809
G1 X207.227 Y129.685 E4.12663
G1 X207.738 Y129.642 E4.14365
G1 X208.069 Y129.628 E4.15464
G1 X208.154 Y129.619 E4.15747
G1 X208.416 Y129.596 E4.1662
G1 X209.173 Y129.543 E4.19138
G1 X211.075 Y129.389 E4.25469
G1 X211.517 Y129.347 E4.26942
G1 X212.254 Y129.312 E4.29389
G1 X212.45 Y129.312 E4.3004
G1 X213.239 Y129.352 E4.32661
G1 X214.019 Y129.471 E4.35278
G1 X214.784 Y129.669 E4.379
G1 X215.524 Y129.943 E4.40518
G1 X216.233 Y130.291 E4.43138
G1 X216.904 Y130.709 E4.45761
G1 X217.528 Y131.192 E4.48379
G1 X217.965 Y131.597 E4.50356
G1 X218.082 Y131.714 E4.50905
G1 X218.612 Y132.3 E4.53526
G1 X219.079 Y132.936 E4.56144
G1 X219.48 Y133.616 E4.58763
G1 X219.81 Y134.334 E4.61385
G1 X220.065 Y135.081 E4.64004
G1 X220.244 Y135.85 E4.66623
G1 X220.344 Y136.634 E4.69245
G1 X220.367 Y137.229 E4.71221
G1 X220.367 Y164.383 E5.6131
G1 X220.327 Y165.172 E5.63931
G1 X220.208 Y165.952 E5.66548
G1 X220.01 Y166.717 E5.6917
G1 X219.736 Y167.457 E5.71788
G1 X219.388 Y168.166 E5.74408
G1 X218.97 Y168.837 E5.77031
G1 X218.487 Y169.461 E5.79649
G1 X218.035 Y169.945 E5.81846
G1 X217.916 Y170.062 E5.824
G1 X217.326 Y170.586 E5.85018
G1 X216.686 Y171.048 E5.87637
G1 X216.002 Y171.443 E5.90257
G1 X215.282 Y171.767 E5.92877
G1 X214.532 Y172.016 E5.95498
G1 X213.762 Y172.189 E5.98117
G1 X212.977 Y172.282 E6.00739
G1 X212.448 Y172.3 E6.02495
G1 X191.498 Y172.3 E6.72001
G1 X190.709 Y172.26 E6.74622
G1 X190.45 Y172.22 E6.75492
G1 X190.006 Y172.277 E6.76977
G1 X189.411 Y172.3 E6.78952
G1 X183.734 Y172.3 E6.97787
G1 X182.945 Y172.26 E7.00408
G1 X182.656 Y172.216 E7.01378
G1 X182.545 Y172.236 E7.01752
G1 X181.55 Y172.3 E7.0506
G1 X118.451 Y172.3 E9.14403
G1 X117.662 Y172.26 E9.17024
G1 X117.358 Y172.214 E9.18044
G1 X116.861 Y172.277 E9.19707
G1 X116.266 Y172.3 E9.21682
G1 X110.589 Y172.3 E9.40517
G1 X109.8 Y172.26 E9.43138
G1 X109.564 Y172.224 E9.4393
G1 X109.498 Y172.236 E9.44152
G1 X108.503 Y172.3 E9.4746
G1 X87.551 Y172.3 E10.16973
G1 X86.762 Y172.26 E10.19594
G1 X85.982 Y172.141 E10.22211
G1 X85.217 Y171.943 E10.24833
G1 X84.477 Y171.669 E10.27451
G1 X83.768 Y171.321 E10.30071
G1 X83.097 Y170.903 E10.32694
G1 X82.473 Y170.42 E10.35312
G1 X82.036 Y170.015 E10.37289
G1 X81.919 Y169.898 E10.37838
G1 X81.389 Y169.312 E10.40459
G1 X80.922 Y168.676 E10.43077
G1 X80.521 Y167.996 E10.45696
G1 X80.191 Y167.278 E10.48318
G1 X79.936 Y166.531 E10.50937
G1 X79.757 Y165.762 E10.53556
G1 X79.657 Y164.978 E10.56178
G1 X79.634 Y164.383 E10.58154
G1 X79.634 Y137.23 E11.48239
G1 X79.674 Y136.441 E11.5086
G1 X79.793 Y135.661 E11.53478
G1 X79.991 Y134.896 E11.561
G1 X80.265 Y134.156 E11.58718
G1 X80.613 Y133.447 E11.61338
G1 X81.031 Y132.776 E11.63961
G1 X81.514 Y132.152 E11.66579
G1 X81.919 Y131.715 E11.68555
G1 X82.036 Y131.598 E11.69104
G1 X82.622 Y131.068 E11.71726
G1 X83.258 Y130.601 E11.74344
G0 F6000 X83.512 Y130.913
G1 F600 X84.177 Y130.527 E11.76895
G1 X84.879 Y130.212 E11.79447
G1 X85.61 Y129.972 E11.82
G1 X86.361 Y129.809 E11.8455
G1 X87.126 Y129.725 E11.87103
G1 X87.551 Y129.713 E11.88513
G1 X87.881 Y129.713 E11.89608
G1 X88.486 Y129.738 E11.91617
G1 X91.401 Y129.977 E12.01321
G1 X91.696 Y130.007 E12.02304
G1 X91.884 Y130.014 E12.02929
G1 X97.183 Y130.387 E12.20553
G1 X97.742 Y130.42 E12.2241
G1 X97.742 Y130.419 E12.22414
G1 X98.569 Y130.465 E12.25162
G1 X101.321 Y130.593 E12.34302
G1 X101.355 Y130.593 E12.34415
G1 X101.82 Y130.608 E12.35958
G1 X101.971 Y130.618 E12.3646
G1 X102.359 Y130.628 E12.37748
G1 X102.577 Y130.64 E12.38472
G1 X102.637 Y130.64 E12.38671
G1 X103.044 Y130.651 E12.40022
G1 X103.262 Y130.663 E12.40747
G1 X103.351 Y130.663 E12.41042
G1 X103.757 Y130.674 E12.42389
G1 X103.957 Y130.685 E12.43054
G1 X104.162 Y130.685 E12.43734
G1 X104.627 Y130.7 E12.45278
G1 X104.77 Y130.709 E12.45753
G1 X104.985 Y130.709 E12.46466
G1 X105.397 Y130.721 E12.47834
G1 X105.594 Y130.732 E12.48488
G1 X105.994 Y130.732 E12.49815
G1 X106.412 Y130.744 E12.51203
G1 X106.607 Y130.755 E12.51851
G1 X107.145 Y130.755 E12.53636
G1 X107.571 Y130.767 E12.5505
G1 X107.762 Y130.778 E12.55684
G1 X108.568 Y130.778 E12.58358
G1 X109.336 Y130.818 E12.6091
G1 X109.749 Y130.883 E12.62297
G1 X110.164 Y130.837 E12.63682
G1 X110.589 Y130.825 E12.65093
G1 X116.266 Y130.825 E12.83927
G1 X117.034 Y130.865 E12.86479
G1 X117.239 Y130.897 E12.87167
G1 X117.445 Y130.86 E12.87861
G1 X118.226 Y130.803 E12.90459
G1 X119.208 Y130.783 E12.93718
G1 X119.489 Y130.767 E12.94652
G1 X119.915 Y130.755 E12.96066
G1 X120.575 Y130.755 E12.98256
G1 X120.77 Y130.744 E12.98903
G1 X121.188 Y130.732 E13.00291
G1 X121.662 Y130.732 E13.01863
G1 X121.859 Y130.721 E13.02518
G1 X122.271 Y130.709 E13.03886
G1 X122.611 Y130.709 E13.05014
G1 X122.827 Y130.697 E13.05731
G1 X123.237 Y130.686 E13.07092
G1 X123.514 Y130.686 E13.08011
G1 X123.732 Y130.674 E13.08735
G1 X124.14 Y130.663 E13.10089
G1 X124.336 Y130.663 E13.1074
G1 X124.554 Y130.651 E13.11464
G1 X124.961 Y130.64 E13.12815
G1 X125.115 Y130.64 E13.13326
G1 X125.258 Y130.631 E13.13801
G1 X125.723 Y130.616 E13.15345
G1 X125.86 Y130.616 E13.15799
G1 X126.078 Y130.604 E13.16524
G1 X126.485 Y130.593 E13.17874
G1 X126.54 Y130.593 E13.18057
G1 X126.758 Y130.581 E13.18781
G1 X127.165 Y130.57 E13.20132
G1 X127.234 Y130.57 E13.20361
G1 X127.437 Y130.559 E13.21035
G1 X127.487 Y130.556 E13.21202
G1 X139.179 Y130.004 E13.60035
G1 X142.081 Y129.86 E13.69675
G1 X142.96 Y129.792 E13.726
G1 X143.117 Y129.782 E13.73122
G1 X143.769 Y129.745 E13.75289
G1 X146.009 Y129.612 E13.82733
G1 X149.297 Y129.406 E13.93663
G1 X149.761 Y129.391 E13.95204
G1 X150.337 Y129.391 E13.97115
G1 X150.808 Y129.406 E13.98678
G1 X154.965 Y129.671 E14.12498
G1 X156.818 Y129.784 E14.18657
G1 X156.884 Y129.788 E14.18876
G1 X157.917 Y129.86 E14.22312
G1 X160.941 Y130.015 E14.32358
G1 X161.026 Y130.015 E14.3264
G1 X161.426 Y130.026 E14.33967
G1 X167.357 Y130.347 E14.53673
G1 X170.885 Y130.5 E14.65389
G1 X170.928 Y130.5 E14.65532
G1 X171.393 Y130.515 E14.67075
G1 X171.549 Y130.525 E14.67594
G1 X171.925 Y130.535 E14.68842
G1 X172.143 Y130.547 E14.69566
G1 X172.156 Y130.547 E14.69609
G1 X172.563 Y130.558 E14.7096
G1 X172.781 Y130.57 E14.71684
G1 X172.835 Y130.57 E14.71864
G1 X173.242 Y130.581 E14.73214
G1 X173.46 Y130.593 E14.73939
G1 X173.515 Y130.593 E14.74121
G1 X173.922 Y130.604 E14.75472
G1 X174.14 Y130.616 E14.76196
G1 X174.277 Y130.616 E14.76651
G1 X174.742 Y130.631 E14.78194
G1 X174.885 Y130.64 E14.7867
G1 X175.039 Y130.64 E14.79181
G1 X175.446 Y130.651 E14.80532
G1 X175.664 Y130.663 E14.81256
G1 X175.86 Y130.663 E14.81906
G1 X176.268 Y130.674 E14.8326
G1 X176.486 Y130.686 E14.83985
G1 X176.763 Y130.686 E14.84904
G1 X177.173 Y130.697 E14.86264
G1 X177.389 Y130.709 E14.86982
G1 X177.729 Y130.709 E14.8811
G1 X178.141 Y130.721 E14.89478
G1 X178.338 Y130.732 E14.90132
G1 X178.812 Y130.732 E14.91705
G1 X179.23 Y130.744 E14.93092
G1 X179.425 Y130.755 E14.9374
G1 X180.085 Y130.755 E14.9593
G1 X180.511 Y130.767 E14.97344
G1 X180.702 Y130.778 E14.97978
G1 X181.614 Y130.778 E15.01004
G1 X182.382 Y130.818 E15.03556
G1 X182.835 Y130.889 E15.05077
G1 X183.309 Y130.837 E15.06659
G1 X183.734 Y130.825 E15.08069
G1 X189.411 Y130.825 E15.26904
G1 X190.179 Y130.865 E15.29455
G1 X190.334 Y130.889 E15.29976
G1 X190.492 Y130.861 E15.30508
G1 X191.25 Y130.804 E15.3303
G1 X192.149 Y130.783 E15.36014
G1 X192.429 Y130.767 E15.36944
G1 X192.855 Y130.755 E15.38358
G1 X193.393 Y130.755 E15.40143
G1 X193.588 Y130.744 E15.40791
G1 X194.006 Y130.732 E15.42178
G1 X194.406 Y130.732 E15.43505
G1 X194.603 Y130.721 E15.4416
G1 X195.015 Y130.709 E15.45527
G1 X195.225 Y130.709 E15.46224
G1 X195.441 Y130.697 E15.46942
G1 X195.851 Y130.686 E15.48303
G1 X196.029 Y130.686 E15.48893
G1 X196.247 Y130.674 E15.49617
G1 X196.655 Y130.663 E15.50972
G1 X196.741 Y130.663 E15.51257
G1 X196.884 Y130.654 E15.51732
G1 X197.349 Y130.639 E15.53276
G1 X197.436 Y130.639 E15.53564
G1 X197.636 Y130.628 E15.54229
G1 X198.033 Y130.617 E15.55547
G1 X198.18 Y130.608 E15.56035
G1 X198.642 Y130.593 E15.57569
G1 X198.862 Y130.581 E15.583
G1 X198.936 Y130.577 E15.58546
G1 X200.979 Y130.485 E15.65331
G1 X203.081 Y130.373 E15.72314
G1 X204.898 Y130.26 E15.78354
G1 X207.227 Y130.086 E15.86103
G1 X207.771 Y130.04 E15.87914
G1 X208.112 Y130.026 E15.89046
G1 X208.196 Y130.017 E15.89326
G1 X208.444 Y129.995 E15.90152
G1 X209.232 Y129.939 E15.92773
G1 X211.076 Y129.79 E15.98911
G1 X211.555 Y129.745 E16.00507
G1 X212.254 Y129.712 E16.02829
G1 X212.45 Y129.712 E16.03479
G1 X213.218 Y129.752 E16.06031
G1 X213.978 Y129.871 E16.08583
G1 X214.721 Y130.069 E16.11134
G1 X215.44 Y130.343 E16.13687
G1 X216.126 Y130.69 E16.16237
G1 X216.773 Y131.106 E16.18789
G1 X217.373 Y131.587 E16.21341
G1 X217.683 Y131.879 E16.22753
G1 X217.8 Y131.996 E16.23302
G1 X218.314 Y132.568 E16.25854
G1 X218.767 Y133.19 E16.28407
G1 X219.153 Y133.855 E16.30958
G1 X219.468 Y134.557 E16.3351
G1 X219.708 Y135.288 E16.36063
G1 X219.871 Y136.039 E16.38613
G1 X219.955 Y136.804 E16.41166
G1 X219.967 Y137.229 E16.42577
G1 X219.967 Y164.383 E17.32665
G1 X219.927 Y165.151 E17.35217
G1 X219.808 Y165.911 E17.37769
G1 X219.61 Y166.654 E17.4032
G1 X219.336 Y167.373 E17.42873
G1 X218.989 Y168.059 E17.45423
G1 X218.573 Y168.706 E17.47975
G1 X218.092 Y169.306 E17.50527
G1 X217.755 Y169.66 E17.52148
G1 X217.636 Y169.777 E17.52702
G1 X217.06 Y170.287 E17.55254
G1 X216.435 Y170.734 E17.57804
G1 X215.766 Y171.114 E17.60356
G1 X215.062 Y171.423 E17.62907
G1 X214.329 Y171.657 E17.6546
G1 X213.576 Y171.814 E17.68012
G1 X212.448 Y171.9 E17.71765
G1 X191.498 Y171.9 E18.41271
G1 X190.73 Y171.86 E18.43822
G1 X190.467 Y171.819 E18.44705
G1 X189.836 Y171.888 E18.46811
G1 X189.411 Y171.9 E18.48222
G1 X183.734 Y171.9 E18.67056
G1 X182.966 Y171.86 E18.69608
G1 X182.651 Y171.811 E18.70665
G1 X182.056 Y171.883 E18.72654
G1 X181.55 Y171.9 E18.74334
G1 X118.451 Y171.9 E20.83677
G1 X117.683 Y171.86 E20.86228
